;FLAVOR:Marlin
;TIME:5756
;Filament used: 3.5367m
;Layer height: 0.15
;MINX:77.312
;MINY:53.292
;MINZ:0.3
;MAXX:122.686
;MAXY:136.086
;MAXZ:9.9
;Generated with Cura_SteamEngine 4.8.0
M140 S60
M105
M190 S60
M104 S210
M105
M109 S210
M82 ;absolute extrusion mode
G21 ;metric values
 G90 ;absolute positioning
 M82 ;set extruder to absolute mode
 M107 ;start with the fan off
 G28 X0 Y0 ;move X/Y to min endstops
 G28 Z0 ;move Z to min endstops
 G1 Z15.0 F120 ;move the platform down 15mm
 G92 E0 ;zero the extruded length
 G1 F200 E6 ;extrude 6 mm of feed stock
 G92 E0 ;zero the extruded length again
 G1 F120 
;Put printing message on LCD screen
 M117 Printing...
G92 E0
G92 E0
G1 F1500 E-6.5
;LAYER_COUNT:65
;LAYER:0
M117 INDICATOR-Layer0
M107
;MESH:i3_tensioner_2_REMIX_Y_Axis.stl
G0 F3600 X100.128 Y61.45 Z0.3
;TYPE:WALL-INNER
G1 F1500 E0
G1 F1800 X100.024 Y60.645 E0.0405
G1 X99.832 Y60.097 E0.06946
G1 X99.561 Y59.607 E0.0974
G1 X99.211 Y59.167 E0.12545
G1 X98.794 Y58.793 E0.1534
G1 X98.32 Y58.493 E0.18138
G1 X97.791 Y58.272 E0.20998
G1 X96.995 Y58.122 E0.2504
G1 X96.415 Y58.135 E0.27934
G1 X95.865 Y58.242 E0.30729
G1 X95.339 Y58.438 E0.3353
G1 X94.843 Y58.726 E0.36391
G1 X94.243 Y59.268 E0.40425
G1 X93.903 Y59.738 E0.43319
G1 X93.654 Y60.24 E0.46115
G1 X93.494 Y60.779 E0.4892
G1 X93.424 Y61.335 E0.51716
G1 X93.45 Y61.897 E0.54523
G1 X93.567 Y62.443 E0.57309
G1 X93.775 Y62.965 E0.60112
G1 X94.067 Y63.444 E0.62911
G1 X94.435 Y63.867 E0.65708
G1 X94.868 Y64.224 E0.68508
G1 X95.354 Y64.504 E0.71306
G1 X95.881 Y64.697 E0.74106
G1 X96.43 Y64.801 E0.76894
G1 X96.992 Y64.813 E0.79698
G1 X97.547 Y64.729 E0.82499
G1 X98.08 Y64.555 E0.85296
G1 X98.576 Y64.292 E0.88097
G1 X99.022 Y63.953 E0.90892
G1 X99.414 Y63.535 E0.93751
G1 X99.832 Y62.842 E0.97788
G1 X100.025 Y62.284 E1.00734
G1 X100.128 Y61.45 E1.04926
G0 F3600 X100.228 Y61.45
G0 X102.096 Y70.062
G0 X102.086 Y70.161
G1 F1800 X78.603 Y65.277 E2.24591
G1 X78.598 Y65.175 E2.251
G1 X78.598 Y53.714 E2.82279
G1 X121.203 Y53.714 E4.94836
G1 X121.403 Y53.714 E4.95834
G1 X121.403 Y53.914 E4.9648
G1 X121.402 Y69.266 E5.73072
G1 X121.4 Y69.298 E5.73232
G1 X118.061 Y70.133 E5.90403
G1 X117.934 Y70.161 E5.91052
G1 X102.086 Y70.161 E6.70118
G0 F3600 X102.096 Y70.062
G0 X114.597 Y64.325
G0 X115.445 Y63.559
G0 X115.868 Y62.858
G0 X116.228 Y61.45
G0 X116.128 Y61.45
G1 F1800 X116.024 Y60.645 E6.74167
G1 X115.832 Y60.097 E6.77064
G1 X115.561 Y59.607 E6.79858
G1 X115.211 Y59.167 E6.82663
G1 X114.794 Y58.793 E6.85457
G1 X114.32 Y58.493 E6.88256
G1 X113.791 Y58.272 E6.91116
G1 X112.995 Y58.122 E6.95157
G1 X112.415 Y58.135 E6.98052
G1 X111.865 Y58.242 E7.00847
G1 X111.339 Y58.438 E7.03648
G1 X110.843 Y58.726 E7.06509
G1 X110.243 Y59.268 E7.10543
G1 X109.903 Y59.738 E7.13437
G1 X109.654 Y60.24 E7.16233
G1 X109.494 Y60.779 E7.19038
G1 X109.424 Y61.335 E7.21834
G1 X109.45 Y61.897 E7.24641
G1 X109.567 Y62.443 E7.27426
G1 X109.775 Y62.965 E7.3023
G1 X110.067 Y63.444 E7.33029
G1 X110.435 Y63.867 E7.35826
G1 X110.868 Y64.224 E7.38626
G1 X111.354 Y64.504 E7.41424
G1 X111.881 Y64.697 E7.44224
G1 X112.43 Y64.801 E7.47011
G1 X112.992 Y64.813 E7.49816
G1 X113.547 Y64.729 E7.52616
G1 X114.08 Y64.555 E7.55414
G1 X114.576 Y64.292 E7.58215
G1 X115.022 Y63.953 E7.61009
G1 X115.414 Y63.535 E7.63868
G1 X115.832 Y62.842 E7.67906
G1 X116.025 Y62.284 E7.70852
G1 X116.128 Y61.45 E7.75044
G0 F3600 X115.725 Y61.451
;TYPE:WALL-OUTER
G1 F1800 X115.633 Y60.738 E7.78631
G1 X115.466 Y60.261 E7.81152
G1 X115.227 Y59.83 E7.83611
G1 X114.919 Y59.442 E7.86082
G1 X114.552 Y59.113 E7.88541
G1 X114.135 Y58.849 E7.91004
G1 X113.676 Y58.657 E7.93486
G1 X112.962 Y58.523 E7.9711
G1 X112.458 Y58.534 E7.99625
G1 X111.974 Y58.628 E8.02085
G1 X111.511 Y58.801 E8.04551
G1 X111.08 Y59.051 E8.07037
G1 X110.542 Y59.537 E8.10654
G1 X110.247 Y59.945 E8.13166
G1 X110.028 Y60.387 E8.15627
G1 X109.887 Y60.862 E8.18099
G1 X109.825 Y61.351 E8.20558
G1 X109.848 Y61.845 E8.23025
G1 X109.951 Y62.326 E8.25479
G1 X110.134 Y62.786 E8.27949
G1 X110.391 Y63.207 E8.3041
G1 X110.715 Y63.58 E8.32875
G1 X111.096 Y63.894 E8.35338
G1 X111.524 Y64.14 E8.37801
G1 X111.988 Y64.31 E8.40266
G1 X112.472 Y64.402 E8.42724
G1 X112.966 Y64.412 E8.45189
G1 X113.454 Y64.338 E8.47652
G1 X113.923 Y64.185 E8.50113
G1 X114.36 Y63.954 E8.52579
G1 X114.753 Y63.655 E8.55043
G1 X115.093 Y63.292 E8.57524
G1 X115.468 Y62.671 E8.61143
G1 X115.633 Y62.193 E8.63666
G1 X115.725 Y61.451 E8.67396
G0 F3600 X115.7 Y61.253
G0 X116.195 Y61.19
G0 X115.868 Y60.081
G0 X115.24 Y59.14
G0 X114.338 Y58.458
G0 X112.998 Y58.083
G0 X100.22 Y61.513
G0 X99.725 Y61.451
G1 F1800 X99.633 Y60.738 E8.70983
G1 X99.466 Y60.261 E8.73505
G1 X99.227 Y59.83 E8.75963
G1 X98.919 Y59.442 E8.78435
G1 X98.552 Y59.113 E8.80894
G1 X98.135 Y58.849 E8.83356
G1 X97.676 Y58.657 E8.85838
G1 X96.962 Y58.523 E8.89463
G1 X96.458 Y58.534 E8.91978
G1 X95.974 Y58.628 E8.94437
G1 X95.511 Y58.801 E8.96903
G1 X95.08 Y59.051 E8.99389
G1 X94.542 Y59.537 E9.03006
G1 X94.247 Y59.945 E9.05518
G1 X94.028 Y60.387 E9.07979
G1 X93.887 Y60.862 E9.10451
G1 X93.825 Y61.351 E9.1291
G1 X93.848 Y61.845 E9.15378
G1 X93.951 Y62.326 E9.17832
G1 X94.134 Y62.786 E9.20302
G1 X94.391 Y63.207 E9.22762
G1 X94.715 Y63.58 E9.25227
G1 X95.096 Y63.894 E9.2769
G1 X95.524 Y64.14 E9.30153
G1 X95.988 Y64.31 E9.32619
G1 X96.472 Y64.402 E9.35077
G1 X96.966 Y64.412 E9.37542
G1 X97.454 Y64.338 E9.40004
G1 X97.923 Y64.185 E9.42465
G1 X98.36 Y63.954 E9.44931
G1 X98.753 Y63.655 E9.47395
G1 X99.093 Y63.292 E9.49876
G1 X99.468 Y62.671 E9.53496
G1 X99.633 Y62.193 E9.56019
G1 X99.725 Y61.451 E9.59749
G0 F3600 X99.7 Y61.253
G0 X100.195 Y61.19
G0 X100.063 Y62.293
G0 X99.445 Y63.559
G0 X98.597 Y64.325
G0 X97.556 Y64.767
G0 X78.679 Y65.213
G0 X78.247 Y65.612
G1 F1800 X78.217 Y65.591 E9.59931
G1 X78.198 Y65.194 E9.61914
G1 X78.198 Y53.375 E10.2088
G1 X78.267 Y53.314 E10.21339
G1 X121.585 Y53.314 E12.37453
G1 X121.738 Y53.314 E12.38217
G1 X121.803 Y53.382 E12.38686
G1 X121.803 Y53.535 E12.39449
G1 X121.802 Y69.266 E13.17932
G1 X121.783 Y69.615 E13.19675
G1 X118.147 Y70.524 E13.38374
G1 X117.979 Y70.561 E13.39232
G1 X102.043 Y70.561 E14.18737
G1 X78.247 Y65.612 E15.39996
G0 F3600 X78.217 Y65.591
G0 X78.21 Y65.427
G0 X78.988 Y64.958
;TYPE:SKIN
G1 F1800 X78.988 Y54.104 E15.94147
G1 X121.013 Y54.104 E18.0381
G1 X121.012 Y68.993 E18.78092
G1 X117.97 Y69.754 E18.93736
G1 X117.894 Y69.771 E18.94125
G1 X102.128 Y69.771 E19.72782
G1 X78.988 Y64.958 E20.90698
G0 F3600 X93.062 Y61.948
G1 F1800 X93.193 Y62.556 E20.93801
G1 X93.424 Y63.14 E20.96935
G1 X93.751 Y63.676 E21.00067
G1 X94.162 Y64.148 E21.0319
G1 X94.645 Y64.546 E21.06312
G1 X95.188 Y64.859 E21.09439
G1 X95.777 Y65.074 E21.12567
G1 X96.389 Y65.191 E21.15676
G1 X97.017 Y65.203 E21.18809
G1 X97.637 Y65.11 E21.21937
G1 X98.232 Y64.916 E21.25059
G1 X98.787 Y64.622 E21.28193
G1 X99.284 Y64.244 E21.31308
G1 X99.726 Y63.771 E21.34538
G1 X100.187 Y63.008 E21.38985
G1 X100.407 Y62.372 E21.42343
G1 X100.522 Y61.448 E21.46988
G1 X100.406 Y60.555 E21.51481
G1 X100.189 Y59.937 E21.54748
G1 X99.887 Y59.39 E21.57866
G1 X99.496 Y58.898 E21.61001
G1 X99.03 Y58.481 E21.64121
G1 X98.501 Y58.146 E21.67245
G1 X97.904 Y57.896 E21.70474
G1 X97.027 Y57.732 E21.74925
G1 X96.374 Y57.745 E21.78184
G1 X95.759 Y57.866 E21.81311
G1 X95.172 Y58.085 E21.84436
G1 X94.611 Y58.41 E21.87671
G1 X93.951 Y59.006 E21.92108
G1 X93.568 Y59.535 E21.95366
G1 X93.289 Y60.097 E21.98496
G1 X93.111 Y60.699 E22.01628
G1 X93.032 Y61.319 E22.04746
G1 X93.062 Y61.948 E22.07888
G0 F3600 X94.035 Y63.467
G0 X94.846 Y64.256
G0 X95.871 Y64.735
G0 X96.994 Y64.852
G0 X109.062 Y61.948
G1 F1800 X109.193 Y62.556 E22.10991
G1 X109.424 Y63.14 E22.14124
G1 X109.751 Y63.676 E22.17257
G1 X110.162 Y64.148 E22.20379
G1 X110.645 Y64.546 E22.23501
G1 X111.188 Y64.859 E22.26628
G1 X111.777 Y65.074 E22.29756
G1 X112.389 Y65.191 E22.32865
G1 X113.017 Y65.203 E22.35999
G1 X113.637 Y65.11 E22.39127
G1 X114.232 Y64.916 E22.42249
G1 X114.787 Y64.622 E22.45382
G1 X115.284 Y64.244 E22.48497
G1 X115.726 Y63.771 E22.51727
G1 X116.187 Y63.008 E22.56175
G1 X116.407 Y62.372 E22.59532
G1 X116.522 Y61.448 E22.64178
G1 X116.406 Y60.555 E22.6867
G1 X116.189 Y59.937 E22.71938
G1 X115.887 Y59.39 E22.75055
G1 X115.496 Y58.898 E22.78191
G1 X115.03 Y58.481 E22.8131
G1 X114.501 Y58.146 E22.84434
G1 X113.904 Y57.896 E22.87663
G1 X113.027 Y57.732 E22.92115
G1 X112.374 Y57.745 E22.95373
G1 X111.759 Y57.866 E22.985
G1 X111.172 Y58.085 E23.01626
G1 X110.611 Y58.41 E23.0486
G1 X109.951 Y59.006 E23.09297
G1 X109.568 Y59.535 E23.12555
G1 X109.289 Y60.097 E23.15686
G1 X109.111 Y60.699 E23.18818
G1 X109.032 Y61.319 E23.21936
G1 X109.062 Y61.948 E23.25077
G0 F3600 X109.617 Y60.226
G0 X110.214 Y59.242
G0 X110.82 Y58.694
G0 X120.832 Y54.647
G1 F1800 X120.469 Y54.283 E23.27642
G0 F3600 X119.903 Y54.283
G1 F1800 X120.832 Y55.213 E23.342
G0 F3600 X120.832 Y55.778
G1 F1800 X119.337 Y54.283 E23.44748
G0 F3600 X118.772 Y54.283
G1 F1800 X120.832 Y56.344 E23.59286
G0 F3600 X120.832 Y56.91
G1 F1800 X118.206 Y54.283 E23.77818
G0 F3600 X117.64 Y54.283
G1 F1800 X120.832 Y57.475 E24.00339
G0 F3600 X120.832 Y58.041
G1 F1800 X117.074 Y54.283 E24.26854
G0 F3600 X116.509 Y54.283
G1 F1800 X120.832 Y58.607 E24.57358
G0 F3600 X120.832 Y59.172
G1 F1800 X115.943 Y54.283 E24.91853
G0 F3600 X115.377 Y54.283
G1 F1800 X120.832 Y59.738 E25.30341
G0 F3600 X120.832 Y60.304
G1 F1800 X114.812 Y54.283 E25.72819
G0 F3600 X114.246 Y54.283
G1 F1800 X120.832 Y60.869 E26.19286
G0 F3600 X120.832 Y61.435
G1 F1800 X113.68 Y54.283 E26.69748
G0 F3600 X113.115 Y54.283
G1 F1800 X120.831 Y62 E27.24192
G0 F3600 X120.831 Y62.566
G1 F1800 X112.549 Y54.283 E27.82629
G0 F3600 X111.983 Y54.283
G1 F1800 X120.831 Y63.131 E28.45057
G0 F3600 X120.831 Y63.697
G1 F1800 X111.418 Y54.283 E29.11474
G0 F3600 X110.852 Y54.283
G1 F1800 X114.532 Y57.964 E29.37442
G1 X114.602 Y58.034
G0 F3600 X113.672 Y57.669
G1 F1800 X110.286 Y54.283 E29.61332
G0 F3600 X109.721 Y54.283
G1 F1800 X112.99 Y57.552 E29.84397
G0 F3600 X112.434 Y57.562
G1 F1800 X109.155 Y54.283 E30.07532
G0 F3600 X108.589 Y54.283
G1 F1800 X111.95 Y57.644 E30.31245
G0 F3600 X111.507 Y57.767
G1 F1800 X108.023 Y54.283 E30.55827
G0 F3600 X107.458 Y54.283
G1 F1800 X111.095 Y57.921 E30.81491
G0 F3600 X110.736 Y58.127
G1 F1800 X106.892 Y54.283 E31.08613
G0 F3600 X106.326 Y54.283
G1 F1800 X110.399 Y58.356 E31.3735
G0 F3600 X110.102 Y58.624
G1 F1800 X105.761 Y54.283 E31.67978
G0 F3600 X105.195 Y54.283
G1 F1800 X109.808 Y58.896 E32.00525
G0 F3600 X109.57 Y59.224
G1 F1800 X104.629 Y54.283 E32.35387
G0 F3600 X104.064 Y54.283
G1 F1800 X109.349 Y59.568 E32.72675
G0 F3600 X109.162 Y59.947
G1 F1800 X103.498 Y54.283 E33.12638
G0 F3600 X102.932 Y54.283
G1 F1800 X109.02 Y60.371 E33.55592
G0 F3600 X108.912 Y60.829
G1 F1800 X102.367 Y54.283 E34.01774
G0 F3600 X101.801 Y54.283
G1 F1800 X108.851 Y61.333 E34.51516
G0 F3600 X108.881 Y61.929
G1 F1800 X101.235 Y54.283 E35.05462
G0 F3600 X100.67 Y54.283
G1 F1800 X109.035 Y62.649 E35.64485
G1 X109.105 Y62.719
G0 F3600 X109.613 Y63.793
G1 F1800 X100.104 Y54.283 E36.3158
G0 F3600 X99.538 Y54.283
G1 F1800 X114.845 Y69.59 E37.39579
G0 F3600 X115.411 Y69.59
G1 F1800 X110.391 Y64.57 E37.74998
G1 X110.321 Y64.5
G0 F3600 X111.579 Y65.193
G1 F1800 X115.976 Y69.59 E38.06021
G0 F3600 X116.542 Y69.59
G1 F1800 X112.311 Y65.36 E38.3587
G0 F3600 X112.898 Y65.38
G1 F1800 X117.108 Y69.59 E38.65574
G0 F3600 X117.673 Y69.59
G1 F1800 X113.409 Y65.326 E38.95658
G0 F3600 X113.871 Y65.222
G1 F1800 X118.167 Y69.518 E39.25969
G0 F3600 X118.619 Y69.405
G1 F1800 X114.298 Y65.083 E39.56459
G0 F3600 X114.668 Y64.888
G1 F1800 X119.072 Y69.292 E39.87532
G0 F3600 X119.525 Y69.179
G1 F1800 X115.018 Y64.672 E40.19331
G0 F3600 X115.339 Y64.428
G1 F1800 X119.977 Y69.065 E40.52051
G0 F3600 X120.43 Y68.952
G1 F1800 X115.621 Y64.143 E40.85982
G0 F3600 X115.889 Y63.846
G1 F1800 X120.831 Y68.788 E41.2085
G0 F3600 X120.831 Y68.223
G1 F1800 X116.101 Y63.493 E41.54223
G0 F3600 X116.315 Y63.141
G1 F1800 X120.831 Y67.657 E41.86086
G0 F3600 X120.831 Y67.091
G1 F1800 X116.471 Y62.731 E42.16848
G0 F3600 X116.597 Y62.291
G1 F1800 X120.831 Y66.526 E42.46724
G0 F3600 X120.831 Y65.96
G1 F1800 X116.659 Y61.788 E42.7616
G0 F3600 X116.675 Y61.238
G1 F1800 X120.831 Y65.394 E43.05483
G0 F3600 X120.831 Y64.828
G1 F1800 X116.591 Y60.588 E43.35398
G1 X116.521 Y60.518
G0 F3600 X116.254 Y59.685
G1 F1800 X120.831 Y64.263 E43.67695
G1 X120.901 Y64.333
G0 F3600 X114.279 Y69.59
G1 F1800 X98.973 Y54.283 E44.75691
G0 F3600 X98.407 Y54.283
G1 F1800 X113.714 Y69.59 E45.8369
G0 F3600 X113.148 Y69.59
G1 F1800 X97.841 Y54.283 E46.91689
G0 F3600 X97.275 Y54.283
G1 F1800 X112.582 Y69.59 E47.99688
G0 F3600 X112.017 Y69.59
G1 F1800 X96.71 Y54.283 E49.07687
G0 F3600 X96.144 Y54.283
G1 F1800 X111.451 Y69.59 E50.15687
G0 F3600 X110.885 Y69.59
G1 F1800 X95.578 Y54.283 E51.23686
G0 F3600 X95.013 Y54.283
G1 F1800 X98.941 Y58.212 E51.51403
G1 X99.011 Y58.282
G0 F3600 X97.87 Y57.706
G1 F1800 X94.447 Y54.283 E51.75554
G0 F3600 X93.881 Y54.283
G1 F1800 X97.174 Y57.576 E51.98788
G0 F3600 X96.592 Y57.559
G1 F1800 X93.316 Y54.283 E52.21902
G0 F3600 X92.75 Y54.283
G1 F1800 X96.084 Y57.617 E52.45425
G0 F3600 X95.624 Y57.723
G1 F1800 X92.184 Y54.283 E52.69697
G0 F3600 X91.619 Y54.283
G1 F1800 X95.212 Y57.877 E52.95051
G0 F3600 X94.838 Y58.069
G1 F1800 X91.053 Y54.283 E53.21759
G0 F3600 X90.487 Y54.283
G1 F1800 X94.484 Y58.28 E53.4996
G0 F3600 X94.186 Y58.548
G1 F1800 X89.922 Y54.283 E53.80049
G0 F3600 X89.356 Y54.283
G1 F1800 X93.889 Y58.817 E54.12035
G0 F3600 X93.637 Y59.131
G1 F1800 X88.79 Y54.283 E54.46237
G0 F3600 X88.225 Y54.283
G1 F1800 X93.403 Y59.462 E54.82774
G0 F3600 X93.215 Y59.84
G1 F1800 X87.659 Y54.283 E55.21978
G0 F3600 X87.093 Y54.283
G1 F1800 X93.056 Y60.246 E55.6405
G0 F3600 X92.931 Y60.687
G1 F1800 X86.527 Y54.283 E56.09234
G0 F3600 X85.962 Y54.283
G1 F1800 X92.867 Y61.188 E56.57952
G0 F3600 X92.872 Y61.759
G1 F1800 X85.396 Y54.283 E57.107
G0 F3600 X84.83 Y54.283
G1 F1800 X92.982 Y62.435 E57.68216
G1 X93.052 Y62.505
G0 F3600 X93.353 Y63.372
G1 F1800 X84.265 Y54.283 E58.32341
G0 F3600 X83.699 Y54.283
G1 F1800 X98.181 Y68.765 E59.34519
G0 F3600 X98.895 Y68.913
G1 F1800 X94.859 Y64.878 E59.62992
G1 X94.789 Y64.808
G0 F3600 X95.81 Y65.263
G1 F1800 X99.609 Y69.062 E59.89796
G0 F3600 X100.323 Y69.21
G1 F1800 X96.486 Y65.373 E60.16868
G0 F3600 X97.057 Y65.379
G1 F1800 X101.037 Y69.359 E60.44949
G0 F3600 X101.751 Y69.507
G1 F1800 X97.548 Y65.304 E60.74603
G0 F3600 X97.992 Y65.183
G1 F1800 X102.4 Y69.59 E61.057
G0 F3600 X102.966 Y69.59
G1 F1800 X98.403 Y65.028 E61.37891
G0 F3600 X98.773 Y64.832
G1 F1800 X103.531 Y69.59 E61.71462
G0 F3600 X104.097 Y69.59
G1 F1800 X99.11 Y64.603 E62.06648
G0 F3600 X99.426 Y64.353
G1 F1800 X104.663 Y69.59 E62.43597
G0 F3600 X105.228 Y69.59
G1 F1800 X99.699 Y64.061 E62.82608
G0 F3600 X99.949 Y63.745
G1 F1800 X105.794 Y69.59 E63.23847
G0 F3600 X106.36 Y69.59
G1 F1800 X100.163 Y63.393 E63.6757
G0 F3600 X100.367 Y63.032
G1 F1800 X106.925 Y69.59 E64.13841
G0 F3600 X107.491 Y69.59
G1 F1800 X100.513 Y62.612 E64.63074
G0 F3600 X100.615 Y62.149
G1 F1800 X108.057 Y69.59 E65.15578
G0 F3600 X108.622 Y69.59
G1 F1800 X100.677 Y61.645 E65.71634
G0 F3600 X100.651 Y61.053
G1 F1800 X109.188 Y69.59 E66.31867
G0 F3600 X109.754 Y69.59
G1 F1800 X100.53 Y60.366 E66.96948
G1 X100.46 Y60.296
G0 F3600 X100.055 Y59.326
G1 F1800 X110.319 Y69.59 E67.69366
G1 X110.389 Y69.66
G0 F3600 X97.466 Y68.616
G1 F1800 X83.133 Y54.283 E68.70493
G0 F3600 X82.568 Y54.283
G1 F1800 X96.752 Y68.468 E69.70572
G0 F3600 X96.038 Y68.319
G1 F1800 X82.002 Y54.283 E70.69604
G0 F3600 X81.436 Y54.283
G1 F1800 X95.324 Y68.171 E71.67591
G0 F3600 X94.61 Y68.022
G1 F1800 X80.871 Y54.283 E72.64527
G0 F3600 X80.305 Y54.283
G1 F1800 X93.896 Y67.874 E73.60419
G0 F3600 X93.181 Y67.725
G1 F1800 X79.739 Y54.283 E74.55259
G0 F3600 X79.174 Y54.283
G1 F1800 X92.467 Y67.577 E75.49052
G0 F3600 X91.752 Y67.428
G1 F1800 X79.166 Y54.842 E76.37853
G0 F3600 X79.166 Y55.408
G1 F1800 X91.038 Y67.279 E77.21613
G0 F3600 X90.324 Y67.131
G1 F1800 X79.166 Y55.973 E78.00339
G0 F3600 X79.166 Y56.539
G1 F1800 X89.61 Y66.982 E78.74023
