;FLAVOR:Marlin
;TIME:6346
;Filament used: 2.99014m
;Layer height: 0.1
;MINX:84.4
;MINY:54.15
;MINZ:0.3
;MAXX:115.6
;MAXY:145.85
;MAXZ:8
;Generated with Cura_SteamEngine 4.8.0
M140 S60
M105
M190 S60
M104 S195
M105
M109 S195
M82 ;absolute extrusion mode
G21 ;metric values
 G90 ;absolute positioning
 M82 ;set extruder to absolute mode
 M107 ;start with the fan off
 G28 X0 Y0 ;move X/Y to min endstops
 G28 Z0 ;move Z to min endstops
 G1 Z15.0 F120 ;move the platform down 15mm
 G92 E0 ;zero the extruded length
 G1 F200 E6 ;extrude 6 mm of feed stock
 G92 E0 ;zero the extruded length again
 G1 F120 
;Put printing message on LCD screen
 M117 Printing...
G92 E0
G92 E0
G1 F1500 E-6.5
;LAYER_COUNT:78
;LAYER:0
M117 INDICATOR-Layer0
M107
;MESH:UH-usb-empty.stl
G0 F3600 X110.2 Y76.075 Z0.3
;TYPE:WALL-INNER
G1 F1500 E0
G1 F1800 X110.2 Y95.8 E0.98408
G1 X115.2 Y95.8 E1.23354
G1 X115.2 Y112.325 E2.05797
G1 X110.2 Y112.325 E2.30742
G1 X110.2 Y132.05 E3.29151
G1 X115.2 Y132.05 E3.54096
G1 X115.2 Y140.45 E3.96003
G1 X110.2 Y140.45 E4.20949
G1 X110.2 Y145.45 E4.45894
G1 X100.8 Y145.45 E4.9279
G1 X100.8 Y140.45 E5.17736
G1 X89.8 Y140.45 E5.72615
G1 X89.8 Y130.45 E6.22505
G1 X84.8 Y130.45 E6.4745
G1 X84.8 Y113.925 E7.29894
G1 X89.8 Y113.925 E7.54839
G1 X89.8 Y94.2 E8.53247
G1 X84.8 Y94.2 E8.78192
G1 X84.8 Y77.675 E9.60636
G1 X89.8 Y77.675 E9.85581
G1 X89.8 Y54.55 E11.00952
G1 X99.2 Y54.55 E11.47849
G1 X99.2 Y59.55 E11.72794
G1 X111.8 Y59.55 E12.35656
G1 X111.8 Y54.55 E12.60601
G1 X115.2 Y54.55 E12.77563
G1 X115.2 Y76.075 E13.84952
G1 X110.2 Y76.075 E14.09897
G0 F3600 X110.6 Y76.475
;TYPE:WALL-OUTER
G1 F1800 X110.6 Y95.4 E15.04314
G1 X115.6 Y95.4 E15.29259
G1 X115.6 Y112.725 E16.15694
G1 X110.6 Y112.725 E16.40639
G1 X110.6 Y131.65 E17.35057
G1 X115.6 Y131.65 E17.60002
G1 X115.6 Y140.85 E18.05901
G1 X110.6 Y140.85 E18.30846
G1 X110.6 Y145.85 E18.55791
G1 X100.4 Y145.85 E19.06679
G1 X100.4 Y140.85 E19.31624
G1 X89.4 Y140.85 E19.86503
G1 X89.4 Y130.85 E20.36393
G1 X84.4 Y130.85 E20.61338
G1 X84.4 Y113.525 E21.47773
G1 X89.4 Y113.525 E21.72718
G1 X89.4 Y94.6 E22.67136
G1 X84.4 Y94.6 E22.92081
G1 X84.4 Y77.275 E23.78515
G1 X89.4 Y77.275 E24.03461
G1 X89.4 Y54.15 E25.18832
G1 X99.6 Y54.15 E25.6972
G1 X99.6 Y59.15 E25.94665
G1 X111.4 Y59.15 E26.53535
G1 X111.4 Y54.15 E26.7848
G1 X115.6 Y54.15 E26.99434
G1 X115.6 Y76.475 E28.10814
G1 X110.6 Y76.475 E28.35759
G0 F3600 X110.6 Y76.675
G0 X110.1 Y76.675
G0 X109.81 Y75.685
;TYPE:SKIN
G1 F1800 X109.81 Y96.19 E29.38059
G1 X114.81 Y96.19 E29.63004
G1 X114.81 Y111.935 E30.41556
G1 X109.81 Y111.935 E30.66501
G1 X109.81 Y132.44 E31.68801
G1 X114.81 Y132.44 E31.93746
G1 X114.81 Y140.06 E32.31763
G1 X109.81 Y140.06 E32.56708
G1 X109.81 Y145.06 E32.81653
G1 X101.19 Y145.06 E33.24658
G1 X101.19 Y140.06 E33.49603
G1 X90.19 Y140.06 E34.04482
G1 X90.19 Y130.06 E34.54373
G1 X85.19 Y130.06 E34.79318
G1 X85.19 Y114.315 E35.5787
G1 X90.19 Y114.315 E35.82815
G1 X90.19 Y93.81 E36.85115
G1 X85.19 Y93.81 E37.1006
G1 X85.19 Y78.065 E37.88612
G1 X90.19 Y78.065 E38.13557
G1 X90.19 Y54.94 E39.28928
G1 X98.81 Y54.94 E39.71934
G1 X98.81 Y59.94 E39.96879
G1 X112.19 Y59.94 E40.63632
G1 X112.19 Y54.94 E40.88577
G1 X114.81 Y54.94 E41.01648
G1 X114.81 Y75.685 E42.05145
G1 X109.81 Y75.685 E42.3009
G0 F3600 X114.629 Y55.232
G1 F1800 X114.517 Y55.12 E42.30881
G0 F3600 X113.951 Y55.12
G1 F1800 X114.629 Y55.797 E42.35661
G0 F3600 X114.629 Y56.363
G1 F1800 X113.385 Y55.12 E42.44434
G0 F3600 X112.82 Y55.12
G1 F1800 X114.629 Y56.929 E42.57198
G0 F3600 X114.629 Y57.494
G1 F1800 X112.369 Y55.234 E42.73143
G0 F3600 X112.369 Y55.8
G1 F1800 X114.629 Y58.06 E42.89089
G0 F3600 X114.629 Y58.626
G1 F1800 X112.369 Y56.366 E43.05034
G0 F3600 X112.369 Y56.931
G1 F1800 X114.629 Y59.191 E43.2098
G0 F3600 X114.629 Y59.757
G1 F1800 X112.369 Y57.497 E43.36925
G0 F3600 X112.369 Y58.063
G1 F1800 X114.629 Y60.323 E43.52871
G0 F3600 X114.629 Y60.888
G1 F1800 X112.369 Y58.629 E43.68813
G0 F3600 X112.369 Y59.194
G1 F1800 X114.629 Y61.454 E43.84759
G0 F3600 X114.629 Y62.02
G1 F1800 X112.369 Y59.76 E44.00704
G0 F3600 X112.163 Y60.12
G1 F1800 X114.629 Y62.586 E44.18103
G0 F3600 X114.629 Y63.151
G1 F1800 X111.597 Y60.12 E44.39492
G0 F3600 X111.032 Y60.12
G1 F1800 X114.629 Y63.717 E44.64871
G0 F3600 X114.629 Y64.283
G1 F1800 X110.466 Y60.12 E44.94243
G0 F3600 X109.9 Y60.12
G1 F1800 X114.629 Y64.848 E45.27605
G0 F3600 X114.629 Y65.414
G1 F1800 X109.334 Y60.12 E45.64961
G0 F3600 X108.769 Y60.12
G1 F1800 X114.629 Y65.98 E46.06306
G0 F3600 X114.629 Y66.545
G1 F1800 X108.203 Y60.12 E46.51641
G0 F3600 X107.637 Y60.12
G1 F1800 X114.629 Y67.111 E47.0097
G0 F3600 X114.629 Y67.677
G1 F1800 X107.072 Y60.12 E47.54289
G0 F3600 X106.506 Y60.12
G1 F1800 X114.629 Y68.242 E48.11598
G0 F3600 X114.629 Y68.808
G1 F1800 X105.94 Y60.12 E48.729
G0 F3600 X105.375 Y60.12
G1 F1800 X114.629 Y69.374 E49.38192
G0 F3600 X114.629 Y69.939
G1 F1800 X104.809 Y60.12 E50.07473
G0 F3600 X104.243 Y60.12
G1 F1800 X114.629 Y70.505 E50.80749
G0 F3600 X114.629 Y71.071
G1 F1800 X103.678 Y60.12 E51.58014
G0 F3600 X103.112 Y60.12
G1 F1800 X114.629 Y71.636 E52.39269
G0 F3600 X114.629 Y72.202
G1 F1800 X102.546 Y60.12 E53.24518
G0 F3600 X101.981 Y60.12
G1 F1800 X114.629 Y72.768 E54.13756
G0 F3600 X114.629 Y73.334
G1 F1800 X101.415 Y60.12 E55.06988
G0 F3600 X100.849 Y60.12
G1 F1800 X114.629 Y73.899 E56.0421
G0 F3600 X114.629 Y74.465
G1 F1800 X100.284 Y60.12 E57.05422
G0 F3600 X99.718 Y60.12
G1 F1800 X114.629 Y75.031 E58.10627
G0 F3600 X114.537 Y75.504
G1 F1800 X99.152 Y60.12 E59.19173
G0 F3600 X98.629 Y59.597
G1 F1800 X94.151 Y55.119 E59.50767
G0 F3600 X93.586 Y55.119
G1 F1800 X113.971 Y75.504 E60.94595
G0 F3600 X113.405 Y75.504
G1 F1800 X93.02 Y55.119 E62.38422
G0 F3600 X92.454 Y55.119
G1 F1800 X112.84 Y75.504 E63.82252
G0 F3600 X112.274 Y75.504
G1 F1800 X91.889 Y55.119 E65.2608
G0 F3600 X91.323 Y55.119
G1 F1800 X111.708 Y75.504 E66.69907
G0 F3600 X111.143 Y75.504
G1 F1800 X90.757 Y55.119 E68.13738
G0 F3600 X90.368 Y55.296
G1 F1800 X110.577 Y75.504 E69.56319
G0 F3600 X110.011 Y75.504
G1 F1800 X90.368 Y55.862 E70.94908
G0 F3600 X90.368 Y56.427
G1 F1800 X109.629 Y75.688 E72.30805
G0 F3600 X109.629 Y76.254
G1 F1800 X90.368 Y56.993 E73.66701
G0 F3600 X90.368 Y57.559
G1 F1800 X109.629 Y76.82 E75.02598
G0 F3600 X109.629 Y77.385
G1 F1800 X90.368 Y58.124 E76.38495
G0 F3600 X90.368 Y58.69
G1 F1800 X109.629 Y77.951 E77.74392
G0 F3600 X109.629 Y78.517
G1 F1800 X90.368 Y59.256 E79.10288
G0 F3600 X90.368 Y59.821
G1 F1800 X109.629 Y79.082 E80.46185
G0 F3600 X109.629 Y79.648
G1 F1800 X90.368 Y60.387 E81.82082
G0 F3600 X90.368 Y60.953
G1 F1800 X109.629 Y80.214 E83.17979
G0 F3600 X109.629 Y80.779
G1 F1800 X90.368 Y61.518 E84.53875
G0 F3600 X90.368 Y62.084
G1 F1800 X109.629 Y81.345 E85.89772
G0 F3600 X109.629 Y81.911
G1 F1800 X90.368 Y62.65 E87.25669
G0 F3600 X90.368 Y63.216
G1 F1800 X109.629 Y82.476 E88.61562
G0 F3600 X109.629 Y83.042
G1 F1800 X90.368 Y63.781 E89.97459
G0 F3600 X90.368 Y64.347
G1 F1800 X109.629 Y83.608 E91.33356
G0 F3600 X109.629 Y84.173
G1 F1800 X90.368 Y64.913 E92.69249
G0 F3600 X90.368 Y65.478
G1 F1800 X109.629 Y84.739 E94.05146
G0 F3600 X109.629 Y85.305
G1 F1800 X90.368 Y66.044 E95.41042
G0 F3600 X90.368 Y66.61
G1 F1800 X109.629 Y85.871 E96.76939
G0 F3600 X109.629 Y86.436
G1 F1800 X90.368 Y67.175 E98.12836
G0 F3600 X90.368 Y67.741
G1 F1800 X109.629 Y87.002 E99.48733
G0 F3600 X109.629 Y87.568
G1 F1800 X90.368 Y68.307 E100.8463
G0 F3600 X90.368 Y68.872
G1 F1800 X109.629 Y88.133 E102.20526
G0 F3600 X109.629 Y88.699
G1 F1800 X90.368 Y69.438 E103.56423
G0 F3600 X90.368 Y70.004
G1 F1800 X109.629 Y89.265 E104.9232
G0 F3600 X109.629 Y89.83
G1 F1800 X90.368 Y70.569 E106.28217
G0 F3600 X90.368 Y71.135
G1 F1800 X109.629 Y90.396 E107.64113
G0 F3600 X109.629 Y90.962
G1 F1800 X90.368 Y71.701 E109.0001
G0 F3600 X90.368 Y72.267
G1 F1800 X109.629 Y91.527 E110.35903
G0 F3600 X109.629 Y92.093
G1 F1800 X90.368 Y72.832 E111.718
G0 F3600 X90.368 Y73.398
G1 F1800 X109.629 Y92.659 E113.07697
G0 F3600 X109.629 Y93.224
G1 F1800 X90.368 Y73.964 E114.4359
G0 F3600 X90.368 Y74.529
G1 F1800 X109.629 Y93.79 E115.79487
G0 F3600 X109.629 Y94.356
G1 F1800 X90.368 Y75.095 E117.15384
G0 F3600 X90.368 Y75.661
G1 F1800 X109.629 Y94.922 E118.5128
G0 F3600 X109.629 Y95.487
G1 F1800 X90.368 Y76.226 E119.87177
G0 F3600 X90.368 Y76.792
G1 F1800 X109.629 Y96.053 E121.23074
G0 F3600 X109.946 Y96.37
G1 F1800 X114.629 Y101.052 E121.56111
G0 F3600 X114.629 Y100.486
G1 F1800 X110.512 Y96.37 E121.85156
G0 F3600 X111.077 Y96.37
G1 F1800 X114.629 Y99.921 E122.10213
G0 F3600 X114.629 Y99.355
G1 F1800 X111.643 Y96.37 E122.31278
G0 F3600 X112.209 Y96.37
G1 F1800 X114.629 Y98.789 E122.48348
G0 F3600 X114.629 Y98.224
G1 F1800 X112.775 Y96.37 E122.61429
G0 F3600 X113.34 Y96.37
G1 F1800 X114.629 Y97.658 E122.70521
G0 F3600 X114.629 Y97.092
G1 F1800 X113.906 Y96.37 E122.75618
G0 F3600 X114.472 Y96.37
G1 F1800 X114.629 Y96.527 E122.76726
G0 F3600 X114.629 Y101.618
G1 F1800 X90.368 Y77.358 E124.47897
G0 F3600 X90.368 Y77.923
G1 F1800 X114.629 Y102.184 E126.19071
G0 F3600 X114.629 Y102.749
G1 F1800 X90.124 Y78.244 E127.91967
G0 F3600 X89.558 Y78.244
G1 F1800 X114.629 Y103.315 E129.68857
G0 F3600 X114.629 Y103.881
G1 F1800 X88.992 Y78.244 E131.4974
G0 F3600 X88.427 Y78.244
G1 F1800 X114.629 Y104.446 E133.34609
G0 F3600 X114.629 Y105.012
G1 F1800 X87.861 Y78.244 E135.23472
G0 F3600 X87.295 Y78.244
G1 F1800 X114.629 Y105.578 E137.16328
G0 F3600 X114.629 Y106.143
G1 F1800 X86.73 Y78.244 E139.1317
G0 F3600 X86.164 Y78.244
G1 F1800 X114.629 Y106.709 E141.14006
G0 F3600 X114.629 Y107.275
G1 F1800 X85.598 Y78.244 E143.18836
G0 F3600 X85.369 Y78.581
G1 F1800 X114.629 Y107.84 E145.25277
G0 F3600 X114.629 Y108.406
G1 F1800 X85.369 Y79.147 E147.31719
G0 F3600 X85.369 Y79.712
G1 F1800 X114.629 Y108.972 E149.38164
G0 F3600 X114.629 Y109.537
G1 F1800 X85.369 Y80.278 E151.44605
G0 F3600 X85.369 Y80.844
G1 F1800 X114.629 Y110.103 E153.51047
G0 F3600 X114.629 Y110.669
G1 F1800 X85.369 Y81.409 E155.57492
G0 F3600 X85.369 Y81.975
G1 F1800 X114.629 Y111.234 E157.63934
G0 F3600 X114.583 Y111.754
G1 F1800 X85.369 Y82.541 E159.70051
G0 F3600 X85.369 Y83.106
G1 F1800 X114.017 Y111.754 E161.72178
G0 F3600 X113.451 Y111.754
G1 F1800 X85.369 Y83.672 E163.70311
G0 F3600 X85.369 Y84.238
G1 F1800 X112.886 Y111.754 E165.64455
G0 F3600 X112.32 Y111.754
G1 F1800 X85.369 Y84.804 E167.54606
G0 F3600 X85.369 Y85.369
G1 F1800 X111.753 Y111.753 E169.40759
G0 F3600 X111.188 Y111.753
G1 F1800 X85.369 Y85.935 E171.22922
G0 F3600 X85.369 Y86.501
G1 F1800 X110.622 Y111.753 E173.01092
G0 F3600 X110.056 Y111.753
G1 F1800 X85.369 Y87.066 E174.75273
G0 F3600 X85.369 Y87.632
G1 F1800 X109.629 Y111.892 E176.4644
G0 F3600 X109.629 Y112.458
G1 F1800 X85.369 Y88.198 E178.17607
G0 F3600 X85.369 Y88.763
G1 F1800 X90.235 Y93.629 E178.5194
G0 F3600 X90.369 Y93.763
G1 F1800 X109.629 Y113.023 E179.87829
G0 F3600 X109.629 Y113.589
G1 F1800 X90.369 Y94.329 E181.23719
G0 F3600 X90.369 Y94.895
G1 F1800 X109.629 Y114.155 E182.59609
G0 F3600 X109.629 Y114.721
G1 F1800 X90.369 Y95.46 E183.95502
G0 F3600 X90.369 Y96.026
G1 F1800 X109.629 Y115.286 E185.31392
G0 F3600 X109.629 Y115.852
G1 F1800 X90.369 Y96.592 E186.67281
G0 F3600 X90.369 Y97.157
G1 F1800 X109.629 Y116.418 E188.03175
G0 F3600 X109.629 Y116.983
G1 F1800 X90.369 Y97.723 E189.39064
G0 F3600 X90.369 Y98.289
G1 F1800 X109.629 Y117.549 E190.74954
G0 F3600 X109.629 Y118.115
G1 F1800 X90.369 Y98.854 E192.10847
G0 F3600 X90.369 Y99.42
G1 F1800 X109.629 Y118.68 E193.46737
G0 F3600 X109.629 Y119.246
G1 F1800 X90.369 Y99.986 E194.82627
G0 F3600 X90.369 Y100.551
G1 F1800 X109.629 Y119.812 E196.1852
G0 F3600 X109.629 Y120.377
G1 F1800 X90.369 Y101.117 E197.5441
G0 F3600 X90.369 Y101.683
G1 F1800 X109.629 Y120.943 E198.90299
G0 F3600 X109.629 Y121.509
G1 F1800 X90.369 Y102.249 E200.26189
G0 F3600 X90.369 Y102.814
G1 F1800 X109.629 Y122.074 E201.62079
G0 F3600 X109.629 Y122.64
G1 F1800 X90.369 Y103.38 E202.97968
G0 F3600 X90.369 Y103.946
G1 F1800 X109.629 Y123.206 E204.33858
G0 F3600 X109.629 Y123.771
G1 F1800 X90.369 Y104.511 E205.69748
G0 F3600 X90.369 Y105.077
G1 F1800 X109.629 Y124.337 E207.05637
G0 F3600 X109.629 Y124.903
G1 F1800 X90.369 Y105.643 E208.41527
G0 F3600 X90.369 Y106.208
G1 F1800 X109.629 Y125.469 E209.7742
G0 F3600 X109.629 Y126.034
G1 F1800 X90.369 Y106.774 E211.1331
G0 F3600 X90.369 Y107.34
G1 F1800 X109.629 Y126.6 E212.492
G0 F3600 X109.629 Y127.166
G1 F1800 X90.369 Y107.905 E213.85093
G0 F3600 X90.369 Y108.471
G1 F1800 X109.629 Y127.731 E215.20983
G0 F3600 X109.629 Y128.297
G1 F1800 X90.369 Y109.037 E216.56872
G0 F3600 X90.369 Y109.602
G1 F1800 X109.629 Y128.863 E217.92766
G0 F3600 X109.629 Y129.428
G1 F1800 X90.369 Y110.168 E219.28655
G0 F3600 X90.369 Y110.734
G1 F1800 X109.629 Y129.994 E220.64545
G0 F3600 X109.629 Y130.56
G1 F1800 X90.369 Y111.3 E222.00435
G0 F3600 X90.369 Y111.865
G1 F1800 X109.629 Y131.125 E223.36324
G0 F3600 X109.629 Y131.691
G1 F1800 X90.369 Y112.431 E224.72214
G0 F3600 X90.369 Y112.997
G1 F1800 X109.629 Y132.257 E226.08104
G0 F3600 X109.991 Y132.619
G1 F1800 X114.63 Y137.257 E226.40831
G0 F3600 X114.63 Y136.692
G1 F1800 X110.557 Y132.619 E226.69568
G0 F3600 X111.123 Y132.619
G1 F1800 X114.63 Y136.126 E226.94312
G0 F3600 X114.63 Y135.56
G1 F1800 X111.688 Y132.619 E227.15066
G0 F3600 X112.254 Y132.619
G1 F1800 X114.63 Y134.995 E227.3183
G0 F3600 X114.63 Y134.429
G1 F1800 X112.82 Y132.619 E227.446
G0 F3600 X113.385 Y132.619
G1 F1800 X114.63 Y133.863 E227.53381
G0 F3600 X114.63 Y133.298
G1 F1800 X113.951 Y132.619 E227.58172
G0 F3600 X114.517 Y132.619
G1 F1800 X114.63 Y132.732 E227.58969
G0 F3600 X114.63 Y137.823
G1 F1800 X90.369 Y113.562 E229.30143
G0 F3600 X90.369 Y114.128
G1 F1800 X114.63 Y138.389 E231.01318
G0 F3600 X114.63 Y138.954
G1 F1800 X90.169 Y114.494 E232.739
G0 F3600 X89.603 Y114.494
G1 F1800 X114.63 Y139.52 E234.50475
G0 F3600 X114.423 Y139.879
G1 F1800 X89.038 Y114.494 E236.2958
G0 F3600 X88.472 Y114.494
G1 F1800 X113.857 Y139.879 E238.08685
G0 F3600 X113.291 Y139.879
G1 F1800 X87.906 Y114.494 E239.8779
G0 F3600 X87.341 Y114.494
G1 F1800 X112.726 Y139.879 E241.66895
G0 F3600 X112.16 Y139.879
G1 F1800 X86.775 Y114.494 E243.46
G0 F3600 X86.209 Y114.494
G1 F1800 X111.594 Y139.879 E245.25105
G0 F3600 X111.029 Y139.879
G1 F1800 X85.644 Y114.494 E247.0421
G0 F3600 X85.369 Y114.785
G1 F1800 X110.463 Y139.879 E248.81261
G0 F3600 X109.897 Y139.879
G1 F1800 X85.369 Y115.351 E250.5432
G0 F3600 X85.369 Y115.916
G1 F1800 X109.63 Y140.177 E252.25494
G0 F3600 X109.63 Y140.743
G1 F1800 X85.369 Y116.482 E253.96669
G0 F3600 X85.369 Y117.048
G1 F1800 X109.63 Y141.308 E255.67839
G0 F3600 X109.63 Y141.874
G1 F1800 X85.369 Y117.613 E257.39014
G0 F3600 X85.369 Y118.179
G1 F1800 X109.63 Y142.44 E259.10188
G0 F3600 X109.63 Y143.005
G1 F1800 X85.369 Y118.745 E260.81359
G0 F3600 X85.369 Y119.31
G1 F1800 X109.63 Y143.571 E262.52534
G0 F3600 X109.63 Y144.137
G1 F1800 X85.369 Y119.876 E264.23708
G0 F3600 X85.369 Y120.442
G1 F1800 X109.63 Y144.703 E265.94883
G0 F3600 X109.24 Y144.879
G1 F1800 X85.369 Y121.007 E267.63309
G0 F3600 X85.369 Y121.573
G1 F1800 X108.675 Y144.879 E269.27745
G0 F3600 X108.109 Y144.879
G1 F1800 X85.369 Y122.139 E270.88188
G0 F3600 X85.369 Y122.704
G1 F1800 X107.543 Y144.879 E272.44641
G0 F3600 X106.978 Y144.879
G1 F1800 X85.369 Y123.27 E273.97105
G0 F3600 X85.369 Y123.836
G1 F1800 X106.412 Y144.879 E275.45574
G0 F3600 X105.846 Y144.879
G1 F1800 X101.37 Y140.402 E275.77158
G0 F3600 X101.37 Y140.968
G1 F1800 X105.281 Y144.879 E276.04753
G0 F3600 X104.715 Y144.879
G1 F1800 X101.37 Y141.533 E276.28357
G0 F3600 X101.37 Y142.099
G1 F1800 X104.149 Y144.879 E276.47968
G0 F3600 X103.584 Y144.879
G1 F1800 X101.37 Y142.665 E276.63589
G0 F3600 X101.37 Y143.23
G1 F1800 X103.018 Y144.879 E276.7522
G0 F3600 X102.452 Y144.879
G1 F1800 X101.37 Y143.796 E276.82858
G0 F3600 X101.37 Y144.362
G1 F1800 X101.887 Y144.879 E276.86505
G0 F3600 X100.846 Y139.879
G1 F1800 X85.369 Y124.402 E277.95704
G0 F3600 X85.369 Y124.967
G1 F1800 X90.281 Y129.879 E278.30361
G0 F3600 X90.37 Y129.968
G1 F1800 X100.281 Y139.879 E279.00288
