;FLAVOR:Marlin
;TIME:1277
;Filament used: 0.433085m
;Layer height: 0.1
;MINX:107
;MINY:69.4
;MINZ:0.3
;MAXX:123.8
;MAXY:130.7
;MAXZ:10.1
;Generated with Cura_SteamEngine 4.8.0
M140 S60
M105
M190 S60
M104 S195
M105
M109 S195
M82 ;absolute extrusion mode
G21 ;metric values
 G90 ;absolute positioning
 M82 ;set extruder to absolute mode
 M107 ;start with the fan off
 G28 X0 Y0 ;move X/Y to min endstops
 G28 Z0 ;move Z to min endstops
 G1 Z15.0 F120 ;move the platform down 15mm
 G92 E0 ;zero the extruded length
 G1 F200 E6 ;extrude 6 mm of feed stock
 G92 E0 ;zero the extruded length again
 G1 F120 
;Put printing message on LCD screen
 M117 Printing...
G92 E0
G92 E0
G1 F1500 E-6.5
;LAYER_COUNT:99
;LAYER:0
M117 INDICATOR-Layer0
M107
;MESH:Raspberry_Pi_B+_Sleeve_v2-1_CAP.STL
G0 F3600 X118.332 Y108.374 Z0.3
;TYPE:WALL-INNER
G1 F1500 E0
G1 F1800 X117.801 Y108.13 E0.02915
G1 X117.505 Y108.1 E0.044
G1 X107.4 Y108.1 E0.54814
G1 X107.4 Y105.9 E0.6579
G1 X116.623 Y105.899 E1.11803
G1 X117.152 Y105.74 E1.14559
G1 X117.596 Y105.361 E1.17472
G1 X117.842 Y104.856 E1.20274
G1 X117.875 Y104.203 E1.23536
G1 X117.874 Y91.88 E1.85016
G1 X117.747 Y91.388 E1.87551
G1 X117.412 Y90.943 E1.9033
G1 X116.92 Y90.662 E1.93156
G1 X116.522 Y90.6 E1.95166
G1 X107.4 Y90.6 E2.40676
G1 X107.4 Y87.9 E2.54146
G1 X116.624 Y87.899 E3.00165
G1 X117.154 Y87.739 E3.02927
G1 X117.596 Y87.361 E3.05829
G1 X117.841 Y86.858 E3.0862
G1 X117.875 Y86.203 E3.11892
G1 X117.874 Y73.875 E3.73397
G1 X117.732 Y73.354 E3.76091
G1 X117.361 Y72.899 E3.7902
G1 X116.856 Y72.644 E3.81842
G1 X116.514 Y72.6 E3.83563
G1 X107.6 Y72.6 E4.28035
G1 X107.4 Y72.6 E4.29033
G1 X107.4 Y72.4 E4.29679
G1 X107.401 Y71.771 E4.32817
G1 X107.457 Y71.338 E4.34995
G1 X107.594 Y70.949 E4.37052
G1 X107.814 Y70.587 E4.39166
G1 X108.097 Y70.287 E4.41223
G1 X108.442 Y70.049 E4.43314
G1 X108.827 Y69.888 E4.45396
G1 X109.425 Y69.8 E4.48412
G1 X121.429 Y69.801 E5.083
G1 X121.862 Y69.857 E5.10478
G1 X122.251 Y69.994 E5.12536
G1 X122.613 Y70.214 E5.14649
G1 X122.913 Y70.497 E5.16707
G1 X123.151 Y70.842 E5.18798
G1 X123.312 Y71.227 E5.2088
G1 X123.4 Y71.817 E5.23856
G1 X123.399 Y128.329 E8.05796
G1 X123.343 Y128.762 E8.07974
G1 X123.206 Y129.151 E8.10031
G1 X122.986 Y129.513 E8.12145
G1 X122.703 Y129.813 E8.14202
G1 X122.358 Y130.051 E8.16293
G1 X121.973 Y130.212 E8.18375
G1 X121.375 Y130.3 E8.21391
G1 X109.371 Y130.299 E8.81279
G1 X108.938 Y130.243 E8.83457
G1 X108.549 Y130.106 E8.85515
G1 X108.187 Y129.886 E8.87628
G1 X107.887 Y129.603 E8.89686
G1 X107.649 Y129.258 E8.91777
G1 X107.488 Y128.873 E8.93859
G1 X107.4 Y128.283 E8.96835
G1 X107.4 Y125.9 E9.08724
G1 X117.595 Y125.899 E9.59587
G1 X118.089 Y125.771 E9.62133
G1 X118.548 Y125.419 E9.65019
G1 X118.812 Y124.944 E9.6773
G1 X118.875 Y124.551 E9.69716
G1 X118.874 Y109.352 E10.45544
G1 X118.715 Y108.823 E10.48299
G1 X118.332 Y108.374 E10.51244
G0 F3600 X118.085 Y108.701
;TYPE:WALL-OUTER
G1 F1800 X117.694 Y108.521 E10.53391
G1 X117.485 Y108.5 E10.54439
G1 X107 Y108.5 E11.06749
G1 X107 Y105.5 E11.21716
G1 X116.564 Y105.499 E11.69431
G1 X116.956 Y105.381 E11.71474
G1 X117.273 Y105.111 E11.73551
G1 X117.447 Y104.754 E11.75532
G1 X117.475 Y104.193 E11.78335
G1 X117.474 Y91.931 E12.3951
G1 X117.38 Y91.565 E12.41395
G1 X117.142 Y91.25 E12.43365
G1 X116.785 Y91.046 E12.45416
G1 X116.491 Y91 E12.46901
G1 X107 Y91 E12.94252
G1 X107 Y87.5 E13.11713
G1 X116.565 Y87.499 E13.59433
G1 X116.958 Y87.38 E13.61482
G1 X117.273 Y87.111 E13.63548
G1 X117.446 Y86.756 E13.65519
G1 X117.475 Y86.193 E13.68331
G1 X117.474 Y73.929 E14.29517
G1 X117.368 Y73.541 E14.31523
G1 X117.105 Y73.218 E14.33601
G1 X116.737 Y73.032 E14.35659
G1 X116.488 Y73 E14.36911
G1 X107.2 Y73 E14.83249
G1 X107 Y73 E14.84247
G1 X107 Y72.8 E14.84893
G1 X107.001 Y71.743 E14.90166
G1 X107.065 Y71.249 E14.92651
G1 X107.232 Y70.773 E14.95168
G1 X107.493 Y70.345 E14.97669
G1 X107.835 Y69.982 E15.00157
G1 X108.25 Y69.696 E15.02672
G1 X108.712 Y69.503 E15.0517
G1 X109.214 Y69.408 E15.07719
G1 X109.409 Y69.4 E15.08692
G1 X121.457 Y69.401 E15.688
G1 X121.951 Y69.465 E15.71285
G1 X122.427 Y69.632 E15.73802
G1 X122.855 Y69.893 E15.76303
G1 X123.218 Y70.235 E15.78791
G1 X123.504 Y70.65 E15.81306
G1 X123.697 Y71.112 E15.83804
G1 X123.792 Y71.614 E15.86353
G1 X123.8 Y71.8 E15.87281
G1 X123.799 Y128.357 E18.69445
G1 X123.735 Y128.851 E18.71931
G1 X123.568 Y129.327 E18.74447
G1 X123.307 Y129.755 E18.76948
G1 X122.965 Y130.118 E18.79436
G1 X122.55 Y130.404 E18.81951
G1 X122.088 Y130.597 E18.84449
G1 X121.586 Y130.692 E18.86998
G1 X121.391 Y130.7 E18.87972
G1 X109.343 Y130.699 E19.48079
G1 X108.849 Y130.635 E19.50564
G1 X108.373 Y130.468 E19.53081
G1 X107.945 Y130.207 E19.55582
G1 X107.582 Y129.865 E19.5807
G1 X107.296 Y129.45 E19.60585
G1 X107.103 Y128.988 E19.63083
G1 X107.008 Y128.486 E19.65632
G1 X107 Y128.3 E19.66561
G1 X107 Y125.5 E19.8053
G1 X117.544 Y125.499 E20.33134
G1 X117.91 Y125.404 E20.3502
G1 X118.239 Y125.152 E20.37088
G1 X118.428 Y124.811 E20.39033
G1 X118.475 Y124.519 E20.40509
G1 X118.474 Y109.411 E21.15883
G1 X118.356 Y109.019 E21.17925
G1 X118.085 Y108.701 E21.2001
G0 F3600 X117.904 Y108.618
G0 X117.905 Y107.748
;TYPE:SKIN
G1 F1800 X117.525 Y107.71 E21.21915
G1 X107.79 Y107.71 E21.70483
G1 X107.79 Y106.29 E21.77567
G1 X116.68 Y106.289 E22.2192
G1 X117.343 Y106.089 E22.25375
G1 X117.911 Y105.605 E22.29098
G1 X118.228 Y104.955 E22.32706
G1 X118.265 Y104.213 E22.36412
G1 X118.264 Y91.831 E22.98186
G1 X118.106 Y91.215 E23.01359
G1 X117.675 Y90.644 E23.04928
G1 X117.051 Y90.288 E23.08512
G1 X116.552 Y90.21 E23.11032
G1 X107.79 Y90.21 E23.54746
G1 X107.79 Y88.29 E23.64325
G1 X116.682 Y88.289 E24.08687
G1 X117.345 Y88.088 E24.12144
G1 X117.911 Y87.605 E24.15856
G1 X118.227 Y86.957 E24.19453
G1 X118.265 Y86.213 E24.23169
G1 X118.264 Y73.823 E24.84983
G1 X118.087 Y73.171 E24.88354
G1 X117.611 Y72.589 E24.92105
G1 X116.973 Y72.266 E24.95672
G1 X116.539 Y72.21 E24.97856
G1 X107.79 Y72.21 E25.41505
G1 X107.837 Y71.432 E25.45393
G1 X107.948 Y71.117 E25.47059
G1 X108.129 Y70.821 E25.4879
G1 X108.348 Y70.588 E25.50386
G1 X108.631 Y70.392 E25.52103
G1 X108.931 Y70.267 E25.53725
G1 X109.454 Y70.19 E25.56362
G1 X121.409 Y70.191 E26.16006
G1 X121.768 Y70.237 E26.17811
G1 X122.083 Y70.348 E26.19478
G1 X122.379 Y70.529 E26.21209
G1 X122.612 Y70.748 E26.22804
G1 X122.808 Y71.031 E26.24521
G1 X122.933 Y71.331 E26.26143
G1 X123.01 Y71.849 E26.28755
G1 X123.009 Y128.309 E29.10436
G1 X122.963 Y128.668 E29.12241
G1 X122.852 Y128.983 E29.13908
G1 X122.671 Y129.279 E29.15638
G1 X122.452 Y129.512 E29.17234
G1 X122.169 Y129.708 E29.18951
G1 X121.869 Y129.833 E29.20573
G1 X121.346 Y129.91 E29.2321
G1 X109.391 Y129.909 E29.82854
G1 X109.032 Y129.863 E29.8466
G1 X108.717 Y129.752 E29.86326
G1 X108.421 Y129.571 E29.88057
G1 X108.188 Y129.352 E29.89652
G1 X107.992 Y129.069 E29.91369
G1 X107.867 Y128.769 E29.92991
G1 X107.79 Y128.251 E29.95604
G1 X107.79 Y126.29 E30.05387
G1 X117.644 Y126.289 E30.54549
G1 X118.263 Y126.128 E30.5774
G1 X118.85 Y125.679 E30.61427
G1 X119.186 Y125.073 E30.64884
G1 X119.265 Y124.582 E30.67365
G1 X119.264 Y109.295 E31.43632
G1 X119.064 Y108.632 E31.47087
G1 X118.573 Y108.056 E31.50863
G1 X117.905 Y107.748 E31.54533
G0 F3600 X118.75 Y108.804
G0 X118.914 Y124.554
G0 X118.578 Y125.445
G0 X107.986 Y128.351
G1 F1800 X109.358 Y129.722 E31.6421
G0 F3600 X109.929 Y129.728
G1 F1800 X107.969 Y127.768 E31.78039
G0 F3600 X107.969 Y127.202
G1 F1800 X110.495 Y129.728 E31.95861
G0 F3600 X111.061 Y129.728
G1 F1800 X107.969 Y126.637 E32.17673
G0 F3600 X108.367 Y126.469
G1 F1800 X111.626 Y129.728 E32.40667
G0 F3600 X112.192 Y129.728
G1 F1800 X108.933 Y126.469 E32.63661
G0 F3600 X109.499 Y126.469
G1 F1800 X112.758 Y129.728 E32.86655
G0 F3600 X113.323 Y129.728
G1 F1800 X110.064 Y126.469 E33.09649
G0 F3600 X110.63 Y126.469
G1 F1800 X113.889 Y129.728 E33.32643
G0 F3600 X114.455 Y129.728
G1 F1800 X111.196 Y126.469 E33.55637
G0 F3600 X111.761 Y126.469
G1 F1800 X115.02 Y129.728 E33.78631
G0 F3600 X115.586 Y129.728
G1 F1800 X112.327 Y126.469 E34.01625
G0 F3600 X112.892 Y126.468
G1 F1800 X116.152 Y129.728 E34.24626
G0 F3600 X116.717 Y129.728
G1 F1800 X113.458 Y126.468 E34.47624
G0 F3600 X114.023 Y126.468
G1 F1800 X117.283 Y129.728 E34.70625
G0 F3600 X117.849 Y129.728
G1 F1800 X114.589 Y126.468 E34.93626
G0 F3600 X115.155 Y126.468
G1 F1800 X118.414 Y129.728 E35.16623
G0 F3600 X118.98 Y129.728
G1 F1800 X115.72 Y126.468 E35.39624
G0 F3600 X116.286 Y126.468
G1 F1800 X119.546 Y129.728 E35.62625
G0 F3600 X120.111 Y129.728
G1 F1800 X116.852 Y126.468 E35.85623
G0 F3600 X117.417 Y126.468
G1 F1800 X120.677 Y129.728 E36.08624
G0 F3600 X121.243 Y129.728
G1 F1800 X117.918 Y126.403 E36.32084
G0 F3600 X118.359 Y126.279
G1 F1800 X121.748 Y129.667 E36.55991
G0 F3600 X122.148 Y129.502
G1 F1800 X118.68 Y126.034 E36.8046
G0 F3600 X118.996 Y125.785
G1 F1800 X122.456 Y129.244 E37.04869
G0 F3600 X122.685 Y128.908
G1 F1800 X119.198 Y125.42 E37.29475
G0 F3600 X119.373 Y125.03
G1 F1800 X122.808 Y128.465 E37.53711
G0 F3600 X122.829 Y127.92
G1 F1800 X119.444 Y124.535 E37.77594
G0 F3600 X119.444 Y123.969
G1 F1800 X122.829 Y127.354 E38.01477
G0 F3600 X122.829 Y126.789
G1 F1800 X119.444 Y123.404 E38.2536
G0 F3600 X119.444 Y122.838
G1 F1800 X122.829 Y126.223 E38.49243
G0 F3600 X122.829 Y125.657
G1 F1800 X119.444 Y122.272 E38.73126
G0 F3600 X119.444 Y121.707
G1 F1800 X122.829 Y125.092 E38.97009
G0 F3600 X122.829 Y124.526
G1 F1800 X119.444 Y121.141 E39.20892
G0 F3600 X119.444 Y120.575
G1 F1800 X122.829 Y123.96 E39.44775
G0 F3600 X122.829 Y123.395
G1 F1800 X119.444 Y120.01 E39.68658
G0 F3600 X119.443 Y119.443
G1 F1800 X122.829 Y122.829 E39.92548
G0 F3600 X122.829 Y122.263
G1 F1800 X119.443 Y118.878 E40.16434
G0 F3600 X119.443 Y118.312
G1 F1800 X122.829 Y121.698 E40.40324
G0 F3600 X122.829 Y121.132
G1 F1800 X119.443 Y117.746 E40.64214
G0 F3600 X119.443 Y117.181
G1 F1800 X122.829 Y120.566 E40.88101
G0 F3600 X122.829 Y120
G1 F1800 X119.443 Y116.615 E41.11987
G0 F3600 X119.443 Y116.049
G1 F1800 X122.829 Y119.435 E41.35878
G0 F3600 X122.829 Y118.869
G1 F1800 X119.443 Y115.483 E41.59768
G0 F3600 X119.443 Y114.918
G1 F1800 X122.829 Y118.303 E41.83654
G0 F3600 X122.829 Y117.738
G1 F1800 X119.443 Y114.351 E42.07548
G0 F3600 X119.443 Y113.786
G1 F1800 X122.829 Y117.172 E42.31438
G0 F3600 X122.829 Y116.606
G1 F1800 X119.443 Y113.22 E42.55328
G0 F3600 X119.443 Y112.654
G1 F1800 X122.829 Y116.041 E42.79221
G0 F3600 X122.829 Y115.475
G1 F1800 X119.443 Y112.089 E43.03111
G0 F3600 X119.443 Y111.523
G1 F1800 X122.829 Y114.909 E43.27001
G0 F3600 X122.829 Y114.344
G1 F1800 X119.443 Y110.957 E43.50895
G0 F3600 X119.443 Y110.392
G1 F1800 X122.829 Y113.778 E43.74785
G0 F3600 X122.829 Y113.212
G1 F1800 X119.443 Y109.826 E43.98675
G0 F3600 X119.439 Y109.257
G1 F1800 X122.829 Y112.647 E44.22593
G0 F3600 X122.829 Y112.081
G1 F1800 X118.836 Y108.088 E44.50766
G0 F3600 X118.633 Y107.885
G1 F1800 X117.099 Y106.35 E44.61593
G0 F3600 X117.502 Y106.189
G1 F1800 X122.829 Y111.515 E44.99174
G0 F3600 X122.829 Y110.95
G1 F1800 X117.808 Y105.928 E45.34604
G0 F3600 X118.089 Y105.644
G1 F1800 X122.829 Y110.384 E45.68047
G0 F3600 X122.829 Y109.818
G1 F1800 X118.275 Y105.264 E46.00178
G0 F3600 X118.412 Y104.836
G1 F1800 X122.829 Y109.252 E46.31339
G0 F3600 X122.829 Y108.687
G1 F1800 X118.439 Y104.297 E46.62313
G0 F3600 X118.443 Y103.735
G1 F1800 X122.829 Y108.121 E46.93258
G0 F3600 X122.829 Y107.555
G1 F1800 X118.443 Y103.169 E47.24204
G0 F3600 X118.443 Y102.604
G1 F1800 X122.829 Y106.99 E47.55149
G0 F3600 X122.829 Y106.424
G1 F1800 X118.443 Y102.038 E47.86095
G0 F3600 X118.443 Y101.472
G1 F1800 X122.829 Y105.858 E48.17041
G0 F3600 X122.829 Y105.293
G1 F1800 X118.443 Y100.906 E48.4799
G0 F3600 X118.443 Y100.341
G1 F1800 X122.829 Y104.727 E48.78935
G0 F3600 X122.829 Y104.161
G1 F1800 X118.443 Y99.775 E49.09881
G0 F3600 X118.443 Y99.209
G1 F1800 X122.829 Y103.596 E49.4083
G0 F3600 X122.829 Y103.03
G1 F1800 X118.443 Y98.644 E49.71776
G0 F3600 X118.443 Y98.078
G1 F1800 X122.829 Y102.464 E50.02721
G0 F3600 X122.829 Y101.899
G1 F1800 X118.443 Y97.512 E50.3367
G0 F3600 X118.443 Y96.947
G1 F1800 X122.829 Y101.333 E50.64616
G0 F3600 X122.829 Y100.767
G1 F1800 X118.443 Y96.381 E50.95561
G0 F3600 X118.443 Y95.815
G1 F1800 X122.829 Y100.201 E51.26507
G0 F3600 X122.829 Y99.636
G1 F1800 X118.443 Y95.25 E51.57453
G0 F3600 X118.443 Y94.684
G1 F1800 X122.829 Y99.07 E51.88398
G0 F3600 X122.829 Y98.504
G1 F1800 X118.443 Y94.118 E52.19344
G0 F3600 X118.443 Y93.553
G1 F1800 X122.829 Y97.939 E52.50289
G0 F3600 X122.829 Y97.373
G1 F1800 X118.443 Y92.987 E52.81235
G0 F3600 X118.443 Y92.421
G1 F1800 X122.829 Y96.807 E53.12181
G0 F3600 X122.829 Y96.242
G1 F1800 X118.443 Y91.855 E53.4313
G1 X118.373 Y91.785
G0 F3600 X118.218 Y91.065
G1 F1800 X122.829 Y95.676 E53.75663
G0 F3600 X122.829 Y95.11
G1 F1800 X116.188 Y88.469 E54.22519
G0 F3600 X116.743 Y88.459
G1 F1800 X122.829 Y94.545 E54.65459
G0 F3600 X122.829 Y93.979
G1 F1800 X117.176 Y88.326 E55.05344
G0 F3600 X117.558 Y88.142
G1 F1800 X122.829 Y93.413 E55.42533
G0 F3600 X122.829 Y92.848
G1 F1800 X117.863 Y87.882 E55.77571
G0 F3600 X118.124 Y87.577
G1 F1800 X122.829 Y92.282 E56.10768
G0 F3600 X122.829 Y91.716
G1 F1800 X118.309 Y87.196 E56.42659
G0 F3600 X118.417 Y86.738
G1 F1800 X122.829 Y91.151 E56.73791
G0 F3600 X122.829 Y90.585
G1 F1800 X118.443 Y86.199 E57.04737
G0 F3600 X118.443 Y85.633
G1 F1800 X122.829 Y90.019 E57.35682
G0 F3600 X122.829 Y89.453
G1 F1800 X118.443 Y85.067 E57.66628
G0 F3600 X118.443 Y84.502
G1 F1800 X122.829 Y88.888 E57.97574
G0 F3600 X122.829 Y88.322
G1 F1800 X118.443 Y83.936 E58.28519
G0 F3600 X118.443 Y83.37
G1 F1800 X122.829 Y87.756 E58.59465
G0 F3600 X122.829 Y87.191
G1 F1800 X118.443 Y82.805 E58.9041
G0 F3600 X118.443 Y82.239
G1 F1800 X122.829 Y86.625 E59.21356
G0 F3600 X122.829 Y86.059
G1 F1800 X118.443 Y81.673 E59.52302
G0 F3600 X118.443 Y81.107
G1 F1800 X122.829 Y85.494 E59.83251
G0 F3600 X122.829 Y84.928
G1 F1800 X118.443 Y80.542 E60.14196
G0 F3600 X118.443 Y79.976
G1 F1800 X122.829 Y84.362 E60.45142
G0 F3600 X122.829 Y83.797
G1 F1800 X118.443 Y79.41 E60.76091
G0 F3600 X118.443 Y78.845
G1 F1800 X122.829 Y83.231 E61.07037
G0 F3600 X122.829 Y82.665
G1 F1800 X118.443 Y78.279 E61.37982
G0 F3600 X118.443 Y77.713
G1 F1800 X122.829 Y82.1 E61.68931
G0 F3600 X122.829 Y81.534
G1 F1800 X118.443 Y77.148 E61.99877
G0 F3600 X118.443 Y76.582
G1 F1800 X122.829 Y80.968 E62.30823
G0 F3600 X122.829 Y80.402
G1 F1800 X118.443 Y76.016 E62.61768
G0 F3600 X118.443 Y75.451
G1 F1800 X122.829 Y79.837 E62.92714
G0 F3600 X122.829 Y79.271
G1 F1800 X118.443 Y74.885 E63.23659
G0 F3600 X118.443 Y74.319
G1 F1800 X122.829 Y78.705 E63.54605
G0 F3600 X122.829 Y78.14
G1 F1800 X118.426 Y73.737 E63.85671
G1 X118.356 Y73.667
G0 F3600 X117.839 Y72.584
G1 F1800 X122.829 Y77.574 E64.20878
G0 F3600 X122.829 Y77.008
G1 F1800 X116.191 Y70.371 E64.67709
G0 F3600 X115.626 Y70.371
G1 F1800 X117.674 Y72.419 E64.82159
G1 X117.744 Y72.489
G0 F3600 X116.744 Y72.055
G1 F1800 X115.059 Y70.37 E64.94047
G0 F3600 X114.494 Y70.37
G1 F1800 X116.153 Y72.03 E65.05756
G0 F3600 X115.587 Y72.03
G1 F1800 X113.928 Y70.37 E65.17464
G0 F3600 X113.362 Y70.37
G1 F1800 X115.022 Y72.03 E65.29177
G0 F3600 X114.456 Y72.03
G1 F1800 X112.796 Y70.37 E65.40889
G0 F3600 X112.231 Y70.37
G1 F1800 X113.89 Y72.03 E65.52598
G0 F3600 X113.325 Y72.03
G1 F1800 X111.665 Y70.37 E65.6431
G0 F3600 X111.099 Y70.37
G1 F1800 X112.759 Y72.03 E65.76022
G0 F3600 X112.193 Y72.03
G1 F1800 X110.534 Y70.37 E65.87731
G0 F3600 X109.968 Y70.37
G1 F1800 X111.628 Y72.03 E65.99443
G0 F3600 X111.062 Y72.03
G1 F1800 X109.41 Y70.378 E66.11099
G0 F3600 X108.929 Y70.463
G1 F1800 X110.496 Y72.03 E66.22155
G0 F3600 X109.931 Y72.03
G1 F1800 X108.559 Y70.659 E66.31831
G0 F3600 X108.269 Y70.934
G1 F1800 X109.365 Y72.03 E66.39564
G0 F3600 X108.799 Y72.03
G1 F1800 X108.072 Y71.302 E66.44697
G0 F3600 X107.994 Y71.79
G1 F1800 X108.234 Y72.03 E66.4639
G0 F3600 X116.757 Y70.371
G1 F1800 X122.829 Y76.443 E66.89232
G0 F3600 X122.829 Y75.877
G1 F1800 X117.323 Y70.371 E67.28079
G0 F3600 X117.888 Y70.371
G1 F1800 X122.829 Y75.311 E67.62937
G0 F3600 X122.829 Y74.746
