;FLAVOR:Marlin
;TIME:5767
;Filament used: 5.58595m
;Layer height: 0.2
;MINX:50.949
;MINY:84.7
;MINZ:0.3
;MAXX:124.8
;MAXY:132.042
;MAXZ:19.9
;Generated with Cura_SteamEngine 4.8.0
M140 S60
M105
M190 S60
M104 S200
M105
M109 S200
M82 ;absolute extrusion mode
G21 ;metric values
 G90 ;absolute positioning
 M82 ;set extruder to absolute mode
 M107 ;start with the fan off
 G28 X0 Y0 ;move X/Y to min endstops
 G28 Z0 ;move Z to min endstops
 G1 Z15.0 F120 ;move the platform down 15mm
 G92 E0 ;zero the extruded length
 G1 F200 E6 ;extrude 6 mm of feed stock
 G92 E0 ;zero the extruded length again
 G1 F120 
;Put printing message on LCD screen
 M117 Printing...
G92 E0
G92 E0
G1 F1500 E-6.5
;LAYER_COUNT:99
;LAYER:0
M117 INDICATOR-Layer0
M107
;MESH:Keyboard_Hanger.stl(1)
G0 F3600 X54.674 Y128.318 Z0.3
;TYPE:WALL-INNER
G1 F1500 E0
G1 F1800 X60.883 Y128.321 E0.30977
G1 X99.949 Y128.318 E2.25878
G1 X100.149 Y128.318 E2.26876
G1 X100.149 Y128.518 E2.27522
G1 X100.149 Y131.166 E2.40733
G1 X99.545 Y131.167 E2.43746
G1 X97.688 Y131.163 E2.53011
G1 X54.812 Y131.163 E4.6692
G1 X51.826 Y131.167 E4.81817
G1 X51.824 Y130.569 E4.84801
G1 X51.828 Y128.021 E4.97513
G1 X51.828 Y105.464 E6.1005
G1 X51.825 Y102.319 E6.2574
G1 X52.392 Y102.317 E6.28569
G1 X54.82 Y102.321 E6.40683
G1 X70.178 Y102.321 E7.17304
G1 X73.258 Y102.318 E7.3267
G1 X73.858 Y102.359 E7.35671
G1 X74.317 Y102.485 E7.38045
G1 X74.317 Y105.012 E7.50652
G1 X73.985 Y105.104 E7.52371
G1 X73.304 Y105.163 E7.55782
G1 X73.22 Y105.167 E7.56201
G1 X72.713 Y105.168 E7.58731
G1 X70.688 Y105.163 E7.68833
G1 X57.937 Y105.163 E8.32448
G1 X54.674 Y105.168 E8.48727
G1 X54.671 Y110.992 E8.77784
G1 X54.674 Y128.318 E9.64223
G0 F3600 X55.074 Y127.918
;TYPE:WALL-OUTER
G1 F1800 X60.883 Y127.921 E9.93205
G1 X100.434 Y127.918 E11.90525
G1 X100.463 Y127.918 E11.9067
G1 X100.549 Y128.249 E11.92376
G1 X100.549 Y128.278 E11.92521
G1 X100.549 Y131.225 E12.07223
G1 X100.478 Y131.566 E12.08961
G1 X99.544 Y131.567 E12.13621
G1 X97.687 Y131.563 E12.22886
G1 X54.812 Y131.563 E14.3679
G1 X51.776 Y131.567 E14.51937
G1 X51.598 Y131.521 E14.52854
G1 X51.473 Y131.395 E14.53739
G1 X51.425 Y131.216 E14.54664
G1 X51.424 Y130.568 E14.57897
G1 X51.428 Y128.02 E14.70609
G1 X51.428 Y105.464 E15.83141
G1 X51.425 Y102.241 E15.99221
G1 X51.469 Y102.096 E15.99977
G1 X51.611 Y101.956 E16.00972
G1 X51.773 Y101.919 E16.01801
G1 X52.392 Y101.917 E16.04889
G1 X54.821 Y101.921 E16.17007
G1 X70.178 Y101.921 E16.93624
G1 X73.27 Y101.918 E17.0905
G1 X73.911 Y101.962 E17.12255
G1 X74.332 Y102.047 E17.14398
G1 X74.699 Y102.226 E17.16435
G1 X74.717 Y102.277 E17.16705
G1 X74.717 Y105.2 E17.31288
G1 X74.691 Y105.259 E17.31609
G1 X74.539 Y105.366 E17.32537
G1 X74.06 Y105.498 E17.35016
G1 X73.323 Y105.563 E17.38707
G1 X73.239 Y105.567 E17.39126
G1 X72.713 Y105.568 E17.41751
G1 X70.687 Y105.563 E17.51858
G1 X57.937 Y105.563 E18.15468
G1 X55.074 Y105.567 E18.29752
G1 X55.071 Y110.992 E18.56817
G1 X55.074 Y127.918 E19.41262
G0 F3600 X55.274 Y127.918
G0 X55.273 Y128.418
G0 X54.284 Y128.708
;TYPE:SKIN
G1 F1800 X60.883 Y128.711 E19.74184
G1 X99.759 Y128.708 E21.68137
G1 X99.759 Y130.776 E21.78454
G1 X97.688 Y130.773 E21.88787
G1 X54.812 Y130.773 E24.02696
G1 X52.215 Y130.777 E24.15652
G1 X52.218 Y128.02 E24.29407
G1 X52.218 Y105.463 E25.41945
G1 X52.215 Y102.707 E25.55694
G1 X54.82 Y102.711 E25.68691
G1 X70.178 Y102.711 E26.45312
G1 X73.231 Y102.708 E26.60544
G1 X73.798 Y102.747 E26.63379
G1 X73.927 Y102.783 E26.64047
G1 X73.927 Y104.715 E26.73686
G1 X73.912 Y104.72 E26.73765
G1 X73.285 Y104.773 E26.76904
G1 X72.713 Y104.778 E26.79758
G1 X70.688 Y104.773 E26.89861
G1 X57.937 Y104.773 E27.53476
G1 X54.284 Y104.778 E27.71701
G1 X54.281 Y110.992 E28.02702
G1 X54.284 Y128.708 E28.91088
G0 F3600 X52.53 Y130.595
G1 F1800 X52.394 Y130.459 E28.92048
G0 F3600 X52.395 Y129.894
G1 F1800 X53.095 Y130.594 E28.96986
G0 F3600 X53.66 Y130.594
G1 F1800 X52.395 Y129.329 E29.05912
G0 F3600 X52.396 Y128.764
G1 F1800 X54.225 Y130.593 E29.18816
G0 F3600 X54.79 Y130.592
G1 F1800 X52.397 Y128.199 E29.357
G0 F3600 X52.398 Y127.634
G1 F1800 X55.356 Y130.592 E29.5657
G0 F3600 X55.922 Y130.592
G1 F1800 X54.217 Y128.887 E29.686
G0 F3600 X54.103 Y128.774
G1 F1800 X52.398 Y127.068 E29.80633
G0 F3600 X52.398 Y126.502
G1 F1800 X54.103 Y128.208 E29.92667
G0 F3600 X54.103 Y127.642
G1 F1800 X52.398 Y125.937 E30.04696
G0 F3600 X52.398 Y125.371
G1 F1800 X54.103 Y127.076 E30.16726
G0 F3600 X54.103 Y126.511
G1 F1800 X52.398 Y124.805 E30.28759
G0 F3600 X52.398 Y124.24
G1 F1800 X54.103 Y125.945 E30.40789
G0 F3600 X54.103 Y125.379
G1 F1800 X52.398 Y123.674 E30.52819
G0 F3600 X52.398 Y123.108
G1 F1800 X54.103 Y124.814 E30.64852
G0 F3600 X54.102 Y124.247
G1 F1800 X52.398 Y122.543 E30.76874
G0 F3600 X52.398 Y121.977
G1 F1800 X54.102 Y123.682 E30.88901
G0 F3600 X54.102 Y123.116
G1 F1800 X52.398 Y121.411 E31.00927
G0 F3600 X52.398 Y120.845
G1 F1800 X54.102 Y122.55 E31.12953
G0 F3600 X54.102 Y121.985
G1 F1800 X52.398 Y120.28 E31.24979
G0 F3600 X52.398 Y119.714
G1 F1800 X54.102 Y121.419 E31.37005
G0 F3600 X54.102 Y120.853
G1 F1800 X52.398 Y119.148 E31.49031
G0 F3600 X52.398 Y118.583
G1 F1800 X54.102 Y120.288 E31.61058
G0 F3600 X54.102 Y119.721
G1 F1800 X52.398 Y118.017 E31.7308
G0 F3600 X52.398 Y117.451
G1 F1800 X54.102 Y119.155 E31.85103
G0 F3600 X54.102 Y118.59
G1 F1800 X52.398 Y116.886 E31.97126
G0 F3600 X52.398 Y116.32
G1 F1800 X54.102 Y118.024 E32.09148
G0 F3600 X54.102 Y117.458
G1 F1800 X52.398 Y115.754 E32.21171
G0 F3600 X52.398 Y115.189
G1 F1800 X54.102 Y116.893 E32.33193
G0 F3600 X54.102 Y116.327
G1 F1800 X52.398 Y114.623 E32.45216
G0 F3600 X52.398 Y114.057
G1 F1800 X54.102 Y115.761 E32.57239
G0 F3600 X54.101 Y115.195
G1 F1800 X52.398 Y113.492 E32.69254
G0 F3600 X52.398 Y112.926
G1 F1800 X54.101 Y114.629 E32.8127
G0 F3600 X54.101 Y114.064
G1 F1800 X52.398 Y112.36 E32.93289
G0 F3600 X52.398 Y111.794
G1 F1800 X54.101 Y113.498 E33.05308
G0 F3600 X54.101 Y112.932
G1 F1800 X52.398 Y111.229 E33.17324
G0 F3600 X52.398 Y110.663
G1 F1800 X54.101 Y112.367 E33.29343
G0 F3600 X54.101 Y111.801
G1 F1800 X52.398 Y110.097 E33.41362
G0 F3600 X52.398 Y109.532
G1 F1800 X54.101 Y111.235 E33.53378
G0 F3600 X54.101 Y110.669
G1 F1800 X52.398 Y108.966 E33.65393
G0 F3600 X52.398 Y108.4
G1 F1800 X54.101 Y110.104 E33.77412
G0 F3600 X54.102 Y109.539
G1 F1800 X52.398 Y107.835 E33.89435
G0 F3600 X52.398 Y107.269
G1 F1800 X54.102 Y108.973 E34.01458
G0 F3600 X54.102 Y108.408
G1 F1800 X52.398 Y106.703 E34.13484
G0 F3600 X52.398 Y106.138
G1 F1800 X54.102 Y107.842 E34.25506
G0 F3600 X54.102 Y107.277
G1 F1800 X52.398 Y105.572 E34.37532
G0 F3600 X52.397 Y105.006
G1 F1800 X54.103 Y106.712 E34.49569
G0 F3600 X54.103 Y106.146
G1 F1800 X52.396 Y104.439 E34.61613
G0 F3600 X52.395 Y103.872
G1 F1800 X54.104 Y105.581 E34.73671
G0 F3600 X54.104 Y105.015
G1 F1800 X52.394 Y103.306 E34.85732
G0 F3600 X52.54 Y102.886
G1 F1800 X54.25 Y104.596 E34.97797
G0 F3600 X54.815 Y104.595
G1 F1800 X53.107 Y102.887 E35.09848
G0 F3600 X53.674 Y102.888
G1 F1800 X55.38 Y104.595 E35.21889
G0 F3600 X55.945 Y104.594
G1 F1800 X54.24 Y102.889 E35.33918
G0 F3600 X54.807 Y102.89
G1 F1800 X56.51 Y104.593 E35.45934
G0 F3600 X57.075 Y104.593
G1 F1800 X55.372 Y102.89 E35.57949
G0 F3600 X55.938 Y102.89
G1 F1800 X57.64 Y104.592 E35.69958
G0 F3600 X58.206 Y104.592
G1 F1800 X56.504 Y102.89 E35.81966
G0 F3600 X57.069 Y102.89
G1 F1800 X58.771 Y104.592 E35.93975
G0 F3600 X59.337 Y104.592
G1 F1800 X57.635 Y102.89 E36.05984
G0 F3600 X58.201 Y102.89
G1 F1800 X59.903 Y104.592 E36.17992
G0 F3600 X60.468 Y104.592
G1 F1800 X58.766 Y102.89 E36.30001
G0 F3600 X59.332 Y102.89
G1 F1800 X61.034 Y104.592 E36.42009
G0 F3600 X61.6 Y104.592
G1 F1800 X59.898 Y102.89 E36.54018
G0 F3600 X60.463 Y102.89
G1 F1800 X62.165 Y104.592 E36.66026
G0 F3600 X62.731 Y104.592
G1 F1800 X61.029 Y102.89 E36.78035
G0 F3600 X61.595 Y102.89
G1 F1800 X63.297 Y104.592 E36.90043
G0 F3600 X63.863 Y104.592
G1 F1800 X62.161 Y102.89 E37.02052
G0 F3600 X62.726 Y102.89
G1 F1800 X64.428 Y104.592 E37.1406
G0 F3600 X64.994 Y104.592
G1 F1800 X63.292 Y102.89 E37.26069
G0 F3600 X63.858 Y102.89
G1 F1800 X65.56 Y104.592 E37.38077
G0 F3600 X66.125 Y104.592
G1 F1800 X64.423 Y102.89 E37.50086
G0 F3600 X64.989 Y102.89
G1 F1800 X66.691 Y104.592 E37.62094
G0 F3600 X67.257 Y104.592
G1 F1800 X65.555 Y102.89 E37.74103
G0 F3600 X66.12 Y102.89
G1 F1800 X67.822 Y104.592 E37.86111
G0 F3600 X68.388 Y104.592
G1 F1800 X66.686 Y102.89 E37.9812
G0 F3600 X67.252 Y102.89
G1 F1800 X68.954 Y104.592 E38.10129
G0 F3600 X69.519 Y104.592
G1 F1800 X67.817 Y102.89 E38.22137
G0 F3600 X68.383 Y102.89
G1 F1800 X70.085 Y104.592 E38.34146
G0 F3600 X70.651 Y104.592
G1 F1800 X68.949 Y102.89 E38.46154
G0 F3600 X69.514 Y102.89
G1 F1800 X71.217 Y104.593 E38.5817
G0 F3600 X71.784 Y104.594
G1 F1800 X70.08 Y102.89 E38.70192
G0 F3600 X70.646 Y102.89
G1 F1800 X72.351 Y104.595 E38.82222
G0 F3600 X72.916 Y104.595
G1 F1800 X71.211 Y102.889 E38.94255
G0 F3600 X71.776 Y102.888
G1 F1800 X73.463 Y104.576 E39.06161
G0 F3600 X73.746 Y104.294
G1 F1800 X72.341 Y102.888 E39.16078
G0 F3600 X72.906 Y102.887
G1 F1800 X73.746 Y103.728 E39.22008
G0 F3600 X73.746 Y103.162
G1 F1800 X73.49 Y102.905 E39.23818
G0 F3600 X54.646 Y105.14
G0 X54.646 Y128.346
G0 X73.452 Y128.889
G1 F1800 X75.155 Y130.592 E39.35834
G0 F3600 X74.589 Y130.592
G1 F1800 X72.886 Y128.889 E39.47849
G0 F3600 X72.32 Y128.889
G1 F1800 X74.024 Y130.592 E39.59868
G0 F3600 X73.458 Y130.592
G1 F1800 X71.755 Y128.889 E39.71884
G0 F3600 X71.189 Y128.889
G1 F1800 X72.892 Y130.592 E39.83899
G0 F3600 X72.327 Y130.592
G1 F1800 X70.623 Y128.889 E39.95919
G0 F3600 X70.058 Y128.89
G1 F1800 X71.761 Y130.592 E40.07931
G0 F3600 X71.195 Y130.592
G1 F1800 X69.493 Y128.89 E40.19939
G0 F3600 X68.927 Y128.89
G1 F1800 X70.63 Y130.592 E40.31951
G0 F3600 X70.064 Y130.592
G1 F1800 X68.361 Y128.89 E40.43963
G0 F3600 X67.795 Y128.89
G1 F1800 X69.498 Y130.592 E40.55975
G0 F3600 X68.933 Y130.592
G1 F1800 X67.23 Y128.89 E40.67987
G0 F3600 X66.664 Y128.89
G1 F1800 X68.367 Y130.592 E40.79999
G0 F3600 X67.801 Y130.592
G1 F1800 X66.098 Y128.89 E40.92011
G0 F3600 X65.533 Y128.89
G1 F1800 X67.235 Y130.592 E41.0402
G0 F3600 X66.67 Y130.592
G1 F1800 X64.967 Y128.89 E41.16032
G0 F3600 X64.401 Y128.89
G1 F1800 X66.104 Y130.592 E41.28044
G0 F3600 X65.538 Y130.592
G1 F1800 X63.836 Y128.89 E41.40053
G0 F3600 X63.27 Y128.89
G1 F1800 X64.973 Y130.592 E41.52065
G0 F3600 X64.407 Y130.592
G1 F1800 X62.704 Y128.89 E41.64077
G0 F3600 X62.139 Y128.89
G1 F1800 X63.841 Y130.592 E41.76085
G0 F3600 X63.276 Y130.592
G1 F1800 X61.573 Y128.89 E41.88097
G0 F3600 X61.007 Y128.89
G1 F1800 X62.71 Y130.592 E42.00109
G0 F3600 X62.144 Y130.592
G1 F1800 X60.442 Y128.89 E42.12118
G0 F3600 X59.876 Y128.89
G1 F1800 X61.579 Y130.592 E42.2413
G0 F3600 X61.013 Y130.592
G1 F1800 X59.31 Y128.89 E42.36142
G0 F3600 X58.744 Y128.889
G1 F1800 X60.447 Y130.592 E42.48158
G0 F3600 X59.882 Y130.592
G1 F1800 X58.178 Y128.889 E42.60177
G0 F3600 X57.612 Y128.889
G1 F1800 X59.316 Y130.592 E42.72196
G0 F3600 X58.75 Y130.592
G1 F1800 X57.046 Y128.888 E42.84218
G0 F3600 X56.48 Y128.888
G1 F1800 X58.184 Y130.592 E42.96241
G0 F3600 X57.619 Y130.592
G1 F1800 X55.915 Y128.888 E43.08264
G0 F3600 X55.348 Y128.887
G1 F1800 X57.053 Y130.592 E43.20293
G0 F3600 X56.487 Y130.592
G1 F1800 X54.783 Y128.887 E43.3232
G1 X54.713 Y128.817
G0 F3600 X74.017 Y128.889
G1 F1800 X75.721 Y130.592 E43.44339
G0 F3600 X76.286 Y130.592
G1 F1800 X74.583 Y128.889 E43.56354
G0 F3600 X75.149 Y128.889
G1 F1800 X76.852 Y130.592 E43.6837
G0 F3600 X77.418 Y130.592
G1 F1800 X75.714 Y128.889 E43.80389
G0 F3600 X76.28 Y128.889
G1 F1800 X77.983 Y130.592 E43.92405
G0 F3600 X78.549 Y130.592
G1 F1800 X76.846 Y128.889 E44.0442
G0 F3600 X77.411 Y128.889
G1 F1800 X79.115 Y130.592 E44.16439
G0 F3600 X79.681 Y130.592
G1 F1800 X77.977 Y128.889 E44.28458
G0 F3600 X78.543 Y128.889
G1 F1800 X80.246 Y130.592 E44.40474
G0 F3600 X80.812 Y130.592
G1 F1800 X79.108 Y128.889 E44.52493
G0 F3600 X79.674 Y128.889
G1 F1800 X81.378 Y130.592 E44.64512
G0 F3600 X81.943 Y130.592
G1 F1800 X80.239 Y128.888 E44.76535
G0 F3600 X80.805 Y128.888
G1 F1800 X82.509 Y130.592 E44.88558
G0 F3600 X83.075 Y130.592
G1 F1800 X81.371 Y128.888 E45.0058
G0 F3600 X81.936 Y128.888
G1 F1800 X83.64 Y130.592 E45.12603
G0 F3600 X84.206 Y130.592
G1 F1800 X82.502 Y128.888 E45.24625
G0 F3600 X83.068 Y128.888
G1 F1800 X84.772 Y130.592 E45.36648
G0 F3600 X85.337 Y130.592
G1 F1800 X83.633 Y128.888 E45.48671
G0 F3600 X84.199 Y128.888
G1 F1800 X85.903 Y130.592 E45.60693
G0 F3600 X86.469 Y130.592
G1 F1800 X84.765 Y128.888 E45.72716
G0 F3600 X85.33 Y128.888
G1 F1800 X87.034 Y130.592 E45.84739
G0 F3600 X87.6 Y130.592
G1 F1800 X85.896 Y128.888 E45.96761
G0 F3600 X86.462 Y128.888
G1 F1800 X88.166 Y130.592 E46.08784
G0 F3600 X88.732 Y130.592
G1 F1800 X87.027 Y128.888 E46.2081
G0 F3600 X87.593 Y128.888
G1 F1800 X89.297 Y130.592 E46.32833
G0 F3600 X89.863 Y130.592
G1 F1800 X88.159 Y128.888 E46.44855
G0 F3600 X88.724 Y128.888
G1 F1800 X90.429 Y130.592 E46.56882
G0 F3600 X90.994 Y130.592
G1 F1800 X89.29 Y128.888 E46.68904
G0 F3600 X89.856 Y128.888
G1 F1800 X91.56 Y130.592 E46.80927
G0 F3600 X92.126 Y130.592
G1 F1800 X90.421 Y128.887 E46.92957
G0 F3600 X90.986 Y128.887
G1 F1800 X92.691 Y130.592 E47.04986
G0 F3600 X93.257 Y130.592
G1 F1800 X91.552 Y128.887 E47.17016
G0 F3600 X92.118 Y128.887
G1 F1800 X93.823 Y130.592 E47.29046
G0 F3600 X94.388 Y130.592
G1 F1800 X92.684 Y128.887 E47.41072
G0 F3600 X93.249 Y128.887
G1 F1800 X94.954 Y130.592 E47.53101
G0 F3600 X95.52 Y130.592
G1 F1800 X93.815 Y128.887 E47.65131
G0 F3600 X94.381 Y128.887
G1 F1800 X96.085 Y130.592 E47.77157
G0 F3600 X96.651 Y130.592
G1 F1800 X94.946 Y128.887 E47.89187
G0 F3600 X95.512 Y128.887
G1 F1800 X97.217 Y130.592 E48.01217
G0 F3600 X97.782 Y130.592
G1 F1800 X96.078 Y128.887 E48.13243
G0 F3600 X96.643 Y128.887
G1 F1800 X98.349 Y130.593 E48.2528
G0 F3600 X98.915 Y130.594
G1 F1800 X97.209 Y128.887 E48.3732
G0 F3600 X97.775 Y128.887
G1 F1800 X99.482 Y130.594 E48.49364
G0 F3600 X99.579 Y130.126
G1 F1800 X98.34 Y128.887 E48.58106
G0 F3600 X98.906 Y128.887
G1 F1800 X99.579 Y129.56 E48.62854
G0 F3600 X99.579 Y128.994
G1 F1800 X99.472 Y128.887 E48.63609
G1 F1500 E42.13609
;MESH:Keyboard_Hanger.stl
G0 F3600 X100.135 Y128.332
G0 X100.134 Y127.054
G0 X105.571 Y115.686
G0 X105.571 Y114.401
G0 X121.103 Y111.602
G0 X121.145 Y88.355
G0 X121.075 Y88.425
;TYPE:WALL-INNER
G1 F1500 E48.63609
G1 F1800 X119.545 Y88.425 E48.71242
G1 X117.933 Y88.421 E48.79284
G1 X78.067 Y88.421 E50.78177
G1 X75.8 Y88.425 E50.89487
G1 X75.6 Y88.425 E50.90485
G1 X75.6 Y88.225 E50.91131
G1 X75.6 Y85.576 E51.04347
G1 X76.204 Y85.575 E51.0736
G1 X78.061 Y85.579 E51.16625
G1 X120.938 Y85.579 E53.30539
G1 X123.921 Y85.575 E53.45421
G1 X123.925 Y85.579 E53.45449
G1 X123.926 Y86.173 E53.48413
G1 X123.921 Y88.721 E53.61125
G1 X123.921 Y111.278 E54.73662
G1 X123.926 Y114.424 E54.89358
G1 X123.357 Y114.426 E54.92196
G1 X120.93 Y114.421 E55.04305
G1 X105.571 Y114.421 E55.80931
G1 X102.479 Y114.425 E55.96357
G1 X101.898 Y114.384 E55.99263
G1 X101.432 Y114.257 E56.01673
G1 X101.432 Y111.73 E56.1428
G1 X101.765 Y111.638 E56.16004
G1 X102.445 Y111.579 E56.19409
G1 X102.529 Y111.575 E56.19828
G1 X103.036 Y111.574 E56.22358
G1 X105.062 Y111.579 E56.32466
G1 X117.813 Y111.579 E56.96081
G1 X121.075 Y111.574 E57.12355
G1 X121.075 Y110.114 E57.19639
G1 X121.079 Y108.626 E57.27062
G1 X121.079 Y91.375 E58.13128
G1 X121.075 Y88.425 E58.27846
G0 F3600 X121.145 Y88.355
G0 X121.175 Y111.175
G0 X120.675 Y111.175
;TYPE:WALL-OUTER
G1 F1800 X120.675 Y110.113 E58.33144
G1 X120.679 Y108.625 E58.40568
G1 X120.679 Y91.375 E59.26628
G1 X120.675 Y88.825 E59.3935
G1 X119.545 Y88.825 E59.44988
G1 X117.933 Y88.821 E59.5303
G1 X78.067 Y88.821 E61.51923
G1 X75.315 Y88.825 E61.65652
G1 X75.287 Y88.825 E61.65792
G1 X75.2 Y88.493 E61.67504
G1 X75.2 Y88.465 E61.67644
G1 X75.2 Y85.517 E61.82352
G1 X75.271 Y85.176 E61.84089
G1 X76.205 Y85.175 E61.88749
G1 X78.062 Y85.179 E61.98014
G1 X120.938 Y85.179 E64.11923
G1 X123.973 Y85.175 E64.27065
G1 X124.15 Y85.22 E64.27976
G1 X124.277 Y85.349 E64.28879
