;FLAVOR:Marlin
;TIME:12338
;Filament used: 14.6097m
;Layer height: 0.2
;MINX:62.355
;MINY:48.386
;MINZ:0.3
;MAXX:137.645
;MAXY:143.613
;MAXZ:25.5
;Generated with Cura_SteamEngine 4.8.0
M140 S60
M105
M190 S60
M104 S200
M105
M109 S200
M82 ;absolute extrusion mode
G21 ;metric values
 G90 ;absolute positioning
 M82 ;set extruder to absolute mode
 M107 ;start with the fan off
 G28 X0 Y0 ;move X/Y to min endstops
 G28 Z0 ;move Z to min endstops
 G1 Z15.0 F120 ;move the platform down 15mm
 G92 E0 ;zero the extruded length
 G1 F200 E6 ;extrude 6 mm of feed stock
 G92 E0 ;zero the extruded length again
 G1 F120 
 ;Put printing message on LCD screen
 M117 Printing...
G92 E0
G92 E0
G1 F1500 E-6.5
;LAYER_COUNT:127
;LAYER:0
M107
G0 F3600 X67.126 Y57.835 Z0.3
;TYPE:SKIRT
G1 F1500 E0
G1 F1800 X67.481 Y57.422 E0.02717
G1 X67.691 Y57.186 E0.04293
G1 X68.064 Y56.786 E0.07022
G1 X68.318 Y56.527 E0.08832
G1 X68.709 Y56.145 E0.11559
G1 X68.931 Y55.936 E0.1308
G1 X69.335 Y55.571 E0.15796
G1 X69.596 Y55.346 E0.17515
G1 X70.016 Y54.999 E0.20233
G1 X70.293 Y54.781 E0.21992
G1 X70.73 Y54.452 E0.24721
G1 X70.999 Y54.258 E0.26376
G1 X71.448 Y53.949 E0.29095
G1 X71.708 Y53.777 E0.3065
G1 X72.602 Y53.213 E0.35924
G1 X72.891 Y53.04 E0.37604
G1 X73.807 Y52.516 E0.42869
G1 X74.089 Y52.362 E0.44472
G1 X75.028 Y51.875 E0.49749
G1 X75.321 Y51.731 E0.51378
G1 X76.279 Y51.284 E0.56652
G1 X76.57 Y51.155 E0.5824
G1 X77.544 Y50.748 E0.63507
G1 X77.849 Y50.628 E0.65142
G1 X78.84 Y50.262 E0.70413
G1 X79.151 Y50.155 E0.72053
G1 X80.157 Y49.831 E0.77326
G1 X80.468 Y49.738 E0.78946
G1 X81.487 Y49.456 E0.84221
G1 X81.794 Y49.377 E0.85802
G1 X82.822 Y49.137 E0.91069
G1 X83.146 Y49.069 E0.9272
G1 X84.183 Y48.873 E0.97986
G1 X84.496 Y48.82 E0.99569
G1 X85.542 Y48.666 E1.04844
G1 X85.874 Y48.625 E1.06513
G1 X86.926 Y48.516 E1.1179
G1 X87.243 Y48.489 E1.13377
G1 X88.297 Y48.423 E1.18646
G1 X88.631 Y48.409 E1.20314
G1 X89.756 Y48.387 E1.25927
G1 X110.16 Y48.386 E2.27723
G1 X111.378 Y48.41 E2.33801
G1 X111.703 Y48.423 E2.35424
G1 X112.757 Y48.489 E2.40692
G1 X113.074 Y48.516 E2.4228
G1 X114.126 Y48.625 E2.47556
G1 X114.46 Y48.667 E2.49236
G1 X115.504 Y48.821 E2.54501
G1 X115.812 Y48.872 E2.56058
G1 X116.851 Y49.068 E2.61333
G1 X117.175 Y49.136 E2.62985
G1 X118.205 Y49.376 E2.68261
G1 X118.519 Y49.457 E2.69879
G1 X119.536 Y49.739 E2.75144
G1 X119.847 Y49.832 E2.76764
G1 X120.851 Y50.156 E2.82027
G1 X121.154 Y50.26 E2.83625
G1 X122.147 Y50.626 E2.88905
G1 X122.457 Y50.748 E2.90567
G1 X123.433 Y51.156 E2.95845
G1 X123.723 Y51.284 E2.97426
G1 X124.679 Y51.73 E3.02689
G1 X124.967 Y51.872 E3.04291
G1 X125.904 Y52.357 E3.09555
G1 X126.196 Y52.516 E3.11214
G1 X127.114 Y53.042 E3.16492
G1 X127.389 Y53.208 E3.18095
G1 X128.284 Y53.771 E3.2337
G1 X128.569 Y53.959 E3.25074
G1 X129.017 Y54.269 E3.27792
G1 X129.266 Y54.448 E3.29321
G1 X129.701 Y54.775 E3.32037
G1 X129.985 Y54.999 E3.33841
G1 X130.407 Y55.348 E3.36573
G1 X130.657 Y55.564 E3.38221
G1 X131.061 Y55.928 E3.40934
G1 X131.298 Y56.151 E3.42558
G1 X131.689 Y56.534 E3.45289
G1 X131.922 Y56.772 E3.4695
G1 X132.295 Y57.17 E3.49672
G1 X132.531 Y57.434 E3.51438
G1 X132.886 Y57.849 E3.54163
G1 X133.093 Y58.101 E3.5579
G1 X133.43 Y58.53 E3.58512
G1 X133.626 Y58.79 E3.60136
G1 X133.945 Y59.233 E3.6286
G1 X134.134 Y59.507 E3.6452
G1 X134.433 Y59.962 E3.67236
G1 X134.621 Y60.264 E3.69011
G1 X134.9 Y60.734 E3.71738
G1 X135.061 Y61.018 E3.73367
G1 X135.32 Y61.499 E3.76092
G1 X135.471 Y61.795 E3.7775
G1 X135.709 Y62.286 E3.80472
G1 X135.85 Y62.595 E3.82167
G1 X136.066 Y63.095 E3.84884
G1 X136.187 Y63.39 E3.86475
G1 X136.383 Y63.9 E3.89201
G1 X136.497 Y64.219 E3.90891
G1 X136.671 Y64.738 E3.93622
G1 X136.779 Y65.084 E3.9543
G1 X136.928 Y65.608 E3.98148
G1 X137.009 Y65.92 E3.99756
G1 X137.136 Y66.449 E4.0247
G1 X137.204 Y66.759 E4.04054
G1 X137.31 Y67.296 E4.06785
G1 X137.369 Y67.632 E4.08486
G1 X137.451 Y68.17 E4.11202
G1 X137.496 Y68.518 E4.12952
G1 X137.554 Y69.062 E4.15682
G1 X137.582 Y69.388 E4.17314
G1 X137.617 Y69.932 E4.20034
G1 X137.631 Y70.262 E4.21682
G1 X137.645 Y70.979 E4.25259
G1 X137.645 Y129.919 E7.19312
G1 X137.605 Y130.708 E7.23254
G1 X137.486 Y131.488 E7.2719
G1 X137.288 Y132.253 E7.31132
G1 X137.014 Y132.993 E7.35069
G1 X136.666 Y133.702 E7.3901
G1 X136.248 Y134.373 E7.42954
G1 X135.765 Y134.997 E7.4689
G1 X135.222 Y135.57 E7.50829
G1 X134.623 Y136.085 E7.5477
G1 X133.975 Y136.536 E7.58709
G1 X133.284 Y136.92 E7.62653
G1 X132.559 Y137.232 E7.6659
G1 X131.806 Y137.469 E7.70529
G1 X131.032 Y137.628 E7.74471
G1 X130.247 Y137.709 E7.78408
G1 X129.847 Y137.719 E7.80404
G1 X126.037 Y137.72 E7.99413
G1 X125.248 Y137.68 E8.03354
G1 X124.468 Y137.561 E8.0729
G1 X123.703 Y137.363 E8.11233
G1 X122.963 Y137.089 E8.1517
G1 X122.253 Y136.742 E8.19112
G1 X121.583 Y136.325 E8.23049
G1 X120.958 Y135.842 E8.2699
G1 X120.385 Y135.298 E8.30932
G1 X119.871 Y134.699 E8.3487
G1 X119.419 Y134.051 E8.38812
G1 X119.035 Y133.361 E8.42751
G1 X118.723 Y132.636 E8.46689
G1 X118.486 Y131.883 E8.50627
G1 X118.356 Y131.29 E8.53656
G1 X118.262 Y130.763 E8.56327
G1 X118.175 Y130.116 E8.59584
G1 X118.128 Y129.611 E8.62114
G1 X118.088 Y128.801 E8.6616
G1 X118.085 Y128.576 E8.67283
G1 X118.085 Y127.025 E8.75021
G1 X117.793 Y126.724 E8.77113
G1 X117.28 Y126.124 E8.81051
G1 X116.83 Y125.475 E8.84991
G1 X116.447 Y124.784 E8.88933
G1 X116.137 Y124.058 E8.92871
G1 X115.956 Y123.504 E8.95779
G1 X115.847 Y123.123 E8.97756
G1 X115.668 Y122.354 E9.01695
G1 X115.569 Y121.571 E9.05633
G1 X115.546 Y120.978 E9.08593
G1 X115.545 Y103.516 E9.95712
G1 X115.13 Y103.35 E9.97942
G1 X114.43 Y102.983 E10.01885
G1 X113.717 Y102.508 E10.06159
G1 X113.478 Y102.329 E10.07649
G1 X112.871 Y101.824 E10.11588
G1 X112.318 Y101.261 E10.15525
G1 X111.824 Y100.644 E10.19469
G1 X111.445 Y100.064 E10.22925
G1 X111.279 Y99.784 E10.24549
G1 X110.911 Y99.085 E10.2849
G1 X110.615 Y98.353 E10.3243
G1 X110.396 Y97.594 E10.36371
G1 X110.292 Y97.078 E10.38997
G1 X110.251 Y96.83 E10.40251
G1 X110.162 Y96.046 E10.44187
G1 X110.147 Y95.558 E10.46623
G1 X110.146 Y79.04 E11.29032
G1 X108.943 Y78.984 E11.3504
G1 X108.66 Y78.966 E11.36455
G1 X103.078 Y78.831 E11.64312
G1 X96.916 Y78.831 E11.95054
G1 X91.278 Y78.966 E12.2319
G1 X90.889 Y78.992 E12.25135
G1 X89.853 Y79.04 E12.30309
G1 X89.852 Y95.593 E13.12893
G1 X89.812 Y96.381 E13.16829
G1 X89.624 Y97.466 E13.22323
G1 X89.551 Y97.761 E13.23839
G1 X89.322 Y98.517 E13.2778
G1 X89.019 Y99.246 E13.31719
G1 X88.643 Y99.94 E13.35656
G1 X88.207 Y100.582 E13.39528
G1 X88.011 Y100.842 E13.41153
G1 X87.505 Y101.448 E13.45091
G1 X86.939 Y101.999 E13.49032
G1 X86.321 Y102.491 E13.52973
G1 X85.524 Y102.991 E13.57667
G1 X85.224 Y103.155 E13.59373
G1 X84.513 Y103.498 E13.63311
G1 X84.456 Y103.519 E13.63614
G1 X84.454 Y121.012 E14.50887
G1 X84.414 Y121.8 E14.54824
G1 X84.294 Y122.581 E14.58766
G1 X84.13 Y123.235 E14.6213
G1 X84.033 Y123.561 E14.63827
G1 X83.77 Y124.306 E14.67768
G1 X83.433 Y125.02 E14.71707
G1 X83.025 Y125.696 E14.75646
G1 X82.404 Y126.499 E14.80711
G1 X81.916 Y127.023 E14.84283
G1 X81.916 Y128.576 E14.92031
G1 X81.908 Y128.937 E14.93833
G1 X81.884 Y129.455 E14.9642
G1 X81.83 Y130.077 E14.99535
G1 X81.766 Y130.581 E15.02069
G1 X81.677 Y131.123 E15.04809
G1 X81.613 Y131.444 E15.06442
G1 X81.42 Y132.21 E15.10383
G1 X81.15 Y132.952 E15.14323
G1 X80.807 Y133.663 E15.18261
G1 X80.393 Y134.336 E15.22203
G1 X79.914 Y134.963 E15.2614
G1 X79.373 Y135.539 E15.30082
G1 X78.777 Y136.057 E15.34022
G1 X78.132 Y136.512 E15.3796
G1 X77.444 Y136.9 E15.419
G1 X76.72 Y137.216 E15.45842
G1 X75.968 Y137.457 E15.49781
G1 X75.196 Y137.621 E15.53719
G1 X74.411 Y137.706 E15.57658
G1 X73.966 Y137.719 E15.59879
G1 X70.157 Y137.72 E15.78882
G1 X69.368 Y137.68 E15.82824
G1 X68.588 Y137.561 E15.8676
G1 X67.823 Y137.363 E15.90702
G1 X67.083 Y137.089 E15.94639
G1 X66.373 Y136.742 E15.98582
G1 X65.703 Y136.325 E16.02519
G1 X65.078 Y135.842 E16.0646
G1 X64.505 Y135.298 E16.10402
G1 X63.991 Y134.699 E16.14339
G1 X63.539 Y134.051 E16.18281
G1 X63.155 Y133.361 E16.22221
G1 X62.843 Y132.636 E16.26158
G1 X62.606 Y131.883 E16.30097
G1 X62.446 Y131.109 E16.3404
G1 X62.365 Y130.324 E16.37977
G1 X62.355 Y129.92 E16.39993
G1 X62.355 Y70.979 E19.34051
G1 X62.369 Y70.262 E19.37629
G1 X62.383 Y69.934 E19.39267
G1 X62.418 Y69.389 E19.41992
G1 X62.446 Y69.059 E19.43644
G1 X62.504 Y68.517 E19.46363
G1 X62.548 Y68.176 E19.48079
G1 X62.63 Y67.636 E19.50804
G1 X62.687 Y67.31 E19.52455
G1 X62.792 Y66.773 E19.55185
G1 X62.866 Y66.436 E19.56906
G1 X62.994 Y65.907 E19.59621
G1 X63.075 Y65.598 E19.61215
G1 X63.225 Y65.073 E19.63939
G1 X63.327 Y64.745 E19.65653
G1 X63.5 Y64.227 E19.68377
G1 X63.611 Y63.915 E19.7003
G1 X63.805 Y63.407 E19.72742
G1 X63.937 Y63.083 E19.74488
G1 X64.155 Y62.581 E19.77218
G1 X64.291 Y62.286 E19.78839
G1 X64.529 Y61.795 E19.81561
G1 X64.68 Y61.499 E19.83219
G1 X64.939 Y61.018 E19.85945
G1 X65.107 Y60.722 E19.87643
G1 X65.386 Y60.254 E19.90361
G1 X65.559 Y59.978 E19.91986
G1 X65.858 Y59.521 E19.94711
G1 X66.055 Y59.233 E19.96451
G1 X66.374 Y58.79 E19.99175
G1 X66.57 Y58.53 E20.00799
G1 X66.907 Y58.101 E20.03521
G1 X67.126 Y57.835 E20.0524
G0 F3600 X67.429 Y58.095
G1 F1800 X67.784 Y57.682 E20.07957
G1 X67.984 Y57.459 E20.09451
G1 X68.357 Y57.059 E20.1218
G1 X68.598 Y56.813 E20.13898
G1 X68.989 Y56.431 E20.16625
G1 X69.199 Y56.233 E20.18065
G1 X69.603 Y55.868 E20.20782
G1 X69.851 Y55.654 E20.22416
G1 X70.271 Y55.307 E20.25134
G1 X70.533 Y55.1 E20.268
G1 X70.97 Y54.771 E20.29529
G1 X71.226 Y54.587 E20.31102
G1 X71.675 Y54.278 E20.33821
G1 X71.922 Y54.115 E20.35297
G1 X72.816 Y53.551 E20.40571
G1 X73.09 Y53.387 E20.42164
G1 X74.006 Y52.863 E20.47429
G1 X74.273 Y52.717 E20.48947
G1 X75.212 Y52.23 E20.54224
G1 X75.49 Y52.093 E20.55771
G1 X76.448 Y51.646 E20.61045
G1 X76.724 Y51.524 E20.6255
G1 X77.698 Y51.117 E20.67817
G1 X77.987 Y51.003 E20.69367
G1 X78.978 Y50.637 E20.74637
G1 X79.273 Y50.535 E20.76195
G1 X80.279 Y50.211 E20.81467
G1 X80.574 Y50.123 E20.83003
G1 X81.593 Y49.841 E20.88278
G1 X81.885 Y49.767 E20.89781
G1 X82.913 Y49.527 E20.95048
G1 X83.221 Y49.462 E20.96618
G1 X84.258 Y49.266 E21.01883
G1 X84.554 Y49.216 E21.03381
G1 X85.6 Y49.062 E21.08656
G1 X85.915 Y49.022 E21.1024
G1 X86.967 Y48.913 E21.15516
G1 X87.268 Y48.888 E21.17023
G1 X88.322 Y48.822 E21.22292
G1 X88.639 Y48.809 E21.23875
G1 X89.764 Y48.787 E21.29489
G1 X110.16 Y48.786 E22.31245
G1 X111.37 Y48.81 E22.37283
G1 X111.678 Y48.822 E22.3882
G1 X112.732 Y48.888 E22.44089
G1 X113.033 Y48.913 E22.45596
G1 X114.085 Y49.022 E22.50872
G1 X114.402 Y49.062 E22.52467
G1 X115.446 Y49.216 E22.57731
G1 X115.738 Y49.265 E22.59209
G1 X116.777 Y49.461 E22.64484
G1 X117.084 Y49.526 E22.66049
G1 X118.114 Y49.766 E22.71326
G1 X118.412 Y49.842 E22.7286
G1 X119.429 Y50.124 E22.78125
G1 X119.725 Y50.213 E22.79667
G1 X120.729 Y50.537 E22.84931
G1 X121.015 Y50.636 E22.8644
G1 X122.008 Y51.002 E22.9172
G1 X122.303 Y51.118 E22.93302
G1 X123.279 Y51.526 E22.98579
G1 X123.554 Y51.647 E23.00078
G1 X124.51 Y52.093 E23.05341
G1 X124.783 Y52.227 E23.06859
G1 X125.72 Y52.712 E23.12122
G1 X125.997 Y52.863 E23.13696
G1 X126.915 Y53.389 E23.18975
G1 X127.176 Y53.546 E23.20494
G1 X128.071 Y54.109 E23.2577
G1 X128.342 Y54.288 E23.2739
G1 X128.79 Y54.598 E23.30108
G1 X129.026 Y54.768 E23.31559
G1 X129.461 Y55.095 E23.34274
G1 X129.73 Y55.307 E23.35983
G1 X130.152 Y55.656 E23.38715
G1 X130.389 Y55.861 E23.40278
G1 X130.793 Y56.225 E23.42991
G1 X131.018 Y56.437 E23.44533
G1 X131.409 Y56.82 E23.47264
G1 X131.63 Y57.046 E23.48841
G1 X132.003 Y57.444 E23.51562
G1 X132.227 Y57.694 E23.53237
G1 X132.582 Y58.109 E23.55962
G1 X132.778 Y58.348 E23.57504
G1 X133.115 Y58.777 E23.60225
G1 X133.301 Y59.024 E23.61768
G1 X133.62 Y59.467 E23.64492
G1 X133.799 Y59.727 E23.66066
G1 X134.098 Y60.182 E23.68783
G1 X134.277 Y60.469 E23.7047
G1 X134.556 Y60.939 E23.73197
G1 X134.708 Y61.208 E23.74739
G1 X134.967 Y61.689 E23.77464
G1 X135.111 Y61.969 E23.79035
G1 X135.349 Y62.46 E23.81757
G1 X135.483 Y62.753 E23.83365
G1 X135.699 Y63.253 E23.86082
G1 X135.813 Y63.533 E23.8759
G1 X136.009 Y64.043 E23.90316
G1 X136.118 Y64.346 E23.91922
G1 X136.292 Y64.865 E23.94653
G1 X136.394 Y65.193 E23.96367
G1 X136.543 Y65.717 E23.99085
G1 X136.621 Y66.014 E24.00617
G1 X136.748 Y66.543 E24.03331
G1 X136.812 Y66.837 E24.04832
G1 X136.918 Y67.374 E24.07563
G1 X136.974 Y67.692 E24.09174
G1 X137.056 Y68.23 E24.11889
G1 X137.098 Y68.56 E24.13549
G1 X137.156 Y69.104 E24.16278
G1 X137.183 Y69.414 E24.17831
G1 X137.218 Y69.958 E24.2055
G1 X137.231 Y70.27 E24.22108
G1 X137.245 Y70.979 E24.25646
G1 X137.245 Y129.919 E27.19699
G1 X137.205 Y130.687 E27.23536
G1 X137.086 Y131.447 E27.27374
G1 X136.888 Y132.19 E27.3121
G1 X136.614 Y132.909 E27.35048
G1 X136.267 Y133.595 E27.38884
G1 X135.851 Y134.242 E27.42721
G1 X135.37 Y134.842 E27.46558
G1 X134.829 Y135.389 E27.50396
G1 X134.234 Y135.877 E27.54235
G1 X133.592 Y136.3 E27.58071
G1 X132.909 Y136.655 E27.61911
G1 X132.194 Y136.936 E27.65744
G1 X131.452 Y137.142 E27.69586
G1 X130.694 Y137.27 E27.73421
G1 X129.847 Y137.319 E27.77654
G1 X126.037 Y137.32 E27.96662
G1 X125.269 Y137.28 E28.00499
G1 X124.509 Y137.161 E28.04337
G1 X123.766 Y136.963 E28.08173
G1 X123.047 Y136.69 E28.1201
G1 X122.36 Y136.343 E28.1585
G1 X121.713 Y135.927 E28.19687
G1 X121.113 Y135.446 E28.23524
G1 X120.566 Y134.905 E28.27362
G1 X120.078 Y134.311 E28.31198
G1 X119.655 Y133.669 E28.35033
G1 X119.3 Y132.986 E28.38874
G1 X119.018 Y132.27 E28.42713
G1 X118.75 Y131.219 E28.48124
G1 X118.656 Y130.692 E28.50795
G1 X118.573 Y130.079 E28.53881
G1 X118.526 Y129.574 E28.56411
G1 X118.488 Y128.789 E28.60332
G1 X118.485 Y128.576 E28.61395
G1 X118.485 Y126.853 E28.69991
G1 X118.084 Y126.449 E28.72831
G1 X117.584 Y125.864 E28.7667
G1 X117.148 Y125.23 E28.80509
G1 X116.781 Y124.555 E28.84342
G1 X116.485 Y123.845 E28.8818
G1 X116.231 Y123.013 E28.9252
G1 X116.059 Y122.264 E28.96354
G1 X115.964 Y121.501 E29.0019
G1 X115.946 Y120.978 E29.02801
G1 X115.945 Y103.246 E29.91266
G1 X115.261 Y102.97 E29.94946
G1 X114.582 Y102.608 E29.98785
G1 X113.957 Y102.188 E30.02542
G1 X113.718 Y102.009 E30.04031
G1 X113.127 Y101.517 E30.07868
G1 X112.591 Y100.965 E30.11706
G1 X112.114 Y100.362 E30.15542
G1 X111.789 Y99.86 E30.18526
G1 X111.623 Y99.58 E30.2015
G1 X111.265 Y98.899 E30.23988
G1 X110.981 Y98.184 E30.27826
G1 X110.772 Y97.444 E30.31663
G1 X110.646 Y96.765 E30.35108
G1 X110.56 Y96.001 E30.38944
G1 X110.547 Y95.558 E30.41155
G1 X110.546 Y78.659 E31.25464
G1 X108.961 Y78.585 E31.33381
G1 X108.68 Y78.567 E31.34785
G1 X104.836 Y78.472 E31.53969
G1 X103.087 Y78.431 E31.62697
G1 X96.906 Y78.431 E31.93534
G1 X91.256 Y78.566 E32.2173
G1 X90.87 Y78.593 E32.23661
G1 X89.453 Y78.659 E32.30738
G1 X89.452 Y95.593 E33.15222
G1 X89.412 Y96.361 E33.19059
G1 X89.235 Y97.37 E33.24169
G1 X89.162 Y97.665 E33.25686
G1 X88.939 Y98.401 E33.29522
G1 X88.641 Y99.109 E33.33355
G1 X88.27 Y99.784 E33.37197
G1 X87.888 Y100.342 E33.40571
G1 X87.692 Y100.602 E33.42196
G1 X87.198 Y101.191 E33.46031
G1 X86.645 Y101.726 E33.4987
G1 X86.04 Y102.2 E33.53704
G1 X85.333 Y102.64 E33.57859
G1 X85.033 Y102.804 E33.59564
G1 X84.339 Y103.137 E33.63405
G1 X84.056 Y103.239 E33.64905
G1 X84.054 Y121.012 E34.53575
G1 X84.014 Y121.78 E34.57412
G1 X83.894 Y122.54 E34.61251
G1 X83.747 Y123.121 E34.64241
G1 X83.65 Y123.447 E34.65938
G1 X83.392 Y124.172 E34.69777
G1 X83.061 Y124.866 E34.73613
G1 X82.66 Y125.522 E34.77449
G1 X82.105 Y126.234 E34.81953
G1 X81.879 Y126.49 E34.83656
G1 X81.516 Y126.86 E34.86242
G1 X81.516 Y128.576 E34.94803
G1 X81.508 Y128.918 E34.9651
G1 X81.484 Y129.436 E34.99097
G1 X81.433 Y130.026 E35.02052
G1 X81.369 Y130.53 E35.04586
G1 X81.285 Y131.045 E35.0719
G1 X81.221 Y131.366 E35.08823
G1 X81.032 Y132.111 E35.12657
G1 X80.766 Y132.833 E35.16496
G1 X80.427 Y133.523 E35.20331
G1 X80.018 Y134.175 E35.24171
G1 X79.543 Y134.78 E35.28009
G1 X79.009 Y135.333 E35.31844
G1 X78.419 Y135.827 E35.35683
G1 X77.782 Y136.258 E35.3952
G1 X77.103 Y136.62 E35.43359
G1 X76.391 Y136.91 E35.47195
G1 X75.652 Y137.124 E35.51033
G1 X74.895 Y137.26 E35.5487
G1 X73.966 Y137.319 E35.59514
G1 X70.157 Y137.32 E35.78517
