;FLAVOR:Marlin
;TIME:424
;Filament used: 0.563347m
;Layer height: 0.15
;MINX:10.2
;MINY:10.2
;MINZ:0.3
;MAXX:189.8
;MAXY:189.8
;MAXZ:0.3
;Generated with Cura_SteamEngine 4.8.0
M140 S60
M105
M190 S60
M104 S200
M105
M109 S200
M82 ;absolute extrusion mode
G21 ;metric values
 G90 ;absolute positioning
 M82 ;set extruder to absolute mode
 M107 ;start with the fan off
 G28 X0 Y0 ;move X/Y to min endstops
 G28 Z0 ;move Z to min endstops
 G1 Z15.0 F120 ;move the platform down 15mm
 G92 E0 ;zero the extruded length
 G1 F200 E6 ;extrude 6 mm of feed stock
 G92 E0 ;zero the extruded length again
 G1 F120 
;Put printing message on LCD screen
 M117 Printing...
G92 E0
G92 E0
G1 F1500 E-6.5
;LAYER_COUNT:1
;LAYER:0
M117 INDICATOR-Layer0
M107
;MESH:20x20.stl
G0 F3600 X39.4 Y39.4 Z0.3
;TYPE:WALL-INNER
G1 F1500 E0
G1 F1800 X10.6 Y39.4 E1.43684
G1 X10.6 Y10.6 E2.87368
G1 X39.4 Y10.6 E4.31051
G1 X39.4 Y39.4 E5.74735
G0 F3600 X39.8 Y39.8
;TYPE:WALL-OUTER
G1 F1800 X10.2 Y39.8 E7.2241
G1 X10.2 Y10.2 E8.70085
G1 X39.8 Y10.2 E10.1776
G1 X39.8 Y39.8 E11.65435
G0 F3600 X39.6 Y39.8
G0 X39.01 Y39.01
;TYPE:SKIN
G1 F1800 X10.99 Y39.01 E13.05227
G1 X10.99 Y10.99 E14.4502
G1 X39.01 Y10.99 E15.84812
G1 X39.01 Y39.01 E17.24605
G0 F3600 X38.829 Y11.676
G1 F1800 X38.323 Y11.17 E17.28175
G0 F3600 X37.757 Y11.17
G1 F1800 X38.829 Y12.242 E17.35738
G0 F3600 X38.829 Y12.807
G1 F1800 X37.191 Y11.17 E17.47292
G0 F3600 X36.626 Y11.17
G1 F1800 X38.829 Y13.373 E17.62835
G0 F3600 X38.829 Y13.939
G1 F1800 X36.06 Y11.17 E17.82372
G0 F3600 X35.494 Y11.17
G1 F1800 X38.829 Y14.504 E18.05898
G0 F3600 X38.829 Y15.07
G1 F1800 X34.928 Y11.17 E18.33419
G0 F3600 X34.363 Y11.17
G1 F1800 X38.829 Y15.636 E18.64929
G0 F3600 X38.829 Y16.201
G1 F1800 X33.797 Y11.17 E19.00429
G0 F3600 X33.231 Y11.17
G1 F1800 X38.829 Y16.767 E19.39922
G0 F3600 X38.829 Y17.333
G1 F1800 X32.666 Y11.17 E19.83405
G0 F3600 X32.1 Y11.17
G1 F1800 X38.829 Y17.898 E20.30878
G0 F3600 X38.829 Y18.464
G1 F1800 X31.534 Y11.17 E20.82345
G0 F3600 X30.969 Y11.17
G1 F1800 X38.829 Y19.03 E21.37802
G0 F3600 X38.829 Y19.596
G1 F1800 X30.403 Y11.17 E21.97252
G0 F3600 X29.837 Y11.17
G1 F1800 X38.829 Y20.161 E22.60692
G0 F3600 X38.829 Y20.727
G1 F1800 X29.272 Y11.17 E23.28121
G0 F3600 X28.706 Y11.17
G1 F1800 X38.829 Y21.293 E23.99545
G0 F3600 X38.829 Y21.858
G1 F1800 X28.14 Y11.17 E24.74958
G0 F3600 X27.575 Y11.17
G1 F1800 X38.829 Y22.424 E25.54361
G0 F3600 X38.829 Y22.99
G1 F1800 X27.009 Y11.17 E26.37757
G0 F3600 X26.443 Y11.17
G1 F1800 X38.829 Y23.555 E27.25144
G0 F3600 X38.829 Y24.121
G1 F1800 X25.877 Y11.17 E28.16523
G0 F3600 X25.312 Y11.17
G1 F1800 X38.829 Y24.687 E29.11893
G0 F3600 X38.829 Y25.252
G1 F1800 X24.746 Y11.17 E30.11253
G0 F3600 X24.18 Y11.17
G1 F1800 X38.829 Y25.818 E31.14606
G0 F3600 X38.829 Y26.384
G1 F1800 X23.615 Y11.17 E32.21949
G0 F3600 X23.049 Y11.17
G1 F1800 X38.829 Y26.949 E33.33282
G0 F3600 X38.829 Y27.515
G1 F1800 X22.483 Y11.17 E34.48608
G0 F3600 X21.918 Y11.17
G1 F1800 X38.829 Y28.081 E35.67924
G0 F3600 X38.829 Y28.647
G1 F1800 X21.352 Y11.17 E36.91234
G0 F3600 X20.786 Y11.17
G1 F1800 X38.829 Y29.212 E38.18534
G0 F3600 X38.829 Y29.778
G1 F1800 X20.221 Y11.17 E39.49823
G0 F3600 X19.655 Y11.17
G1 F1800 X38.829 Y30.344 E40.85106
G0 F3600 X38.829 Y30.909
G1 F1800 X19.089 Y11.17 E42.24379
G0 F3600 X18.524 Y11.17
G1 F1800 X38.829 Y31.475 E43.67642
G0 F3600 X38.829 Y32.041
G1 F1800 X17.958 Y11.17 E45.14898
G0 F3600 X17.392 Y11.17
G1 F1800 X38.829 Y32.606 E46.66144
G0 F3600 X38.829 Y33.172
G1 F1800 X16.827 Y11.17 E48.2138
G0 F3600 X16.261 Y11.17
G1 F1800 X38.829 Y33.738 E49.80609
G0 F3600 X38.829 Y34.303
G1 F1800 X15.695 Y11.17 E51.43829
G0 F3600 X15.129 Y11.17
G1 F1800 X38.829 Y34.869 E53.11041
G0 F3600 X38.829 Y35.435
G1 F1800 X14.564 Y11.17 E54.82244
G0 F3600 X13.998 Y11.17
G1 F1800 X38.829 Y36 E56.57437
G0 F3600 X38.829 Y36.566
G1 F1800 X13.432 Y11.17 E58.36623
G0 F3600 X12.867 Y11.17
G1 F1800 X38.829 Y37.132 E60.19799
G0 F3600 X38.829 Y37.697
G1 F1800 X12.301 Y11.17 E62.06964
G0 F3600 X11.735 Y11.17
G1 F1800 X38.829 Y38.263 E63.98124
G0 F3600 X38.829 Y38.829
G1 F1800 X11.169 Y11.169 E65.9328
G0 F3600 X11.169 Y11.735
G1 F1800 X38.263 Y38.829 E67.84443
G0 F3600 X37.697 Y38.829
G1 F1800 X11.169 Y12.3 E69.71616
G0 F3600 X11.169 Y12.866
G1 F1800 X37.132 Y38.829 E71.54799
G0 F3600 X36.566 Y38.829
G1 F1800 X11.169 Y13.432 E73.33988
G0 F3600 X11.169 Y13.997
G1 F1800 X36 Y38.829 E75.09188
G0 F3600 X35.435 Y38.829
G1 F1800 X11.169 Y14.563 E76.80398
G0 F3600 X11.169 Y15.129
G1 F1800 X34.869 Y38.829 E78.47614
G0 F3600 X34.303 Y38.829
G1 F1800 X11.169 Y15.694 E80.1084
G0 F3600 X11.169 Y16.26
G1 F1800 X33.738 Y38.829 E81.70077
G0 F3600 X33.172 Y38.829
G1 F1800 X11.169 Y16.826 E83.2532
G0 F3600 X11.169 Y17.391
G1 F1800 X32.606 Y38.829 E84.76573
G0 F3600 X32.041 Y38.829
G1 F1800 X11.169 Y17.957 E86.23836
G0 F3600 X11.169 Y18.523
G1 F1800 X31.475 Y38.829 E87.67106
G0 F3600 X30.909 Y38.829
G1 F1800 X11.169 Y19.089 E89.06382
G0 F3600 X11.169 Y19.654
G1 F1800 X30.344 Y38.829 E90.41672
G0 F3600 X29.778 Y38.829
G1 F1800 X11.169 Y20.22 E91.72969
G0 F3600 X11.169 Y20.786
G1 F1800 X29.212 Y38.829 E93.00272
G0 F3600 X28.647 Y38.829
G1 F1800 X11.169 Y21.351 E94.23589
G0 F3600 X11.169 Y21.917
G1 F1800 X28.081 Y38.829 E95.42912
G0 F3600 X27.515 Y38.829
G1 F1800 X11.169 Y22.483 E96.58242
G0 F3600 X11.169 Y23.048
G1 F1800 X26.949 Y38.829 E97.69582
G0 F3600 X26.384 Y38.829
G1 F1800 X11.169 Y23.614 E98.76932
G0 F3600 X11.169 Y24.18
G1 F1800 X25.818 Y38.829 E99.80288
G0 F3600 X25.252 Y38.829
G1 F1800 X11.169 Y24.745 E100.79655
G0 F3600 X11.169 Y25.311
G1 F1800 X24.687 Y38.829 E101.75032
G0 F3600 X24.121 Y38.829
G1 F1800 X11.169 Y25.877 E102.66415
G0 F3600 X11.169 Y26.442
G1 F1800 X23.555 Y38.829 E103.53809
G0 F3600 X22.99 Y38.829
G1 F1800 X11.169 Y27.008 E104.37212
G0 F3600 X11.169 Y27.574
G1 F1800 X22.424 Y38.829 E105.16622
G0 F3600 X21.858 Y38.829
G1 F1800 X11.169 Y28.14 E105.92039
G0 F3600 X11.169 Y28.705
G1 F1800 X21.293 Y38.829 E106.63469
G0 F3600 X20.727 Y38.829
G1 F1800 X11.169 Y29.271 E107.30906
G0 F3600 X11.169 Y29.837
G1 F1800 X20.161 Y38.829 E107.9435
G0 F3600 X19.596 Y38.829
G1 F1800 X11.169 Y30.402 E108.53807
G0 F3600 X11.169 Y30.968
G1 F1800 X19.03 Y38.829 E109.0927
G0 F3600 X18.464 Y38.829
G1 F1800 X11.169 Y31.534 E109.6074
G0 F3600 X11.169 Y32.099
G1 F1800 X17.898 Y38.829 E110.08221
G0 F3600 X17.333 Y38.829
G1 F1800 X11.169 Y32.665 E110.51711
G0 F3600 X11.169 Y33.231
G1 F1800 X16.767 Y38.829 E110.91208
G0 F3600 X16.201 Y38.829
G1 F1800 X11.169 Y33.796 E111.26715
G0 F3600 X11.169 Y34.362
G1 F1800 X15.636 Y38.829 E111.58232
G0 F3600 X15.07 Y38.829
G1 F1800 X11.169 Y34.928 E111.85756
G0 F3600 X11.169 Y35.493
G1 F1800 X14.504 Y38.829 E112.09289
G0 F3600 X13.939 Y38.829
G1 F1800 X11.169 Y36.059 E112.28833
G0 F3600 X11.169 Y36.625
G1 F1800 X13.373 Y38.829 E112.44384
G0 F3600 X12.807 Y38.829
G1 F1800 X11.169 Y37.19 E112.55944
G0 F3600 X11.169 Y37.756
G1 F1800 X12.242 Y38.829 E112.63515
G0 F3600 X11.676 Y38.829
G1 F1800 X11.169 Y38.322 E112.67092
G1 F1500 E106.17092
G0 F3600 X39.386 Y39.386
G0 X40.665 Y39.386
G0 X85.614 Y84.335
G0 X85.614 Y85.614
G0 X114.33 Y114.33
G0 X114.4 Y114.4
;TYPE:WALL-INNER
G1 F1500 E112.67092
G1 F1800 X85.6 Y114.4 E114.10776
G1 X85.6 Y85.6 E115.5446
G1 X114.4 Y85.6 E116.98143
G1 X114.4 Y114.4 E118.41827
G0 F3600 X114.8 Y114.8
;TYPE:WALL-OUTER
G1 F1800 X85.2 Y114.8 E119.89502
G1 X85.2 Y85.2 E121.37177
G1 X114.8 Y85.2 E122.84852
G1 X114.8 Y114.8 E124.32527
G0 F3600 X114.6 Y114.8
G0 X114.01 Y114.01
;TYPE:SKIN
G1 F1800 X85.99 Y114.01 E125.72319
G1 X85.99 Y85.99 E127.12112
G1 X114.01 Y85.99 E128.51904
G1 X114.01 Y114.01 E129.91697
G0 F3600 X113.829 Y86.676
G1 F1800 X113.323 Y86.17 E129.95267
G0 F3600 X112.757 Y86.17
G1 F1800 X113.829 Y87.242 E130.0283
G0 F3600 X113.829 Y87.807
G1 F1800 X112.191 Y86.17 E130.14384
G0 F3600 X111.625 Y86.17
G1 F1800 X113.829 Y88.373 E130.2993
G0 F3600 X113.829 Y88.939
G1 F1800 X111.06 Y86.17 E130.49467
G0 F3600 X110.494 Y86.17
G1 F1800 X113.829 Y89.504 E130.72994
G0 F3600 X113.829 Y90.07
G1 F1800 X109.928 Y86.17 E131.00514
G0 F3600 X109.363 Y86.17
G1 F1800 X113.829 Y90.636 E131.32024
G0 F3600 X113.829 Y91.201
G1 F1800 X108.797 Y86.17 E131.67524
G0 F3600 X108.231 Y86.17
G1 F1800 X113.829 Y91.767 E132.07017
G0 F3600 X113.829 Y92.333
G1 F1800 X107.666 Y86.17 E132.50501
G0 F3600 X107.1 Y86.17
G1 F1800 X113.829 Y92.898 E132.97974
G0 F3600 X113.829 Y93.464
G1 F1800 X106.534 Y86.17 E133.49441
G0 F3600 X105.969 Y86.17
G1 F1800 X113.829 Y94.03 E134.04897
G0 F3600 X113.829 Y94.596
G1 F1800 X105.403 Y86.17 E134.64347
G0 F3600 X104.837 Y86.17
G1 F1800 X113.829 Y95.161 E135.27787
G0 F3600 X113.829 Y95.727
G1 F1800 X104.272 Y86.17 E135.95217
G0 F3600 X103.706 Y86.17
G1 F1800 X113.829 Y96.293 E136.6664
G0 F3600 X113.829 Y96.858
G1 F1800 X103.14 Y86.17 E137.42053
G0 F3600 X102.575 Y86.17
G1 F1800 X113.829 Y97.424 E138.21456
G0 F3600 X113.829 Y97.99
G1 F1800 X102.009 Y86.17 E139.04853
G0 F3600 X101.443 Y86.17
G1 F1800 X113.829 Y98.555 E139.92239
G0 F3600 X113.829 Y99.121
G1 F1800 X100.877 Y86.17 E140.83619
G0 F3600 X100.312 Y86.17
G1 F1800 X113.829 Y99.687 E141.78989
G0 F3600 X113.829 Y100.252
G1 F1800 X99.746 Y86.17 E142.78348
G0 F3600 X99.18 Y86.17
G1 F1800 X113.829 Y100.818 E143.81701
G0 F3600 X113.829 Y101.384
G1 F1800 X98.615 Y86.17 E144.89044
G0 F3600 X98.049 Y86.17
G1 F1800 X113.829 Y101.949 E146.00377
G0 F3600 X113.829 Y102.515
G1 F1800 X97.483 Y86.17 E147.15704
G0 F3600 X96.918 Y86.17
G1 F1800 X113.829 Y103.081 E148.3502
G0 F3600 X113.829 Y103.647
G1 F1800 X96.352 Y86.17 E149.5833
G0 F3600 X95.786 Y86.17
G1 F1800 X113.829 Y104.212 E150.85629
G0 F3600 X113.829 Y104.778
G1 F1800 X95.221 Y86.17 E152.16919
G0 F3600 X94.655 Y86.17
G1 F1800 X113.829 Y105.344 E153.52202
G0 F3600 X113.829 Y105.909
G1 F1800 X94.089 Y86.17 E154.91474
G0 F3600 X93.524 Y86.17
G1 F1800 X113.829 Y106.475 E156.34737
G0 F3600 X113.829 Y107.041
G1 F1800 X92.958 Y86.17 E157.81993
G0 F3600 X92.392 Y86.17
G1 F1800 X113.829 Y107.606 E159.33239
G0 F3600 X113.829 Y108.172
G1 F1800 X91.827 Y86.17 E160.88475
G0 F3600 X91.261 Y86.17
G1 F1800 X113.829 Y108.738 E162.47705
G0 F3600 X113.829 Y109.303
G1 F1800 X90.695 Y86.17 E164.10924
G0 F3600 X90.129 Y86.17
G1 F1800 X113.829 Y109.869 E165.78137
G0 F3600 X113.829 Y110.435
G1 F1800 X89.564 Y86.17 E167.4934
G0 F3600 X88.998 Y86.17
G1 F1800 X113.829 Y111 E169.24532
G0 F3600 X113.829 Y111.566
G1 F1800 X88.432 Y86.17 E171.03718
G0 F3600 X87.867 Y86.17
G1 F1800 X113.829 Y112.132 E172.86894
G0 F3600 X113.829 Y112.697
G1 F1800 X87.301 Y86.17 E174.7406
G0 F3600 X86.735 Y86.17
G1 F1800 X113.829 Y113.263 E176.65219
G0 F3600 X113.829 Y113.829
G1 F1800 X86.169 Y86.169 E178.60376
G0 F3600 X86.169 Y86.735
G1 F1800 X113.263 Y113.829 E180.51538
G0 F3600 X112.697 Y113.829
G1 F1800 X86.169 Y87.3 E182.38711
G0 F3600 X86.169 Y87.866
G1 F1800 X112.132 Y113.829 E184.21894
G0 F3600 X111.566 Y113.829
G1 F1800 X86.169 Y88.432 E186.01084
G0 F3600 X86.169 Y88.997
G1 F1800 X111 Y113.829 E187.76283
G0 F3600 X110.435 Y113.829
G1 F1800 X86.169 Y89.563 E189.47493
G0 F3600 X86.169 Y90.129
G1 F1800 X109.869 Y113.829 E191.14709
G0 F3600 X109.303 Y113.829
G1 F1800 X86.169 Y90.694 E192.77936
G0 F3600 X86.169 Y91.26
G1 F1800 X108.738 Y113.829 E194.37172
G0 F3600 X108.172 Y113.829
G1 F1800 X86.169 Y91.826 E195.92415
G0 F3600 X86.169 Y92.391
G1 F1800 X107.606 Y113.829 E197.43668
G0 F3600 X107.041 Y113.829
G1 F1800 X86.169 Y92.957 E198.90932
G0 F3600 X86.169 Y93.523
G1 F1800 X106.475 Y113.829 E200.34202
G0 F3600 X105.909 Y113.829
G1 F1800 X86.169 Y94.089 E201.73478
G0 F3600 X86.169 Y94.654
G1 F1800 X105.344 Y113.829 E203.08768
G0 F3600 X104.778 Y113.829
G1 F1800 X86.169 Y95.22 E204.40064
G0 F3600 X86.169 Y95.786
G1 F1800 X104.212 Y113.829 E205.67368
G0 F3600 X103.647 Y113.829
G1 F1800 X86.169 Y96.351 E206.90684
G0 F3600 X86.169 Y96.917
G1 F1800 X103.081 Y113.829 E208.10008
G0 F3600 X102.515 Y113.829
G1 F1800 X86.169 Y97.483 E209.25337
G0 F3600 X86.169 Y98.048
G1 F1800 X101.949 Y113.829 E210.36677
G0 F3600 X101.384 Y113.829
G1 F1800 X86.169 Y98.614 E211.44027
G0 F3600 X86.169 Y99.18
G1 F1800 X100.818 Y113.829 E212.47384
G0 F3600 X100.252 Y113.829
G1 F1800 X86.169 Y99.745 E213.46751
G0 F3600 X86.169 Y100.311
G1 F1800 X99.687 Y113.829 E214.42127
G0 F3600 X99.121 Y113.829
G1 F1800 X86.169 Y100.877 E215.33511
G0 F3600 X86.169 Y101.442
G1 F1800 X98.555 Y113.829 E216.20904
G0 F3600 X97.99 Y113.829
G1 F1800 X86.169 Y102.008 E217.04308
G0 F3600 X86.169 Y102.574
G1 F1800 X97.424 Y113.829 E217.83718
G0 F3600 X96.858 Y113.829
G1 F1800 X86.169 Y103.14 E218.59135
G0 F3600 X86.169 Y103.705
G1 F1800 X96.293 Y113.829 E219.30565
G0 F3600 X95.727 Y113.829
G1 F1800 X86.169 Y104.271 E219.98002
G0 F3600 X86.169 Y104.837
G1 F1800 X95.161 Y113.829 E220.61445
G0 F3600 X94.596 Y113.829
G1 F1800 X86.169 Y105.402 E221.20902
G0 F3600 X86.169 Y105.968
G1 F1800 X94.03 Y113.829 E221.76366
G0 F3600 X93.464 Y113.829
G1 F1800 X86.169 Y106.534 E222.27836
G0 F3600 X86.169 Y107.099
G1 F1800 X92.898 Y113.829 E222.75316
G0 F3600 X92.333 Y113.829
G1 F1800 X86.169 Y107.665 E223.18807
G0 F3600 X86.169 Y108.231
G1 F1800 X91.767 Y113.829 E223.58303
G0 F3600 X91.201 Y113.829
G1 F1800 X86.169 Y108.796 E223.9381
G0 F3600 X86.169 Y109.362
G1 F1800 X90.636 Y113.829 E224.25328
G0 F3600 X90.07 Y113.829
G1 F1800 X86.169 Y109.928 E224.52851
G0 F3600 X86.169 Y110.493
G1 F1800 X89.504 Y113.829 E224.76385
G0 F3600 X88.939 Y113.829
G1 F1800 X86.169 Y111.059 E224.95929
G0 F3600 X86.169 Y111.625
G1 F1800 X88.373 Y113.829 E225.11479
G0 F3600 X87.807 Y113.829
G1 F1800 X86.169 Y112.19 E225.2304
G0 F3600 X86.169 Y112.756
G1 F1800 X87.242 Y113.829 E225.3061
G0 F3600 X86.676 Y113.829
G1 F1800 X86.169 Y113.322 E225.34188
G1 F1500 E218.84188
G0 F3600 X85.614 Y114.386
G0 X84.335 Y114.386
G0 X39.386 Y159.335
G0 X39.386 Y160.614
G0 X39.33 Y189.33
G0 X39.4 Y189.4
;TYPE:WALL-INNER
G1 F1500 E225.34188
G1 F1800 X10.6 Y189.4 E226.77871
G1 X10.6 Y160.6 E228.21555
G1 X39.4 Y160.6 E229.65239
G1 X39.4 Y189.4 E231.08923
G0 F3600 X39.8 Y189.8
;TYPE:WALL-OUTER
G1 F1800 X10.2 Y189.8 E232.56598
G1 X10.2 Y160.2 E234.04273
G1 X39.8 Y160.2 E235.51948
G1 X39.8 Y189.8 E236.99623
G0 F3600 X39.6 Y189.8
G0 X39.01 Y189.01
;TYPE:SKIN
G1 F1800 X10.99 Y189.01 E238.39415
G1 X10.99 Y160.99 E239.79207
G1 X39.01 Y160.99 E241.19
G1 X39.01 Y189.01 E242.58792
G0 F3600 X38.83 Y161.583
G1 F1800 X38.415 Y161.169 E242.61717
G0 F3600 X37.85 Y161.169
G1 F1800 X38.83 Y162.149 E242.68631
G0 F3600 X38.83 Y162.715
G1 F1800 X37.284 Y161.169 E242.79539
G0 F3600 X36.718 Y161.169
G1 F1800 X38.83 Y163.28 E242.94437
G0 F3600 X38.83 Y163.846
G1 F1800 X36.152 Y161.169 E243.13328
G0 F3600 X35.587 Y161.169
G1 F1800 X38.83 Y164.412 E243.36209
G0 F3600 X38.83 Y164.977
G1 F1800 X35.021 Y161.169 E243.6308
G0 F3600 X34.455 Y161.169
G1 F1800 X38.83 Y165.543 E243.93944
G0 F3600 X38.83 Y166.109
G1 F1800 X33.89 Y161.169 E244.28799
G0 F3600 X33.324 Y161.169
G1 F1800 X38.83 Y166.674 E244.67643
G0 F3600 X38.83 Y167.24
G1 F1800 X32.758 Y161.169 E245.10481
G0 F3600 X32.193 Y161.169
G1 F1800 X38.83 Y167.806 E245.57308
G0 F3600 X38.83 Y168.372
G1 F1800 X31.627 Y161.169 E246.08129
G0 F3600 X31.061 Y161.169
G1 F1800 X38.83 Y168.937 E246.6294
G0 F3600 X38.83 Y169.503
G1 F1800 X30.496 Y161.169 E247.21741
G0 F3600 X29.93 Y161.169
G1 F1800 X38.83 Y170.069 E247.84536
G0 F3600 X38.83 Y170.634
G1 F1800 X29.364 Y161.169 E248.5132
G0 F3600 X28.799 Y161.169
G1 F1800 X38.83 Y171.2 E249.22094
G0 F3600 X38.83 Y171.766
G1 F1800 X28.233 Y161.169 E249.96862
G0 F3600 X27.667 Y161.169
G1 F1800 X38.83 Y172.331 E250.75619
G0 F3600 X38.83 Y172.897
G1 F1800 X27.101 Y161.169 E251.5837
G0 F3600 X26.536 Y161.169
G1 F1800 X38.83 Y173.463 E252.45111
G0 F3600 X38.83 Y174.028
G1 F1800 X25.97 Y161.169 E253.35841
G0 F3600 X25.404 Y161.169
G1 F1800 X38.83 Y174.594 E254.30566
G0 F3600 X38.83 Y175.16
G1 F1800 X24.839 Y161.169 E255.2928
G0 F3600 X24.273 Y161.169
G1 F1800 X38.83 Y175.725 E256.31984
G0 F3600 X38.83 Y176.291
G1 F1800 X23.707 Y161.169 E257.38681
G0 F3600 X23.142 Y161.169
G1 F1800 X38.83 Y176.857 E258.49368
G0 F3600 X38.83 Y177.422
