;FLAVOR:Marlin
;TIME:7972
;Filament used: 5.84986m
;Layer height: 0.15
;MINX:39.93
;MINY:23.771
;MINZ:0.3
;MAXX:160.101
;MAXY:176.229
;MAXZ:21
;Generated with Cura_SteamEngine 4.8.0
M140 S60
M105
M190 S60
M104 S200
M105
M109 S200
M82 ;absolute extrusion mode
G21 ;metric values
 G90 ;absolute positioning
 M82 ;set extruder to absolute mode
 M107 ;start with the fan off
 G28 X0 Y0 ;move X/Y to min endstops
 G28 Z0 ;move Z to min endstops
 G1 Z15.0 F120 ;move the platform down 15mm
 G92 E0 ;zero the extruded length
 G1 F200 E6 ;extrude 6 mm of feed stock
 G92 E0 ;zero the extruded length again
 G1 F120 
;Put printing message on LCD screen
 M117 Printing...
G92 E0
G92 E0
G1 F1500 E-6.5
;LAYER_COUNT:139
;LAYER:0
M117 INDICATOR-Layer0
M107
G0 F3600 X42.22 Y27.108 Z0.3
;TYPE:SKIRT
G1 F1500 E0
G1 F1800 X42.704 Y26.484 E0.0394
G1 X43.248 Y25.912 E0.07878
G1 X43.848 Y25.399 E0.11816
G1 X44.497 Y24.948 E0.15759
G1 X45.187 Y24.565 E0.19697
G1 X45.913 Y24.255 E0.23635
G1 X46.667 Y24.019 E0.27577
G1 X47.441 Y23.86 E0.31519
G1 X48.226 Y23.781 E0.35455
G1 X48.64 Y23.771 E0.37521
G1 X54.34 Y23.788 E0.65959
G1 X55.129 Y23.83 E0.699
G1 X55.909 Y23.952 E0.73839
G1 X56.673 Y24.152 E0.77779
G1 X57.413 Y24.429 E0.81721
G1 X58.121 Y24.778 E0.85659
G1 X58.79 Y25.198 E0.896
G1 X59.413 Y25.683 E0.93539
G1 X59.799 Y26.052 E0.96203
G1 X60.271 Y25.949 E0.98614
G1 X61.49 Y25.721 E1.04801
G1 X61.914 Y25.654 E1.06942
G1 X63.132 Y25.495 E1.1307
G1 X63.556 Y25.451 E1.15197
G1 X64.79 Y25.358 E1.21371
G1 X65.218 Y25.338 E1.23509
G1 X66.454 Y25.313 E1.29676
G1 X66.883 Y25.316 E1.31817
G1 X68.121 Y25.359 E1.37997
G1 X68.549 Y25.385 E1.40136
G1 X69.782 Y25.496 E1.46312
G1 X70.211 Y25.547 E1.48468
G1 X71.436 Y25.726 E1.54644
G1 X71.856 Y25.799 E1.56771
G1 X73.071 Y26.045 E1.62956
G1 X73.496 Y26.144 E1.65133
G1 X74.693 Y26.457 E1.71305
G1 X75.105 Y26.577 E1.73446
G1 X76.285 Y26.956 E1.7963
G1 X76.691 Y27.098 E1.81775
G1 X77.847 Y27.541 E1.87952
G1 X78.238 Y27.704 E1.90065
G1 X79.368 Y28.209 E1.9624
G1 X79.757 Y28.396 E1.98393
G1 X80.766 Y28.915 E2.04054
G1 X81.127 Y29.026 E2.05939
G1 X81.854 Y29.332 E2.09874
G1 X82.548 Y29.71 E2.13816
G1 X82.943 Y29.97 E2.16176
G1 X153.478 Y79.36 E6.45769
G1 X154.101 Y79.845 E6.49708
G1 X154.672 Y80.39 E6.53646
G1 X155.185 Y80.991 E6.57589
G1 X155.246 Y81.079 E6.58123
G1 X155.706 Y81.539 E6.61368
G1 X156.178 Y82.054 E6.64854
G1 X156.618 Y82.578 E6.68267
G1 X157.042 Y83.131 E6.71744
G1 X157.428 Y83.683 E6.75104
G1 X157.803 Y84.271 E6.78584
G1 X158.142 Y84.857 E6.81961
G1 X158.466 Y85.478 E6.85456
G1 X158.755 Y86.095 E6.88855
G1 X159.022 Y86.738 E6.92328
G1 X159.262 Y87.401 E6.95846
G1 X159.47 Y88.066 E6.99322
G1 X159.637 Y88.689 E7.0254
G1 X159.79 Y89.372 E7.06032
G1 X159.912 Y90.057 E7.09503
G1 X160.003 Y90.747 E7.12976
G1 X160.063 Y91.433 E7.16411
G1 X160.093 Y92.132 E7.19902
G1 X160.1 Y92.466 E7.21568
G1 X160.101 Y168.429 E11.00549
G1 X160.061 Y169.218 E11.04491
G1 X159.942 Y169.998 E11.08427
G1 X159.744 Y170.763 E11.12369
G1 X159.47 Y171.503 E11.16306
G1 X159.122 Y172.212 E11.20247
G1 X158.705 Y172.883 E11.24188
G1 X158.221 Y173.507 E11.28128
G1 X157.678 Y174.08 E11.32066
G1 X157.079 Y174.595 E11.36007
G1 X156.431 Y175.046 E11.39946
G1 X155.741 Y175.43 E11.43886
G1 X155.015 Y175.742 E11.47828
G1 X154.262 Y175.979 E11.51767
G1 X153.488 Y176.138 E11.55709
G1 X152.703 Y176.219 E11.59646
G1 X152.301 Y176.229 E11.61652
G1 X150.397 Y176.229 E11.71151
G1 X149.709 Y176.199 E11.74587
G1 X149.359 Y176.168 E11.7634
G1 X148.577 Y176.058 E11.8028
G1 X148.012 Y175.928 E11.83172
G1 X147.679 Y175.838 E11.84893
G1 X146.928 Y175.593 E11.88834
G1 X146.395 Y175.367 E11.91723
G1 X146.348 Y175.345 E11.91981
G1 X146.237 Y175.396 E11.92591
G1 X145.504 Y175.69 E11.96531
G1 X144.949 Y175.858 E11.99424
G1 X144.613 Y175.946 E12.01157
G1 X143.84 Y176.107 E12.05096
G1 X143.304 Y176.171 E12.07789
G1 X142.966 Y176.2 E12.09482
G1 X142.299 Y176.229 E12.12813
G1 X139.7 Y176.229 E12.25779
G1 X138.911 Y176.189 E12.2972
G1 X138.131 Y176.07 E12.33657
G1 X137.366 Y175.872 E12.37599
G1 X136.626 Y175.598 E12.41536
G1 X135.917 Y175.25 E12.45476
G1 X135.246 Y174.832 E12.4942
G1 X134.622 Y174.349 E12.53357
G1 X134.049 Y173.806 E12.57296
G1 X133.534 Y173.207 E12.61237
G1 X133.083 Y172.559 E12.65176
G1 X132.699 Y171.868 E12.6912
G1 X132.387 Y171.143 E12.73057
G1 X132.15 Y170.39 E12.76996
G1 X131.991 Y169.616 E12.80938
G1 X131.91 Y168.831 E12.84875
G1 X131.9 Y168.429 E12.86881
G1 X131.9 Y106.034 E15.98171
G1 X131.909 Y105.654 E16.00067
G1 X131.955 Y104.713 E16.04768
G1 X131.948 Y103.985 E16.084
G1 X131.901 Y103.3 E16.11825
G1 X131.807 Y102.576 E16.15468
G1 X131.682 Y101.909 E16.18853
G1 X131.502 Y101.189 E16.22556
G1 X131.286 Y100.5 E16.26158
G1 X131.035 Y99.841 E16.29677
G1 X130.75 Y99.203 E16.33163
G1 X130.41 Y98.553 E16.36822
G1 X130.045 Y97.942 E16.40373
G1 X129.646 Y97.354 E16.43918
G1 X129.217 Y96.798 E16.47422
G1 X128.741 Y96.25 E16.51043
G1 X128.25 Y95.747 E16.5455
G1 X127.719 Y95.265 E16.58128
G1 X127.15 Y94.806 E16.61775
G1 X126.582 Y94.399 E16.65261
G1 X125.8 Y93.905 E16.69876
G1 X125.49 Y93.699 E16.71733
G1 X68.979 Y54.132 E20.15905
G1 X68.414 Y53.781 E20.19223
G1 X67.898 Y53.501 E20.22152
G1 X67.343 Y53.244 E20.25203
G1 X66.755 Y53.013 E20.28355
G1 X66.191 Y52.831 E20.31312
G1 X65.576 Y52.673 E20.3448
G1 X64.999 Y52.564 E20.37409
G1 X64.391 Y52.486 E20.40468
G1 X63.779 Y52.443 E20.43528
G1 X63.178 Y52.44 E20.46527
G1 X62.548 Y52.474 E20.49674
G1 X61.958 Y52.542 E20.52637
G1 X61.459 Y52.72 E20.55281
G1 X61.42 Y52.736 E20.55491
G1 X61.14 Y63.28 E21.08114
G1 X61.081 Y64.139 E21.12409
G1 X60.977 Y64.922 E21.1635
G1 X60.79 Y65.74 E21.20536
G1 X60.445 Y66.818 E21.26183
G1 X60.286 Y67.213 E21.28308
G1 X59.954 Y67.929 E21.32245
G1 X59.541 Y68.645 E21.36369
G1 X58.877 Y69.595 E21.42151
G1 X58.61 Y69.922 E21.44257
G1 X58.08 Y70.508 E21.48199
G1 X57.466 Y71.074 E21.52366
G1 X56.557 Y71.777 E21.58099
G1 X56.202 Y72.012 E21.60223
G1 X55.523 Y72.414 E21.64159
G1 X54.779 Y72.768 E21.6827
G1 X53.687 Y73.175 E21.74084
G1 X53.28 Y73.293 E21.76198
G1 X52.511 Y73.475 E21.80141
G1 X51.691 Y73.592 E21.84273
G1 X50.903 Y73.654 E21.88217
G1 X50.074 Y73.645 E21.92353
G1 X48.898 Y73.528 E21.98249
G1 X48.479 Y73.454 E22.00372
G1 X47.353 Y73.167 E22.06169
G1 X46.954 Y73.033 E22.08269
G1 X45.875 Y72.578 E22.14111
G1 X45.497 Y72.384 E22.16231
G1 X44.489 Y71.766 E22.2213
G1 X44.146 Y71.518 E22.24241
G1 X43.256 Y70.767 E22.30051
G1 X42.954 Y70.471 E22.32161
G1 X42.419 Y69.891 E22.36097
G1 X41.918 Y69.239 E22.402
G1 X41.477 Y68.584 E22.44139
G1 X41.079 Y67.861 E22.48257
G1 X40.616 Y66.815 E22.53963
G1 X40.473 Y66.415 E22.56083
G1 X40.245 Y65.659 E22.60022
G1 X40.079 Y64.85 E22.64142
G1 X39.969 Y64.068 E22.68082
G1 X39.939 Y63.499 E22.70925
G1 X39.93 Y62.936 E22.73734
G1 X39.946 Y62.302 E22.76898
G1 X40.755 Y49.931 E23.38749
G1 X40.793 Y48.48 E23.45991
G1 X40.817 Y31.56 E24.30405
G1 X40.858 Y30.771 E24.34347
G1 X40.979 Y29.991 E24.38285
G1 X41.178 Y29.227 E24.42223
G1 X41.453 Y28.487 E24.46162
G1 X41.801 Y27.778 E24.50102
G1 X42.22 Y27.108 E24.54045
G0 F3600 X42.617 Y27.239
G1 F1800 X43.099 Y26.64 E24.57881
G1 X43.641 Y26.094 E24.61719
G1 X44.236 Y25.607 E24.65555
G1 X44.879 Y25.184 E24.69395
G1 X45.562 Y24.831 E24.7323
G1 X46.278 Y24.55 E24.77068
G1 X47.02 Y24.345 E24.80908
G1 X47.778 Y24.219 E24.84742
G1 X48.639 Y24.171 E24.89044
G1 X54.339 Y24.188 E25.17482
G1 X55.107 Y24.23 E25.21319
G1 X55.867 Y24.352 E25.25159
G1 X56.609 Y24.552 E25.28993
G1 X57.327 Y24.828 E25.32831
G1 X58.013 Y25.177 E25.36671
G1 X58.658 Y25.595 E25.40505
G1 X59.257 Y26.078 E25.44344
G1 X59.675 Y26.495 E25.4729
G1 X60.345 Y26.342 E25.50719
G1 X61.564 Y26.114 E25.56906
G1 X61.966 Y26.05 E25.58937
G1 X63.184 Y25.891 E25.65065
G1 X63.586 Y25.85 E25.67081
G1 X64.82 Y25.757 E25.73255
G1 X65.226 Y25.738 E25.75282
G1 X66.462 Y25.713 E25.8145
G1 X66.869 Y25.715 E25.83481
G1 X68.107 Y25.758 E25.89661
G1 X68.513 Y25.784 E25.9169
G1 X69.746 Y25.895 E25.97867
G1 X70.153 Y25.943 E25.99911
G1 X71.378 Y26.122 E26.06088
G1 X71.776 Y26.191 E26.08103
G1 X72.991 Y26.437 E26.14288
G1 X73.395 Y26.531 E26.16357
G1 X74.592 Y26.844 E26.2253
G1 X74.983 Y26.957 E26.2456
G1 X76.163 Y27.336 E26.30744
G1 X76.548 Y27.472 E26.32781
G1 X77.704 Y27.915 E26.38957
G1 X78.075 Y28.069 E26.40961
G1 X79.205 Y28.574 E26.47136
G1 X79.574 Y28.751 E26.49178
G1 X80.588 Y29.273 E26.54868
G1 X81.233 Y29.495 E26.58271
G1 X81.931 Y29.819 E26.6211
G1 X82.714 Y30.297 E26.66687
G1 X153.249 Y79.687 E30.9628
G1 X153.855 Y80.161 E31.00119
G1 X154.409 Y80.694 E31.03954
G1 X154.904 Y81.283 E31.07793
G1 X154.956 Y81.354 E31.08232
G1 X155.411 Y81.809 E31.11442
G1 X155.883 Y82.324 E31.14927
G1 X156.301 Y82.821 E31.18167
G1 X156.725 Y83.374 E31.21644
G1 X157.091 Y83.898 E31.24832
G1 X157.466 Y84.486 E31.28312
G1 X157.788 Y85.042 E31.31517
G1 X158.112 Y85.663 E31.35012
G1 X158.385 Y86.248 E31.38233
G1 X158.652 Y86.891 E31.41706
G1 X158.881 Y87.52 E31.45046
G1 X159.089 Y88.185 E31.48522
G1 X159.247 Y88.776 E31.51574
G1 X159.4 Y89.459 E31.55066
G1 X159.515 Y90.109 E31.58359
G1 X159.606 Y90.799 E31.61831
G1 X159.663 Y91.45 E31.65092
G1 X159.693 Y92.149 E31.68582
G1 X159.7 Y92.466 E31.70164
G1 X159.701 Y168.429 E35.49145
G1 X159.661 Y169.197 E35.52982
G1 X159.542 Y169.957 E35.5682
G1 X159.344 Y170.7 E35.60656
G1 X159.07 Y171.419 E35.64495
G1 X158.723 Y172.105 E35.6833
G1 X158.307 Y172.752 E35.72168
G1 X157.826 Y173.352 E35.76004
G1 X157.285 Y173.899 E35.79842
G1 X156.69 Y174.387 E35.83682
G1 X156.048 Y174.81 E35.87517
G1 X155.365 Y175.165 E35.91358
G1 X154.65 Y175.446 E35.9519
G1 X153.909 Y175.652 E35.99027
G1 X153.15 Y175.78 E36.02867
G1 X152.301 Y175.829 E36.0711
G1 X150.397 Y175.829 E36.16609
G1 X149.744 Y175.8 E36.1987
G1 X149.394 Y175.769 E36.21623
G1 X148.633 Y175.662 E36.25457
G1 X148.116 Y175.542 E36.28105
G1 X147.783 Y175.452 E36.29826
G1 X147.052 Y175.213 E36.33663
G1 X146.565 Y175.005 E36.36305
G1 X146.35 Y174.904 E36.3749
G1 X146.07 Y175.033 E36.39028
G1 X145.356 Y175.318 E36.42864
G1 X144.848 Y175.471 E36.45511
G1 X144.512 Y175.559 E36.47243
G1 X143.759 Y175.714 E36.51079
G1 X142.932 Y175.802 E36.55228
G1 X142.299 Y175.829 E36.58389
G1 X139.7 Y175.829 E36.71356
G1 X138.932 Y175.789 E36.75192
G1 X138.172 Y175.67 E36.7903
G1 X137.429 Y175.472 E36.82866
G1 X136.71 Y175.198 E36.86705
G1 X136.024 Y174.851 E36.9054
G1 X135.377 Y174.435 E36.94378
G1 X134.777 Y173.954 E36.98215
G1 X134.23 Y173.413 E37.02053
G1 X133.742 Y172.818 E37.05892
G1 X133.319 Y172.176 E37.09728
G1 X132.964 Y171.493 E37.13568
G1 X132.683 Y170.778 E37.17401
G1 X132.477 Y170.036 E37.21243
G1 X132.349 Y169.278 E37.25078
G1 X132.3 Y168.429 E37.29321
G1 X132.3 Y106.034 E40.40611
G1 X132.309 Y105.674 E40.42407
G1 X132.355 Y104.729 E40.47127
G1 X132.348 Y103.97 E40.50914
G1 X132.298 Y103.253 E40.545
G1 X132.204 Y102.521 E40.58182
G1 X132.073 Y101.823 E40.61725
G1 X131.885 Y101.073 E40.65583
G1 X131.671 Y100.389 E40.69158
G1 X131.398 Y99.671 E40.7299
G1 X131.109 Y99.026 E40.76517
G1 X130.759 Y98.355 E40.80292
G1 X130.39 Y97.738 E40.83879
G1 X129.968 Y97.117 E40.87625
G1 X129.527 Y96.545 E40.91228
G1 X129.03 Y95.973 E40.95009
G1 X128.532 Y95.463 E40.98565
G1 X127.973 Y94.956 E41.0233
G1 X127.4 Y94.493 E41.06005
G1 X126.811 Y94.071 E41.0962
G1 X126.013 Y93.567 E41.14329
G1 X125.72 Y93.372 E41.16085
G1 X69.194 Y53.794 E44.60349
G1 X68.623 Y53.44 E44.63701
G1 X68.072 Y53.14 E44.66831
G1 X67.492 Y52.872 E44.70019
G1 X66.898 Y52.639 E44.73202
G1 X66.297 Y52.445 E44.76353
G1 X65.671 Y52.284 E44.79578
G1 X65.053 Y52.167 E44.82716
G1 X64.438 Y52.088 E44.85809
G1 X63.792 Y52.043 E44.8904
G1 X63.159 Y52.039 E44.92198
G1 X62.529 Y52.074 E44.95346
G1 X61.904 Y52.146 E44.98484
G1 X61.766 Y52.171 E44.99184
G1 X61.288 Y52.357 E45.01743
G1 X61.027 Y52.463 E45.03149
G1 X60.74 Y63.27 E45.57084
G1 X60.683 Y64.106 E45.61264
G1 X60.5 Y65.237 E45.6698
G1 X60.401 Y65.646 E45.6908
G1 X60.074 Y66.668 E45.74433
G1 X59.915 Y67.063 E45.76558
G1 X59.412 Y68.079 E45.82214
G1 X59.197 Y68.441 E45.84314
G1 X58.567 Y69.342 E45.89799
G1 X58.3 Y69.669 E45.91905
G1 X57.514 Y70.493 E45.97587
G1 X57.198 Y70.777 E45.99706
G1 X56.337 Y71.444 E46.0514
G1 X55.982 Y71.679 E46.07264
G1 X54.994 Y72.229 E46.12905
G1 X54.612 Y72.405 E46.15004
G1 X53.576 Y72.791 E46.20519
G1 X53.169 Y72.909 E46.22634
G1 X52.062 Y73.14 E46.28275
G1 X51.639 Y73.195 E46.30404
G1 X50.513 Y73.255 E46.36029
G1 X50.083 Y73.245 E46.38175
G1 X48.968 Y73.134 E46.43765
G1 X48.549 Y73.06 E46.45888
G1 X47.48 Y72.788 E46.51391
G1 X47.081 Y72.654 E46.53491
G1 X46.058 Y72.223 E46.59029
G1 X45.68 Y72.029 E46.61149
G1 X44.723 Y71.442 E46.6675
G1 X44.38 Y71.194 E46.68862
G1 X43.536 Y70.482 E46.74371
G1 X43.234 Y70.186 E46.7648
G1 X42.492 Y69.338 E46.82102
G1 X42.238 Y68.999 E46.84215
G1 X41.631 Y68.045 E46.89857
G1 X41.432 Y67.672 E46.91966
G1 X40.993 Y66.68 E46.97378
G1 X40.85 Y66.28 E46.99497
G1 X40.552 Y65.19 E47.05135
G1 X40.472 Y64.775 E47.07243
G1 X40.366 Y64.013 E47.11082
G1 X40.339 Y63.492 E47.13684
G1 X40.33 Y62.929 E47.16494
G1 X40.345 Y62.328 E47.19493
G1 X40.997 Y52.365 E47.69305
G1 X41.012 Y52.173 E47.70266
G1 X41.153 Y49.993 E47.81164
G1 X41.193 Y48.45 E47.88865
G1 X41.217 Y31.561 E48.73125
G1 X41.258 Y30.792 E48.76967
G1 X41.379 Y30.033 E48.80801
G1 X41.577 Y29.29 E48.84637
G1 X41.852 Y28.571 E48.88478
G1 X42.2 Y27.885 E48.92316
G1 X42.617 Y27.239 E48.96152
G0 F3600 X43.015 Y27.374
G1 F1800 X43.494 Y26.8 E48.99881
G1 X44.033 Y26.281 E49.03615
G1 X44.623 Y25.822 E49.07344
G1 X45.26 Y25.429 E49.11078
G1 X45.934 Y25.105 E49.14809
G1 X46.64 Y24.856 E49.18544
G1 X47.368 Y24.683 E49.22277
G1 X48.11 Y24.589 E49.26008
G1 X48.638 Y24.571 E49.28644
G1 X54.338 Y24.588 E49.57082
G1 X55.085 Y24.63 E49.60814
G1 X55.823 Y24.752 E49.64546
G1 X56.544 Y24.952 E49.68279
G1 X57.239 Y25.227 E49.72008
G1 X57.901 Y25.575 E49.75739
G1 X58.523 Y25.992 E49.79475
G1 X59.096 Y26.473 E49.83208
G1 X59.543 Y26.938 E49.86426
G1 X60.038 Y26.817 E49.88968
G1 X60.418 Y26.735 E49.90908
G1 X61.637 Y26.507 E49.97095
G1 X62.018 Y26.447 E49.99019
G1 X63.236 Y26.288 E50.05147
G1 X63.616 Y26.249 E50.07053
G1 X64.85 Y26.156 E50.13227
G1 X65.234 Y26.137 E50.15145
G1 X66.47 Y26.112 E50.21313
G1 X66.855 Y26.115 E50.23233
G1 X68.093 Y26.158 E50.29414
G1 X68.478 Y26.182 E50.31338
G1 X69.711 Y26.293 E50.37514
G1 X70.095 Y26.339 E50.39444
G1 X71.32 Y26.518 E50.4562
G1 X71.697 Y26.583 E50.47529
G1 X72.912 Y26.829 E50.53714
G1 X73.294 Y26.918 E50.5567
G1 X74.491 Y27.231 E50.61843
G1 X74.861 Y27.338 E50.63765
G1 X76.041 Y27.717 E50.69948
G1 X76.405 Y27.846 E50.71875
G1 X77.561 Y28.289 E50.78051
G1 X77.912 Y28.434 E50.79946
G1 X79.042 Y28.939 E50.8612
G1 X79.391 Y29.107 E50.88053
G1 X80.452 Y29.654 E50.94008
G1 X80.631 Y29.701 E50.94932
G1 X81.329 Y29.97 E50.98664
G1 X81.995 Y30.312 E51.02399
G1 X82.484 Y30.625 E51.05295
G1 X153.019 Y80.015 E55.34889
G1 X153.608 Y80.476 E55.38621
G1 X154.144 Y80.998 E55.42353
G1 X154.622 Y81.573 E55.46084
G1 X154.686 Y81.649 E55.4658
G1 X155.116 Y82.079 E55.49613
G1 X155.588 Y82.594 E55.53099
G1 X155.983 Y83.065 E55.56165
G1 X156.407 Y83.618 E55.59642
G1 X156.754 Y84.113 E55.62658
G1 X157.129 Y84.701 E55.66137
G1 X157.433 Y85.227 E55.69168
G1 X157.757 Y85.848 E55.72663
G1 X158.016 Y86.402 E55.75714
G1 X158.283 Y87.045 E55.79187
G1 X158.499 Y87.639 E55.82341
G1 X158.707 Y88.304 E55.85817
G1 X158.857 Y88.864 E55.88709
G1 X159.01 Y89.547 E55.92201
G1 X159.119 Y90.162 E55.95317
G1 X159.21 Y90.852 E55.98789
G1 X159.264 Y91.467 E56.01869
G1 X159.294 Y92.166 E56.0536
G1 X159.3 Y92.466 E56.06857
G1 X159.301 Y168.429 E59.85838
G1 X159.261 Y169.176 E59.8957
G1 X159.142 Y169.914 E59.933
G1 X158.944 Y170.636 E59.97035
G1 X158.671 Y171.332 E60.00765
G1 X158.324 Y171.995 E60.04498
G1 X157.909 Y172.618 E60.08233
G1 X157.43 Y173.192 E60.11962
G1 X156.893 Y173.712 E60.15692
G1 X156.303 Y174.172 E60.19424
G1 X155.667 Y174.567 E60.23159
G1 X154.993 Y174.891 E60.2689
G1 X154.288 Y175.141 E60.30622
G1 X153.56 Y175.315 E60.34356
G1 X152.818 Y175.41 E60.38088
G1 X152.301 Y175.429 E60.4067
G1 X150.397 Y175.429 E60.50169
G1 X149.779 Y175.402 E60.53255
G1 X149.429 Y175.371 E60.55008
