;FLAVOR:Marlin
;TIME:1525
;Filament used: 1.30954m
;Layer height: 0.2
;MINX:84.954
;MINY:84.923
;MINZ:0.3
;MAXX:115.046
;MAXY:115.076
;MAXZ:9.1
;Generated with Cura_SteamEngine 4.8.0
M140 S60
M105
M190 S60
M104 S215
M105
M109 S215
M82 ;absolute extrusion mode
G21 ;metric values
 G90 ;absolute positioning
 M82 ;set extruder to absolute mode
 M107 ;start with the fan off
 G28 X0 Y0 ;move X/Y to min endstops
 G28 Z0 ;move Z to min endstops
 G1 Z15.0 F120 ;move the platform down 15mm
 G92 E0 ;zero the extruded length
 G1 F200 E6 ;extrude 6 mm of feed stock
 G92 E0 ;zero the extruded length again
 G1 F120 
;Put printing message on LCD screen
 M117 Printing...
G92 E0
G92 E0
G1 F1500 E-6.5
;LAYER_COUNT:45
;LAYER:0
M117 INDICATOR-Layer0
M107
;MESH:ghost_v1.stl
G0 F3600 X97.217 Y89.894 Z0.3
;TYPE:WALL-INNER
G1 F1500 E0
G1 F1800 X102.757 Y89.894 E0.27639
G1 X102.757 Y85.767 E0.48229
G1 X105.904 Y85.767 E0.63929
G1 X105.904 Y87.525 E0.727
G1 X107.993 Y87.525 E0.83122
G1 X107.993 Y89.708 E0.94013
G1 X111.415 Y89.708 E1.11086
G1 X111.415 Y87.65 E1.21353
G1 X113.638 Y87.65 E1.32444
G1 X113.638 Y85.349 E1.43923
G1 X114.646 Y85.349 E1.48952
G1 X114.646 Y101.75 E2.30777
G1 X112.405 Y101.75 E2.41958
G1 X112.405 Y108.095 E2.73613
G1 X110.253 Y108.095 E2.84349
G1 X110.253 Y110.205 E2.94876
G1 X107.971 Y110.205 E3.06261
G1 X107.971 Y112.431 E3.17367
G1 X103.716 Y112.431 E3.38595
G1 X103.716 Y114.473 E3.48782
G1 X103.716 Y114.474 E3.48787
G1 X103.716 Y114.674 E3.49785
G1 X103.516 Y114.674 E3.50431
G1 X103.515 Y114.673 E3.50438
G1 X96.354 Y114.632 E3.86165
G1 X96.354 Y112.429 E3.97156
G1 X91.954 Y112.429 E4.19108
G1 X91.954 Y110.229 E4.30084
G1 X89.754 Y110.229 E4.41059
G1 X89.754 Y108.266 E4.50853
G1 X87.57 Y108.266 E4.61749
G1 X87.503 Y104.192 E4.82077
G1 X87.502 Y104.191 E4.82084
G1 X87.5 Y103.989 E4.83092
G1 X87.702 Y103.989 E4.83742
G1 X87.703 Y103.989 E4.83747
G1 X91.974 Y103.989 E5.05055
G1 X91.974 Y98.389 E5.32993
G1 X86.594 Y98.389 E5.59834
G1 X86.594 Y101.63 E5.76004
G1 X85.354 Y101.63 E5.8219
G1 X85.354 Y85.579 E6.62269
G1 X86.27 Y85.579 E6.66839
G1 X86.27 Y87.229 E6.75071
G1 X88.554 Y87.229 E6.86466
G1 X88.554 Y89.671 E6.98649
G1 X91.818 Y89.671 E7.14933
G1 X91.818 Y87.523 E7.25649
G1 X94.036 Y87.523 E7.36715
G1 X94.036 Y85.323 E7.47691
G1 X97.217 Y85.323 E7.63561
G1 X97.217 Y89.894 E7.86366
G0 F3600 X100.049 Y98.389
G1 F1800 X100.049 Y103.989 E8.14304
G1 X105.429 Y103.989 E8.41145
G1 X105.429 Y98.389 E8.69084
G1 X100.049 Y98.389 E8.95925
G0 F3600 X100.449 Y98.789
;TYPE:WALL-OUTER
G1 F1800 X100.449 Y103.589 E9.19872
G1 X105.029 Y103.589 E9.42722
G1 X105.029 Y98.789 E9.66669
G1 X100.449 Y98.789 E9.89519
G0 F3600 X100.449 Y98.989
G0 X100.149 Y98.989
G0 X97.317 Y89.494
G0 X97.617 Y89.494
G1 F1800 X102.357 Y89.494 E10.13167
G1 X102.357 Y85.367 E10.33756
G1 X106.304 Y85.367 E10.53448
G1 X106.304 Y87.125 E10.62219
G1 X108.393 Y87.125 E10.72641
G1 X108.393 Y89.308 E10.83532
G1 X111.015 Y89.308 E10.96613
G1 X111.015 Y87.25 E11.0688
G1 X113.238 Y87.25 E11.17971
G1 X113.238 Y84.949 E11.29451
G1 X115.046 Y84.949 E11.38471
G1 X115.046 Y102.15 E12.24287
G1 X112.805 Y102.15 E12.35467
G1 X112.805 Y108.495 E12.67123
G1 X110.653 Y108.495 E12.77859
G1 X110.653 Y110.605 E12.88386
G1 X108.371 Y110.605 E12.99771
G1 X108.371 Y112.831 E13.10876
G1 X104.116 Y112.831 E13.32105
G1 X104.116 Y114.875 E13.42302
G1 X104.116 Y114.876 E13.42307
G1 X104.116 Y115.076 E13.43305
G1 X103.916 Y115.076 E13.43951
G1 X103.915 Y115.075 E13.43958
G1 X95.954 Y115.03 E13.83676
G1 X95.954 Y112.829 E13.94657
G1 X91.554 Y112.829 E14.16609
G1 X91.554 Y110.629 E14.27585
G1 X89.354 Y110.629 E14.38561
G1 X89.354 Y108.666 E14.48354
G1 X87.177 Y108.666 E14.59215
G1 X87.096 Y103.792 E14.83535
G1 X87.095 Y103.791 E14.83542
G1 X87.093 Y103.589 E14.8455
G1 X87.295 Y103.589 E14.852
G1 X87.296 Y103.589 E14.85205
G1 X91.574 Y103.589 E15.06548
G1 X91.574 Y98.789 E15.30495
G1 X86.994 Y98.789 E15.53345
G1 X86.994 Y102.03 E15.69514
G1 X84.954 Y102.03 E15.79692
G1 X84.954 Y85.179 E16.63762
G1 X86.67 Y85.179 E16.72323
G1 X86.67 Y86.829 E16.80555
G1 X88.954 Y86.829 E16.9195
G1 X88.954 Y89.271 E17.04133
G1 X91.418 Y89.271 E17.16426
G1 X91.418 Y87.123 E17.27142
G1 X93.636 Y87.123 E17.38208
G1 X93.636 Y84.923 E17.49184
G1 X97.617 Y84.923 E17.69045
G1 X97.617 Y89.494 E17.9185
G0 F3600 X97.817 Y89.494
G0 X97.817 Y89.794
G0 X96.827 Y90.284
;TYPE:SKIN
G1 F1800 X103.147 Y90.284 E18.2338
G1 X103.147 Y86.157 E18.4397
G1 X105.514 Y86.157 E18.55779
G1 X105.514 Y87.915 E18.6455
G1 X107.603 Y87.915 E18.74972
G1 X107.603 Y90.098 E18.85863
G1 X111.805 Y90.098 E19.06827
G1 X111.805 Y88.04 E19.17094
G1 X114.028 Y88.04 E19.28185
G1 X114.028 Y85.739 E19.39664
G1 X114.256 Y85.739 E19.40802
G1 X114.256 Y101.36 E20.18735
G1 X112.015 Y101.36 E20.29916
G1 X112.015 Y107.705 E20.61571
G1 X109.863 Y107.705 E20.72308
G1 X109.863 Y109.815 E20.82834
G1 X107.581 Y109.815 E20.94219
G1 X107.581 Y112.041 E21.05325
G1 X103.326 Y112.041 E21.26553
G1 X103.326 Y114.282 E21.37734
G1 X96.744 Y114.244 E21.70572
G1 X96.744 Y112.039 E21.81573
G1 X92.344 Y112.039 E22.03524
G1 X92.344 Y109.839 E22.145
G1 X90.144 Y109.839 E22.25476
G1 X90.144 Y107.876 E22.35269
G1 X87.954 Y107.876 E22.46195
G1 X87.896 Y104.379 E22.63644
G1 X92.364 Y104.379 E22.85935
G1 X92.364 Y97.999 E23.17765
G1 X86.204 Y97.999 E23.48498
G1 X86.204 Y101.24 E23.64667
G1 X85.744 Y101.24 E23.66962
G1 X85.744 Y85.969 E24.43149
G1 X85.88 Y85.969 E24.43828
G1 X85.88 Y87.619 E24.5206
G1 X88.164 Y87.619 E24.63455
G1 X88.164 Y90.061 E24.75638
G1 X92.208 Y90.061 E24.95813
G1 X92.208 Y87.913 E25.0653
G1 X94.426 Y87.913 E25.17596
G1 X94.426 Y85.713 E25.28571
G1 X96.827 Y85.713 E25.4055
G1 X96.827 Y90.284 E25.63355
G0 F3600 X99.659 Y97.999
G1 F1800 X99.659 Y104.379 E25.95185
G1 X105.819 Y104.379 E26.25917
G1 X105.819 Y97.999 E26.57747
G1 X99.659 Y97.999 E26.88479
G0 F3600 X88.461 Y107.695
G1 F1800 X88.125 Y107.358 E26.90854
G0 F3600 X88.115 Y106.783
G1 F1800 X89.027 Y107.695 E26.97288
G0 F3600 X89.593 Y107.695
G1 F1800 X88.105 Y106.207 E27.07787
G0 F3600 X88.096 Y105.632
G1 F1800 X90.158 Y107.695 E27.22339
G0 F3600 X90.324 Y107.86
G1 F1800 X92.121 Y109.658 E27.35021
G0 F3600 X91.556 Y109.658
G1 F1800 X90.324 Y108.426 E27.43714
G0 F3600 X90.324 Y108.992
G1 F1800 X90.99 Y109.658 E27.48413
G0 F3600 X90.424 Y109.658
G1 F1800 X90.324 Y109.557 E27.49122
G0 F3600 X92.523 Y110.059
G1 F1800 X94.321 Y111.857 E27.61808
G0 F3600 X93.755 Y111.857
G1 F1800 X92.523 Y110.625 E27.705
G0 F3600 X92.523 Y111.191
G1 F1800 X93.19 Y111.857 E27.75203
G0 F3600 X92.624 Y111.857
G1 F1800 X92.523 Y111.756 E27.75915
G0 F3600 X94.887 Y111.857
G1 F1800 X88.086 Y105.056 E28.239
G0 F3600 X88.153 Y104.558
G1 F1800 X95.453 Y111.857 E28.75402
G0 F3600 X96.018 Y111.857
G1 F1800 X88.719 Y104.558 E29.269
G0 F3600 X89.284 Y104.558
G1 F1800 X96.584 Y111.857 E29.78402
G0 F3600 X96.923 Y112.197
G1 F1800 X98.801 Y114.074 E29.91649
G0 F3600 X99.37 Y114.078
G1 F1800 X89.85 Y104.558 E30.58818
G0 F3600 X90.416 Y104.558
G1 F1800 X99.938 Y114.081 E31.26004
G0 F3600 X100.508 Y114.084
G1 F1800 X90.982 Y104.558 E31.93215
G0 F3600 X91.547 Y104.558
G1 F1800 X101.077 Y114.088 E32.60454
G0 F3600 X101.645 Y114.09
G1 F1800 X92.113 Y104.558 E33.27708
G0 F3600 X92.544 Y104.423
G1 F1800 X102.215 Y114.094 E33.95942
G0 F3600 X102.784 Y114.098
G1 F1800 X92.544 Y103.857 E34.68194
G0 F3600 X92.544 Y103.292
G1 F1800 X103.145 Y113.893 E35.4299
G0 F3600 X103.145 Y113.328
G1 F1800 X92.544 Y102.726 E36.17789
G0 F3600 X92.544 Y102.16
G1 F1800 X103.145 Y112.762 E36.92589
G0 F3600 X103.145 Y112.196
G1 F1800 X92.544 Y101.594 E37.67388
G0 F3600 X92.544 Y101.029
G1 F1800 X103.374 Y111.86 E38.43803
G0 F3600 X103.94 Y111.86
G1 F1800 X92.544 Y100.463 E39.24211
G0 F3600 X92.544 Y99.897
G1 F1800 X104.506 Y111.86 E40.08613
G0 F3600 X105.071 Y111.86
G1 F1800 X92.544 Y99.332 E40.97002
G0 F3600 X92.544 Y98.766
G1 F1800 X105.637 Y111.86 E41.89383
G0 F3600 X106.203 Y111.86
G1 F1800 X92.544 Y98.2 E42.85758
G0 F3600 X92.16 Y97.817
G1 F1800 X85.924 Y91.58 E43.2976
G0 F3600 X85.924 Y91.015
G1 F1800 X106.768 Y111.86 E44.7683
G0 F3600 X107.334 Y111.86
G1 F1800 X100.032 Y104.558 E45.28349
G0 F3600 X100.598 Y104.558
G1 F1800 X107.401 Y111.36 E45.76344
G0 F3600 X107.401 Y110.795
G1 F1800 X101.164 Y104.558 E46.2035
G0 F3600 X101.73 Y104.558
G1 F1800 X107.401 Y110.229 E46.60362
G0 F3600 X107.401 Y109.663
G1 F1800 X102.295 Y104.558 E46.96384
G0 F3600 X102.861 Y104.558
G1 F1800 X107.937 Y109.634 E47.32198
G0 F3600 X108.502 Y109.634
G1 F1800 X103.427 Y104.558 E47.68008
G0 F3600 X103.992 Y104.558
G1 F1800 X109.069 Y109.634 E48.03826
G0 F3600 X109.634 Y109.634
G1 F1800 X104.558 Y104.558 E48.3964
G0 F3600 X105.124 Y104.558
G1 F1800 X109.682 Y109.116 E48.71799
G0 F3600 X109.682 Y108.55
G1 F1800 X105.689 Y104.558 E48.99968
G0 F3600 X105.998 Y104.301
G1 F1800 X109.682 Y107.985 E49.25961
G0 F3600 X109.787 Y107.524
G1 F1800 X105.998 Y103.735 E49.52694
G0 F3600 X105.998 Y103.169
G1 F1800 X110.353 Y107.524 E49.83421
G0 F3600 X110.918 Y107.524
G1 F1800 X105.998 Y102.604 E50.18134
G0 F3600 X105.998 Y102.038
G1 F1800 X111.484 Y107.524 E50.56841
G0 F3600 X111.834 Y107.309
G1 F1800 X105.998 Y101.472 E50.9802
G0 F3600 X105.998 Y100.906
G1 F1800 X111.834 Y106.743 E51.392
G0 F3600 X111.834 Y106.177
G1 F1800 X105.998 Y100.341 E51.80376
G0 F3600 X105.998 Y99.775
G1 F1800 X111.834 Y105.612 E52.21556
G0 F3600 X111.834 Y105.046
G1 F1800 X105.998 Y99.209 E52.62736
G0 F3600 X105.998 Y98.644
G1 F1800 X111.834 Y104.48 E53.03912
G0 F3600 X111.834 Y103.914
G1 F1800 X105.998 Y98.078 E53.45088
G0 F3600 X105.738 Y97.819
G1 F1800 X98.383 Y90.463 E53.96985
G0 F3600 X98.948 Y90.463
G1 F1800 X111.834 Y103.349 E54.87903
G0 F3600 X111.834 Y102.783
G1 F1800 X99.514 Y90.463 E55.74827
G0 F3600 X100.08 Y90.463
G1 F1800 X111.834 Y102.217 E56.57758
G0 F3600 X111.834 Y101.652
G1 F1800 X100.646 Y90.463 E57.36699
G0 F3600 X101.211 Y90.463
G1 F1800 X111.927 Y101.179 E58.12306
G0 F3600 X112.493 Y101.179
G1 F1800 X101.777 Y90.463 E58.87913
G0 F3600 X102.343 Y90.463
G1 F1800 X113.059 Y101.179 E59.6352
G0 F3600 X113.624 Y101.179
G1 F1800 X102.908 Y90.463 E60.39127
G0 F3600 X103.325 Y90.315
G1 F1800 X114.074 Y101.063 E61.14964
G0 F3600 X114.074 Y100.498
G1 F1800 X103.325 Y89.749 E61.90804
G0 F3600 X103.325 Y89.183
G1 F1800 X114.074 Y99.932 E62.66644
G0 F3600 X114.074 Y99.366
G1 F1800 X103.325 Y88.618 E63.4248
G0 F3600 X103.325 Y88.052
G1 F1800 X114.074 Y98.801 E64.1832
G0 F3600 X114.074 Y98.235
G1 F1800 X103.325 Y87.486 E64.9416
G0 F3600 X103.325 Y86.921
G1 F1800 X114.074 Y97.669 E65.69997
G0 F3600 X114.074 Y97.104
G1 F1800 X103.325 Y86.355 E66.45837
G0 F3600 X103.873 Y86.337
G1 F1800 X105.332 Y87.796 E66.56131
G0 F3600 X105.631 Y88.095
G1 F1800 X107.422 Y89.885 E66.68764
G0 F3600 X107.813 Y90.277
G1 F1800 X114.074 Y96.538 E67.12938
G0 F3600 X114.074 Y95.972
G1 F1800 X108.379 Y90.277 E67.5312
G0 F3600 X108.945 Y90.277
G1 F1800 X114.074 Y95.407 E67.89311
G0 F3600 X114.074 Y94.841
G1 F1800 X109.511 Y90.277 E68.21509
G0 F3600 X110.076 Y90.277
G1 F1800 X114.074 Y94.275 E68.49717
G0 F3600 X114.074 Y93.71
G1 F1800 X110.642 Y90.277 E68.73935
G0 F3600 X111.208 Y90.277
G1 F1800 X114.074 Y93.144 E68.9416
G0 F3600 X114.074 Y92.578
G1 F1800 X111.773 Y90.277 E69.10395
G0 F3600 X111.984 Y89.922
G1 F1800 X114.074 Y92.012 E69.25141
G0 F3600 X114.074 Y91.447
G1 F1800 X111.984 Y89.357 E69.39887
G0 F3600 X111.984 Y88.791
G1 F1800 X114.074 Y90.881 E69.54633
G0 F3600 X114.074 Y90.315
G1 F1800 X111.984 Y88.225 E69.69379
G0 F3600 X112.544 Y88.22
G1 F1800 X114.074 Y89.75 E69.80174
G0 F3600 X114.074 Y89.184
G1 F1800 X113.11 Y88.22 E69.86976
G0 F3600 X113.675 Y88.22
G1 F1800 X114.074 Y88.618 E69.89787
G0 F3600 X111.243 Y89.536
G0 X108.165 Y89.536
G0 X107.422 Y88.754
G1 F1800 X106.763 Y88.095 E69.94437
G0 F3600 X107.328 Y88.095
G1 F1800 X107.422 Y88.188 E69.95096
G0 F3600 X107.422 Y89.32
G1 F1800 X106.197 Y88.095 E70.0374
G1 X106.127 Y88.025
G0 F3600 X105.332 Y87.23
G1 F1800 X104.438 Y86.337 E70.10044
G0 F3600 X105.004 Y86.337
G1 F1800 X105.332 Y86.665 E70.12358
G0 F3600 X102.585 Y89.722
G0 X97.817 Y90.463
G1 F1800 X105.172 Y97.819 E70.64255
G0 F3600 X104.607 Y97.819
G1 F1800 X97.251 Y90.463 E71.16155
G0 F3600 X96.686 Y90.463
G1 F1800 X104.041 Y97.819 E71.68052
G0 F3600 X103.475 Y97.819
G1 F1800 X93.749 Y88.092 E72.36678
G0 F3600 X93.183 Y88.092
G1 F1800 X102.91 Y97.819 E73.05307
G0 F3600 X102.344 Y97.819
G1 F1800 X92.618 Y88.092 E73.73933
G0 F3600 X92.387 Y88.427
G1 F1800 X101.778 Y97.819 E74.40195
G0 F3600 X101.213 Y97.819
G1 F1800 X92.387 Y88.993 E75.02467
G0 F3600 X92.387 Y89.559
G1 F1800 X100.647 Y97.819 E75.60746
G0 F3600 X100.081 Y97.819
G1 F1800 X92.387 Y90.125 E76.15032
G0 F3600 X91.938 Y90.24
G1 F1800 X99.516 Y97.819 E76.68502
G0 F3600 X99.478 Y98.347
G1 F1800 X91.372 Y90.24 E77.25698
G0 F3600 X90.806 Y90.24
G1 F1800 X99.478 Y98.912 E77.86883
G0 F3600 X99.478 Y99.478
G1 F1800 X90.24 Y90.24 E78.52062
G0 F3600 X89.675 Y90.24
G1 F1800 X99.478 Y100.044 E79.21231
G0 F3600 X99.478 Y100.609
G1 F1800 X89.109 Y90.24 E79.9439
G0 F3600 X88.543 Y90.24
G1 F1800 X99.478 Y101.175 E80.71543
G0 F3600 X99.478 Y101.741
G1 F1800 X85.924 Y88.186 E81.67177
G0 F3600 X86.101 Y87.798
G1 F1800 X87.984 Y89.681 E81.80462
G0 F3600 X87.984 Y89.115
G1 F1800 X86.667 Y87.798 E81.89755
G0 F3600 X87.233 Y87.799
G1 F1800 X87.983 Y88.549 E81.95046
G0 F3600 X87.983 Y87.983
G1 F1800 X87.799 Y87.799 E81.96345
G0 F3600 X85.924 Y88.752
G1 F1800 X99.478 Y102.307 E82.91979
G0 F3600 X99.478 Y102.872
G1 F1800 X85.924 Y89.318 E83.8761
G0 F3600 X85.924 Y89.883
G1 F1800 X99.478 Y103.438 E84.83244
G0 F3600 X99.478 Y104.004
G1 F1800 X85.924 Y90.449 E85.78878
G1 X85.854 Y90.379
G0 F3600 X85.924 Y92.146
G1 F1800 X91.595 Y97.817 E86.1889
G0 F3600 X91.029 Y97.817
G1 F1800 X85.924 Y92.712 E86.54909
G0 F3600 X85.924 Y93.277
G1 F1800 X90.463 Y97.817 E86.86937
G0 F3600 X89.898 Y97.817
G1 F1800 X85.924 Y93.843 E87.14976
G0 F3600 X85.924 Y94.409
G1 F1800 X89.332 Y97.817 E87.39021
G0 F3600 X88.766 Y97.817
G1 F1800 X85.924 Y94.975 E87.59073
G0 F3600 X85.924 Y95.54
G1 F1800 X88.2 Y97.817 E87.75135
G0 F3600 X87.635 Y97.817
G1 F1800 X85.924 Y96.106 E87.87207
G0 F3600 X85.924 Y96.672
G1 F1800 X87.069 Y97.817 E87.95286
G0 F3600 X86.503 Y97.817
G1 F1800 X85.924 Y97.237 E87.99374
G0 F3600 X85.924 Y97.803
G1 F1800 X86.023 Y97.903 E88.00077
G0 F3600 X85.924 Y98.369
G1 F1800 X86.023 Y98.468 E88.00775
G0 F3600 X85.924 Y98.934
G1 F1800 X86.023 Y99.034 E88.01477
G0 F3600 X85.924 Y99.5
G1 F1800 X86.023 Y99.6 E88.02179
G0 F3600 X85.924 Y100.066
G1 F1800 X86.023 Y100.165 E88.02878
G0 F3600 X85.924 Y100.631
G1 F1800 X86.023 Y100.731 E88.0358
G0 F3600 X86.766 Y98.561
G0 X96.646 Y90.424
G1 F1800 X94.315 Y88.092 E88.2003
G0 F3600 X94.605 Y87.817
G1 F1800 X96.646 Y89.858 E88.3443
G0 F3600 X96.646 Y89.292
G1 F1800 X94.605 Y87.251 E88.4883
G0 F3600 X94.605 Y86.685
G1 F1800 X96.646 Y88.727 E88.63234
G0 F3600 X96.646 Y88.161
G1 F1800 X94.605 Y86.119 E88.77638
G0 F3600 X94.943 Y85.892
G1 F1800 X96.646 Y87.595 E88.89654
G0 F3600 X96.646 Y87.029
G1 F1800 X95.509 Y85.892 E88.97676
G0 F3600 X96.075 Y85.892
G1 F1800 X96.646 Y86.464 E89.01708
G1 X96.716 Y86.534
G0 F3600 X96.923 Y112.763
G1 F1800 X98.231 Y114.071 E89.10937
G0 F3600 X97.663 Y114.068
G1 F1800 X96.923 Y113.328 E89.16158
G0 F3600 X96.923 Y113.894
G1 F1800 X97.094 Y114.064 E89.17361
;MESH:NONMESH
G0 F600 X97.094 Y114.064 Z0.5
G0 F3600 X97.217 Y89.894
;TIME_ELAPSED:78.473375
;LAYER:1
M117 INDICATOR-Layer1
M106 S255
;TYPE:WALL-INNER
;MESH:ghost_v1.stl
G1 F2700 X102.757 Y89.894 E89.35787
G1 X102.757 Y85.767 E89.49513
G1 X105.904 Y85.767 E89.5998
G1 X105.904 Y87.525 E89.65827
G1 X107.993 Y87.525 E89.72775
G1 X107.993 Y89.708 E89.80036
G1 X111.415 Y89.708 E89.91418
G1 X111.415 Y87.65 E89.98263
G1 X113.638 Y87.65 E90.05656
G1 X113.638 Y85.349 E90.1331
G1 X114.646 Y85.349 E90.16662
G1 X114.646 Y101.75 E90.71212
G1 X112.405 Y101.75 E90.78666
G1 X112.405 Y108.095 E90.99769
G1 X110.253 Y108.095 E91.06927
G1 X110.253 Y110.205 E91.13945
G1 X107.971 Y110.205 E91.21535
G1 X107.971 Y112.431 E91.28938
G1 X103.716 Y112.431 E91.43091
G1 X103.716 Y114.473 E91.49882
