;FLAVOR:Marlin
;TIME:1248
;Filament used: 0.602001m
;Layer height: 0.15
;MINX:6.8
;MINY:6.8
;MINZ:0.3
;MAXX:193.2
;MAXY:193.2
;MAXZ:0.3
;Generated with Cura_SteamEngine 4.8.0
M140 S60
M105
M190 S60
M104 S200
M105
M109 S200
M82 ;absolute extrusion mode
G21 ;metric values
 G90 ;absolute positioning
 M82 ;set extruder to absolute mode
 M107 ;start with the fan off
 G28 X0 Y0 ;move X/Y to min endstops
 G28 Z0 ;move Z to min endstops
 G1 Z15.0 F120 ;move the platform down 15mm
 G92 E0 ;zero the extruded length
 G1 F200 E6 ;extrude 6 mm of feed stock
 G92 E0 ;zero the extruded length again
 G1 F120 
;Put printing message on LCD screen
 M117 Printing...
G92 E0
G92 E0
G1 F1500 E-6.5
;LAYER_COUNT:1
;LAYER:0
M117 INDICATOR-Layer0
M107
G0 F3600 X7.789 Y7.704 Z0.3
;TYPE:SKIRT
G1 F1500 E0
G1 F600 X8.18 Y7.383 E0.02524
G1 X8.617 Y7.128 E0.05048
G1 X9.088 Y6.944 E0.07571
G1 X9.582 Y6.838 E0.10092
G1 X10.24 Y6.801 E0.1338
G1 X39.343 Y6.8 E1.58575
G1 X40.048 Y6.811 E1.62093
G1 X40.551 Y6.859 E1.64614
G1 X41.041 Y6.986 E1.67139
G1 X41.504 Y7.188 E1.69659
G1 X41.899 Y7.437 E1.71989
G1 X42.438 Y7.835 E1.75331
G1 X44.704 Y9.461 E1.89246
G1 X46.962 Y10.986 E2.0284
G1 X49.277 Y12.456 E2.16521
G1 X51.628 Y13.855 E2.3017
G1 X54.042 Y15.204 E2.43966
G1 X56.443 Y16.456 E2.57476
G1 X58.924 Y17.662 E2.71238
G1 X61.397 Y18.779 E2.84776
G1 X63.926 Y19.836 E2.98451
G1 X66.527 Y20.839 E3.12359
G1 X69.054 Y21.73 E3.25727
G1 X71.666 Y22.568 E3.39412
G1 X74.321 Y23.341 E3.53208
G1 X76.965 Y24.028 E3.66837
G1 X79.614 Y24.638 E3.80399
G1 X82.335 Y25.185 E3.94246
G1 X84.99 Y25.638 E4.07683
G1 X87.698 Y26.024 E4.2133
G1 X90.436 Y26.335 E4.35078
G1 X93.174 Y26.567 E4.48787
G1 X95.892 Y26.721 E4.62368
G1 X98.645 Y26.799 E4.76109
G1 X101.362 Y26.799 E4.89664
G1 X104.114 Y26.721 E5.03399
G1 X106.861 Y26.565 E5.17126
G1 X109.54 Y26.337 E5.3054
G1 X112.308 Y26.023 E5.44438
G1 X114.997 Y25.64 E5.57989
G1 X117.695 Y25.177 E5.71646
G1 X120.375 Y24.641 E5.85282
G1 X123.04 Y24.027 E5.98926
G1 X125.702 Y23.334 E6.12649
G1 X128.342 Y22.566 E6.26366
G1 X130.935 Y21.732 E6.39955
G1 X133.505 Y20.824 E6.53554
G1 X136.049 Y19.844 E6.67155
G1 X138.614 Y18.773 E6.81023
G1 X141.081 Y17.658 E6.94529
G1 X143.562 Y16.452 E7.08292
G1 X145.979 Y15.192 E7.2189
G1 X148.385 Y13.848 E7.3564
G1 X150.705 Y12.465 E7.49115
G1 X153.043 Y10.981 E7.62931
G1 X155.318 Y9.444 E7.76628
G1 X157.562 Y7.835 E7.90404
G1 X158.142 Y7.408 E7.93997
G1 X158.575 Y7.147 E7.9652
G1 X159.044 Y6.957 E7.99044
G1 X159.536 Y6.844 E8.01563
G1 X160.232 Y6.802 E8.05041
G1 X160.33 Y6.8 E8.0553
G1 X189.334 Y6.8 E9.50232
G1 X190.032 Y6.809 E9.53714
G1 X190.536 Y6.856 E9.5624
G1 X191.026 Y6.981 E9.58763
G1 X191.49 Y7.182 E9.61286
G1 X191.916 Y7.453 E9.63804
G1 X192.295 Y7.788 E9.66328
G1 X192.616 Y8.179 E9.68852
G1 X192.871 Y8.615 E9.71372
G1 X193.055 Y9.086 E9.73895
G1 X193.162 Y9.58 E9.76416
G1 X193.199 Y10.24 E9.79714
G1 X193.2 Y39.318 E11.24785
G1 X193.19 Y40.041 E11.28392
G1 X193.143 Y40.545 E11.30918
G1 X193.017 Y41.034 E11.33437
G1 X192.816 Y41.498 E11.3596
G1 X192.563 Y41.899 E11.38325
G1 X192.165 Y42.438 E11.41668
G1 X190.539 Y44.704 E11.55583
G1 X189.013 Y46.963 E11.69183
G1 X187.544 Y49.277 E11.82858
G1 X186.145 Y51.628 E11.96507
G1 X184.796 Y54.042 E12.10303
G1 X183.544 Y56.443 E12.23812
G1 X182.338 Y58.924 E12.37575
G1 X181.221 Y61.397 E12.51113
G1 X180.169 Y63.912 E12.64714
G1 X179.161 Y66.525 E12.78687
G1 X178.27 Y69.054 E12.92064
G1 X177.432 Y71.666 E13.05749
G1 X176.659 Y74.321 E13.19545
G1 X175.972 Y76.965 E13.33174
G1 X175.362 Y79.614 E13.46736
G1 X174.814 Y82.338 E13.60598
G1 X174.362 Y84.99 E13.7402
G1 X173.976 Y87.698 E13.87667
G1 X173.665 Y90.436 E14.01415
G1 X173.433 Y93.174 E14.15124
G1 X173.279 Y95.892 E14.28705
G1 X173.201 Y98.645 E14.42446
G1 X173.201 Y101.362 E14.56001
G1 X173.279 Y104.115 E14.69741
G1 X173.435 Y106.861 E14.83463
G1 X173.661 Y109.525 E14.96802
G1 X173.977 Y112.308 E15.10775
G1 X174.36 Y114.997 E15.24326
G1 X174.823 Y117.695 E15.37983
G1 X175.359 Y120.375 E15.51619
G1 X175.973 Y123.04 E15.65263
G1 X176.666 Y125.702 E15.78986
G1 X177.434 Y128.342 E15.92703
G1 X178.268 Y130.935 E16.06292
G1 X179.176 Y133.505 E16.19891
G1 X180.156 Y136.049 E16.33492
G1 X181.227 Y138.614 E16.4736
G1 X182.342 Y141.081 E16.60866
G1 X183.541 Y143.548 E16.74551
G1 X184.815 Y145.991 E16.88297
G1 X186.152 Y148.385 E17.01977
G1 X187.535 Y150.705 E17.15452
G1 X189.019 Y153.044 E17.29272
G1 X190.555 Y155.317 E17.42958
G1 X192.147 Y157.537 E17.56587
G1 X192.594 Y158.145 E17.60352
G1 X192.854 Y158.578 E17.62872
G1 X193.043 Y159.047 E17.65395
G1 X193.156 Y159.54 E17.67918
G1 X193.198 Y160.232 E17.71377
G1 X193.2 Y160.33 E17.71866
G1 X193.2 Y189.308 E19.16438
G1 X193.19 Y190.035 E19.20065
G1 X193.143 Y190.538 E19.22586
G1 X193.017 Y191.028 E19.2511
G1 X192.816 Y191.492 E19.27632
G1 X192.544 Y191.918 E19.30154
G1 X192.209 Y192.297 E19.32678
G1 X191.818 Y192.617 E19.35198
G1 X191.382 Y192.872 E19.37718
G1 X190.911 Y193.056 E19.40241
G1 X190.416 Y193.162 E19.42767
G1 X189.76 Y193.199 E19.46045
G1 X160.661 Y193.2 E20.9122
G1 X159.959 Y193.19 E20.94723
G1 X159.456 Y193.143 E20.97243
G1 X158.966 Y193.017 E20.99767
G1 X158.503 Y192.815 E21.02288
G1 X158.106 Y192.566 E21.04626
G1 X157.528 Y192.14 E21.08208
G1 X155.295 Y190.538 E21.21919
G1 X153.038 Y189.014 E21.35505
G1 X150.723 Y187.544 E21.49187
G1 X148.372 Y186.145 E21.62836
G1 X145.958 Y184.796 E21.76632
G1 X143.557 Y183.544 E21.90141
G1 X141.076 Y182.338 E22.03904
G1 X138.603 Y181.221 E22.17442
G1 X136.052 Y180.154 E22.31237
G1 X133.487 Y179.167 E22.44949
G1 X130.954 Y178.273 E22.5835
G1 X128.334 Y177.432 E22.72078
G1 X125.679 Y176.659 E22.85874
G1 X123.035 Y175.972 E22.99503
G1 X120.386 Y175.362 E23.13065
G1 X117.662 Y174.814 E23.26927
G1 X115.01 Y174.362 E23.40349
G1 X112.302 Y173.976 E23.53996
G1 X109.564 Y173.665 E23.67744
G1 X106.826 Y173.433 E23.81452
G1 X104.108 Y173.279 E23.95034
G1 X101.355 Y173.201 E24.08775
G1 X98.638 Y173.201 E24.2233
G1 X95.886 Y173.279 E24.36065
G1 X93.139 Y173.435 E24.49792
G1 X90.46 Y173.663 E24.63206
G1 X87.692 Y173.977 E24.77104
G1 X85.003 Y174.36 E24.90655
G1 X82.305 Y174.823 E25.04312
G1 X79.625 Y175.359 E25.17947
G1 X76.96 Y175.973 E25.31592
G1 X74.298 Y176.666 E25.45315
G1 X71.658 Y177.434 E25.59032
G1 X69.065 Y178.268 E25.72621
G1 X66.495 Y179.176 E25.8622
G1 X63.951 Y180.156 E25.99821
G1 X61.386 Y181.227 E26.13688
G1 X58.919 Y182.342 E26.27195
G1 X56.438 Y183.548 E26.40958
G1 X54.021 Y184.808 E26.54556
G1 X51.615 Y186.152 E26.68306
G1 X49.295 Y187.535 E26.81781
G1 X46.957 Y189.019 E26.95596
G1 X44.682 Y190.556 E27.09294
G1 X42.472 Y192.14 E27.22859
G1 X41.861 Y192.59 E27.26645
G1 X41.429 Y192.851 E27.29163
G1 X40.96 Y193.041 E27.31688
G1 X40.467 Y193.155 E27.34212
G1 X39.768 Y193.198 E27.37706
G1 X39.67 Y193.2 E27.38195
G1 X10.666 Y193.2 E28.82897
G1 X9.968 Y193.191 E28.86379
G1 X9.464 Y193.144 E28.88905
G1 X8.974 Y193.019 E28.91428
G1 X8.51 Y192.818 E28.9395
G1 X8.084 Y192.547 E28.96469
G1 X7.705 Y192.212 E28.98993
G1 X7.384 Y191.821 E29.01517
G1 X7.129 Y191.385 E29.04037
G1 X6.945 Y190.914 E29.0656
G1 X6.838 Y190.42 E29.09081
G1 X6.801 Y189.744 E29.12459
G1 X6.8 Y160.657 E30.57575
G1 X6.811 Y159.952 E30.61092
G1 X6.859 Y159.449 E30.63613
G1 X6.986 Y158.959 E30.66139
G1 X7.188 Y158.496 E30.68659
G1 X7.437 Y158.101 E30.70988
G1 X7.835 Y157.562 E30.74331
G1 X9.461 Y155.296 E30.88245
G1 X10.987 Y153.037 E31.01846
G1 X12.456 Y150.723 E31.15521
G1 X13.855 Y148.372 E31.29169
G1 X15.212 Y145.943 E31.43051
G1 X16.456 Y143.557 E31.56475
G1 X17.662 Y141.076 E31.70238
G1 X18.779 Y138.603 E31.83776
G1 X19.836 Y136.074 E31.97451
G1 X20.839 Y133.473 E32.11359
G1 X21.73 Y130.946 E32.24727
G1 X22.568 Y128.334 E32.38412
G1 X23.347 Y125.657 E32.52322
G1 X24.035 Y123.008 E32.65976
G1 X24.638 Y120.386 E32.79399
G1 X25.186 Y117.662 E32.93261
G1 X25.638 Y115.01 E33.06683
G1 X26.024 Y112.302 E33.2033
G1 X26.335 Y109.564 E33.34077
G1 X26.567 Y106.826 E33.47786
G1 X26.721 Y104.108 E33.61368
G1 X26.799 Y101.355 E33.75108
G1 X26.799 Y98.638 E33.88664
G1 X26.721 Y95.885 E34.02404
G1 X26.564 Y93.119 E34.16226
G1 X26.339 Y90.474 E34.29469
G1 X26.023 Y87.692 E34.43438
G1 X25.64 Y85.002 E34.56994
G1 X25.173 Y82.282 E34.70763
G1 X24.641 Y79.625 E34.84282
G1 X24.027 Y76.96 E34.97926
G1 X23.334 Y74.298 E35.11649
G1 X22.559 Y71.634 E35.25491
G1 X21.732 Y69.064 E35.3896
G1 X20.824 Y66.495 E35.52554
G1 X19.844 Y63.951 E35.66155
G1 X18.764 Y61.366 E35.80132
G1 X17.665 Y58.932 E35.93456
G1 X16.445 Y56.425 E36.07366
G1 X15.192 Y54.021 E36.2089
G1 X13.836 Y51.594 E36.34761
G1 X12.465 Y49.295 E36.48115
G1 X10.981 Y46.957 E36.61931
G1 X9.43 Y44.661 E36.75754
G1 X7.853 Y42.463 E36.8925
G1 X7.414 Y41.868 E36.92939
G1 X7.152 Y41.435 E36.95464
G1 X6.961 Y40.967 E36.97986
G1 X6.846 Y40.475 E37.00507
G1 X6.801 Y39.768 E37.04041
G1 X6.8 Y10.631 E38.49406
G1 X6.809 Y9.966 E38.52724
G1 X6.856 Y9.462 E38.5525
G1 X6.982 Y8.973 E38.57769
G1 X7.183 Y8.509 E38.60292
G1 X7.454 Y8.082 E38.62815
G1 X7.789 Y7.704 E38.65335
G1 F1500 E32.15335
;MESH:20x20.stl
G0 F3600 X10.614 Y9.335
G0 X10.614 Y10.614
G0 X39.33 Y39.33
G0 X39.4 Y39.4
;TYPE:WALL-INNER
G1 F1500 E38.65335
G1 F600 X10.6 Y39.4 E40.09019
G1 X10.6 Y10.6 E41.52702
G1 X39.4 Y10.6 E42.96386
G1 X39.4 Y39.4 E44.4007
G0 F3600 X39.8 Y39.8
;TYPE:WALL-OUTER
G1 F600 X10.2 Y39.8 E45.87745
G1 X10.2 Y10.2 E47.3542
G1 X39.8 Y10.2 E48.83095
G1 X39.8 Y39.8 E50.3077
G0 F3600 X39.6 Y39.8
G0 X39.01 Y39.01
;TYPE:SKIN
G1 F600 X10.99 Y39.01 E51.70562
G1 X10.99 Y10.99 E53.10355
G1 X39.01 Y10.99 E54.50147
G1 X39.01 Y39.01 E55.89939
G0 F3600 X38.829 Y11.676
G1 F600 X38.323 Y11.17 E55.93509
G0 F3600 X37.757 Y11.17
G1 F600 X38.829 Y12.242 E56.01073
G0 F3600 X38.829 Y12.807
G1 F600 X37.191 Y11.17 E56.12626
G0 F3600 X36.626 Y11.17
G1 F600 X38.829 Y13.373 E56.2817
G0 F3600 X38.829 Y13.939
G1 F600 X36.06 Y11.17 E56.47707
G0 F3600 X35.494 Y11.17
G1 F600 X38.829 Y14.504 E56.71233
G0 F3600 X38.829 Y15.07
G1 F600 X34.928 Y11.17 E56.98753
G0 F3600 X34.363 Y11.17
G1 F600 X38.829 Y15.636 E57.30263
G0 F3600 X38.829 Y16.201
G1 F600 X33.797 Y11.17 E57.65763
G0 F3600 X33.231 Y11.17
G1 F600 X38.829 Y16.767 E58.05257
G0 F3600 X38.829 Y17.333
G1 F600 X32.666 Y11.17 E58.4874
G0 F3600 X32.1 Y11.17
G1 F600 X38.829 Y17.898 E58.96213
G0 F3600 X38.829 Y18.464
G1 F600 X31.534 Y11.17 E59.4768
G0 F3600 X30.969 Y11.17
G1 F600 X38.829 Y19.03 E60.03136
G0 F3600 X38.829 Y19.596
G1 F600 X30.403 Y11.17 E60.62586
G0 F3600 X29.837 Y11.17
G1 F600 X38.829 Y20.161 E61.26026
G0 F3600 X38.829 Y20.727
G1 F600 X29.272 Y11.17 E61.93456
G0 F3600 X28.706 Y11.17
G1 F600 X38.829 Y21.293 E62.64879
G0 F3600 X38.829 Y21.858
G1 F600 X28.14 Y11.17 E63.40293
G0 F3600 X27.575 Y11.17
G1 F600 X38.829 Y22.424 E64.19696
G0 F3600 X38.829 Y22.99
G1 F600 X27.009 Y11.17 E65.03092
G0 F3600 X26.443 Y11.17
G1 F600 X38.829 Y23.555 E65.90478
G0 F3600 X38.829 Y24.121
G1 F600 X25.877 Y11.17 E66.81858
G0 F3600 X25.312 Y11.17
G1 F600 X38.829 Y24.687 E67.77228
G0 F3600 X38.829 Y25.252
G1 F600 X24.746 Y11.17 E68.76588
G0 F3600 X24.18 Y11.17
G1 F600 X38.829 Y25.818 E69.79941
G0 F3600 X38.829 Y26.384
G1 F600 X23.615 Y11.17 E70.87284
G0 F3600 X23.049 Y11.17
G1 F600 X38.829 Y26.949 E71.98617
G0 F3600 X38.829 Y27.515
G1 F600 X22.483 Y11.17 E73.13943
G0 F3600 X21.918 Y11.17
G1 F600 X38.829 Y28.081 E74.33259
G0 F3600 X38.829 Y28.647
G1 F600 X21.352 Y11.17 E75.56569
G0 F3600 X20.786 Y11.17
G1 F600 X38.829 Y29.212 E76.83868
G0 F3600 X38.829 Y29.778
G1 F600 X20.221 Y11.17 E78.15158
G0 F3600 X19.655 Y11.17
G1 F600 X38.829 Y30.344 E79.50441
G0 F3600 X38.829 Y30.909
G1 F600 X19.089 Y11.17 E80.89714
G0 F3600 X18.524 Y11.17
G1 F600 X38.829 Y31.475 E82.32976
G0 F3600 X38.829 Y32.041
G1 F600 X17.958 Y11.17 E83.80233
G0 F3600 X17.392 Y11.17
G1 F600 X38.829 Y32.606 E85.31479
G0 F3600 X38.829 Y33.172
G1 F600 X16.827 Y11.17 E86.86715
G0 F3600 X16.261 Y11.17
G1 F600 X38.829 Y33.738 E88.45944
G0 F3600 X38.829 Y34.303
G1 F600 X15.695 Y11.17 E90.09163
G0 F3600 X15.129 Y11.17
G1 F600 X38.829 Y34.869 E91.76376
G0 F3600 X38.829 Y35.435
G1 F600 X14.564 Y11.17 E93.47579
G0 F3600 X13.998 Y11.17
G1 F600 X38.829 Y36 E95.22771
G0 F3600 X38.829 Y36.566
G1 F600 X13.432 Y11.17 E97.01958
G0 F3600 X12.867 Y11.17
G1 F600 X38.829 Y37.132 E98.85133
G0 F3600 X38.829 Y37.697
G1 F600 X12.301 Y11.17 E100.72299
G0 F3600 X11.735 Y11.17
G1 F600 X38.829 Y38.263 E102.63459
G0 F3600 X38.829 Y38.829
G1 F600 X11.169 Y11.169 E104.58615
G0 F3600 X11.169 Y11.735
G1 F600 X38.263 Y38.829 E106.49778
G0 F3600 X37.697 Y38.829
G1 F600 X11.169 Y12.3 E108.3695
G0 F3600 X11.169 Y12.866
G1 F600 X37.132 Y38.829 E110.20133
G0 F3600 X36.566 Y38.829
G1 F600 X11.169 Y13.432 E111.99323
G0 F3600 X11.169 Y13.997
G1 F600 X36 Y38.829 E113.74523
G0 F3600 X35.435 Y38.829
G1 F600 X11.169 Y14.563 E115.45732
G0 F3600 X11.169 Y15.129
G1 F600 X34.869 Y38.829 E117.12949
G0 F3600 X34.303 Y38.829
G1 F600 X11.169 Y15.694 E118.76175
G0 F3600 X11.169 Y16.26
G1 F600 X33.738 Y38.829 E120.35412
G0 F3600 X33.172 Y38.829
G1 F600 X11.169 Y16.826 E121.90655
G0 F3600 X11.169 Y17.391
G1 F600 X32.606 Y38.829 E123.41908
G0 F3600 X32.041 Y38.829
G1 F600 X11.169 Y17.957 E124.89171
G0 F3600 X11.169 Y18.523
G1 F600 X31.475 Y38.829 E126.32441
G0 F3600 X30.909 Y38.829
G1 F600 X11.169 Y19.089 E127.71717
G0 F3600 X11.169 Y19.654
G1 F600 X30.344 Y38.829 E129.07007
G0 F3600 X29.778 Y38.829
G1 F600 X11.169 Y20.22 E130.38304
G0 F3600 X11.169 Y20.786
G1 F600 X29.212 Y38.829 E131.65607
G0 F3600 X28.647 Y38.829
G1 F600 X11.169 Y21.351 E132.88924
G0 F3600 X11.169 Y21.917
G1 F600 X28.081 Y38.829 E134.08247
G0 F3600 X27.515 Y38.829
G1 F600 X11.169 Y22.483 E135.23577
G0 F3600 X11.169 Y23.048
G1 F600 X26.949 Y38.829 E136.34917
G0 F3600 X26.384 Y38.829
G1 F600 X11.169 Y23.614 E137.42267
G0 F3600 X11.169 Y24.18
G1 F600 X25.818 Y38.829 E138.45623
G0 F3600 X25.252 Y38.829
G1 F600 X11.169 Y24.745 E139.4499
G0 F3600 X11.169 Y25.311
G1 F600 X24.687 Y38.829 E140.40367
G0 F3600 X24.121 Y38.829
G1 F600 X11.169 Y25.877 E141.3175
G0 F3600 X11.169 Y26.442
G1 F600 X23.555 Y38.829 E142.19144
G0 F3600 X22.99 Y38.829
G1 F600 X11.169 Y27.008 E143.02547
G0 F3600 X11.169 Y27.574
G1 F600 X22.424 Y38.829 E143.81957
G0 F3600 X21.858 Y38.829
G1 F600 X11.169 Y28.14 E144.57374
G0 F3600 X11.169 Y28.705
G1 F600 X21.293 Y38.829 E145.28804
G0 F3600 X20.727 Y38.829
G1 F600 X11.169 Y29.271 E145.96241
G0 F3600 X11.169 Y29.837
G1 F600 X20.161 Y38.829 E146.59684
G0 F3600 X19.596 Y38.829
G1 F600 X11.169 Y30.402 E147.19141
G0 F3600 X11.169 Y30.968
G1 F600 X19.03 Y38.829 E147.74605
G0 F3600 X18.464 Y38.829
G1 F600 X11.169 Y31.534 E148.26075
G0 F3600 X11.169 Y32.099
G1 F600 X17.898 Y38.829 E148.73556
G0 F3600 X17.333 Y38.829
G1 F600 X11.169 Y32.665 E149.17046
G0 F3600 X11.169 Y33.231
G1 F600 X16.767 Y38.829 E149.56543
G0 F3600 X16.201 Y38.829
G1 F600 X11.169 Y33.796 E149.9205
G0 F3600 X11.169 Y34.362
G1 F600 X15.636 Y38.829 E150.23567
G0 F3600 X15.07 Y38.829
G1 F600 X11.169 Y34.928 E150.51091
G0 F3600 X11.169 Y35.493
G1 F600 X14.504 Y38.829 E150.74624
G0 F3600 X13.939 Y38.829
G1 F600 X11.169 Y36.059 E150.94168
G0 F3600 X11.169 Y36.625
G1 F600 X13.373 Y38.829 E151.09719
G0 F3600 X12.807 Y38.829
G1 F600 X11.169 Y37.19 E151.21279
G0 F3600 X11.169 Y37.756
G1 F600 X12.242 Y38.829 E151.2885
G0 F3600 X11.676 Y38.829
G1 F600 X11.169 Y38.322 E151.32427
G1 F1500 E144.82427
G0 F3600 X39.386 Y39.386
G0 X40.665 Y39.386
G0 X85.614 Y84.335
G0 X85.614 Y85.614
G0 X114.33 Y114.33
G0 X114.4 Y114.4
;TYPE:WALL-INNER
G1 F1500 E151.32427
G1 F600 X85.6 Y114.4 E152.76111
G1 X85.6 Y85.6 E154.19794
G1 X114.4 Y85.6 E155.63478
G1 X114.4 Y114.4 E157.07162
G0 F3600 X114.8 Y114.8
;TYPE:WALL-OUTER
G1 F600 X85.2 Y114.8 E158.54837
G1 X85.2 Y85.2 E160.02512
G1 X114.8 Y85.2 E161.50187
G1 X114.8 Y114.8 E162.97862
G0 F3600 X114.6 Y114.8
G0 X114.01 Y114.01
;TYPE:SKIN
G1 F600 X85.99 Y114.01 E164.37654
G1 X85.99 Y85.99 E165.77447
G1 X114.01 Y85.99 E167.17239
G1 X114.01 Y114.01 E168.57031
G0 F3600 X113.829 Y86.676
G1 F600 X113.323 Y86.17 E168.60601
G0 F3600 X112.757 Y86.17
G1 F600 X113.829 Y87.242 E168.68165
G0 F3600 X113.829 Y87.807
G1 F600 X112.191 Y86.17 E168.79718
G0 F3600 X111.625 Y86.17
